beomjoonlee/lg_sgu_vision/gtsp_trajectory/data/sample/trajectory/163/tilt_trajectory.csv
time,ur20-shoulder_pan_joint,ur20-shoulder_lift_joint,ur20-elbow_joint,ur20-wrist_1_joint,ur20-wrist_2_joint,ur20-wrist_3_joint,target-POS_X,target-POS_Y,target-POS_Z
0.0,-0.2095868852239382,-0.3963959464050499,2.298120492225894,1.6847036735996108,-1.381091498494171,3.051941702506828,0.7948828339576721,0.0661640539765358,-0.04145503044128418
1.0,-0.21031003302536935,-0.3963774808874436,2.2982271211051324,1.6847989917492348,-1.3786917326001291,3.051594284907983,0.7948829881855256,0.06597110310352963,-0.041455101816221036
2.0,-0.2110328758445143,-0.39635910693483206,2.298332494441471,1.6848971285441368,-1.3762923656370039,3.05124619527852,0.7948834491619685,0.06577815282546091,-0.04145531621859735
3.0,-0.21175540814060811,-0.39634082563904643,2.298436612608306,1.6849980878035418,-1.373893403355512,3.050897429698498,0.7948842168855825,0.06558520373601164,-0.041455673647753426
4.0,-0.21247762437754716,-0.396322638085476,2.2985394759941955,1.6851018733425056,-1.3714948515033931,3.050547984230243,0.7948852913540053,0.06539225642886011,-0.041456174102589526
5.0,-0.21319951902402096,-0.3963045453530594,2.2986410850029,1.6852084889719994,-1.3690967158252945,3.0501978549181854,0.7948866725639309,0.06519931149767921,-0.041456817581565795
6.0,-0.2139210865536449,-0.3962865485142756,2.2987414400534205,1.6853179384989982,-1.3666990020626515,3.0498470377886977,0.7948883605111096,0.06500636953613445,-0.04145760408270234
7.0,-0.21464232144509224,-0.39626864863513356,2.298840541580034,1.6854302257265632,-1.3643017159535729,3.0494955288499304,0.7948903551903478,0.06481343113788224,-0.04145853360357922
8.0,-0.21536321818222634,-0.39625084677516553,2.2989383900323377,1.685545354453928,-1.3619048632327242,3.049143324091647,0.794892656595508,0.06462049689656799,-0.04145960614133641
9.0,-0.2160837712542315,-0.3962331439874203,2.2990349858752848,1.6856633284766007,-1.3595084496312129,3.0487904194850572,0.7948952647195092,0.06442756740582437,-0.04146082169267385
10.0,-0.2168039751557454,-0.3962155413184565,2.299130329589224,1.6857841515864476,-1.3571124808764718,3.04843681098265,0.7948981795543266,0.06423464325926938,-0.04146218025385146
11.0,-0.2175238243869893,-0.3961980398083375,2.299224421669939,1.685907827571792,-1.3547169626921456,3.048082494518024,0.7949014010909917,0.06404172505050462,-0.04146368182068914
12.0,-0.21824331345390022,-0.3961806404906267,2.299317262628687,1.686034360217514,-1.3523219007979743,3.047727466005717,0.794904929319592,0.0638488133731134,-0.04146532638856675
13.0,-0.2189624368682609,-0.39616334439238343,2.2994088529922396,1.6861637533051523,-1.3499273009096806,3.047371721341035,0.7949087642292719,0.06365590882065893,-0.041467113952424195
14.0,-0.21968118914783014,-0.39614615253416113,2.2994991933029203,1.6862960106130036,-1.3475331687388568,3.0470152563998796,0.7949129058082317,0.06346301198668251,-0.04146904450676138
15.0,-0.22039956481647396,-0.3961290659300039,2.299588284118645,1.6864311359162294,-1.3451395099928483,3.0466580670385723,0.7949173540437284,0.06327012346470169,-0.04147111804563824
16.0,-0.22111755840429465,-0.3961120855874474,2.2996761260129617,1.6865691329869679,-1.3427463303746443,3.0463001490936805,0.7949221089220755,0.06307724384820843,-0.041473334562674775
17.0,-0.22183516444776097,-0.3960952125075156,2.29976271957509,1.6867100055944368,-1.3403536355827628,3.045941498381839,0.7949271704286426,0.0628843737306673,-0.041475694051051074
18.0,-0.22255237748983733,-0.39607844768472356,2.299848065409961,1.6868537575050537,-1.3379614313111396,3.0455821106995726,0.7949325385478564,0.06269151370551365,-0.04147819650350729
19.0,-0.22326919208011342,-0.3960617921070778,2.299932164138256,1.6870003924825474,-1.335569723249016,3.045221981823117,0.7949382132631997,0.06249866436615177,-0.04148084191234375
20.0,-0.22398560277493237,-0.39604524675607883,2.3000150163964497,1.6871499142880746,-1.3331785170808284,3.0448611075082366,0.7949441945572123,0.062305826305953056,-0.04148363026942084
21.0,-0.22470160413751944,-0.39602881260672357,2.300096622836846,1.6873023266803442,-1.3307878184860968,3.044499483490041,0.7949504824114906,0.062113000118254234,-0.041486561566159194
22.0,-0.22541719073811078,-0.3960124906275111,2.3001769841276225,1.6874576334157336,-1.3283976331393148,3.044137105482802,0.7949570768066876,0.06192018639635547,-0.041489635793539606
23.0,-0.22613235715408078,-0.3959962817804446,2.3002561009528675,1.687615838248423,-1.3260079667098401,3.0437739691797696,0.7949639777225134,0.06172738573351859,-0.04149285294210308
24.0,-0.22684709797006988,-0.3959801870210391,2.3003339740126227,1.6877769449305149,-1.3236188248617846,3.043410070252982,0.7949711851377346,0.06153459872296522,-0.04149621300195088
25.0,-0.22756140777811157,-0.39596420729832815,2.300410604022922,1.6879409572121669,-1.321230213253906,3.043045404353079,0.794978699030175,0.06134182595787501,-0.04149971596274457
26.0,-0.22827528117775972,-0.39594834355486996,2.3004859917158345,1.688107878841729,-1.3188421375395,3.0426799671091103,0.7949865193767156,0.06114906803138375,-0.041503361813706015
27.0,-0.22898871277621455,-0.39593259672675674,2.3005601378395037,1.688277713565869,-1.3164546033662912,3.0423137541283474,0.794994646153294,0.0609563255365816,-0.04150715054361741
28.0,-0.22970169718844946,-0.39591696774362367,2.300633043158188,1.6884504651297247,-1.3140676163763274,3.041946760996086,0.7950030793349052,0.06076359906651121,-0.041511082140821345
29.0,-0.23041422903733608,-0.3959014575286593,2.300704708452304,1.688626137277032,-1.3116811822058718,3.041578983275454,0.7950118188956016,0.060570889214165945,-0.041515156593220824
30.0,-0.23112630295377085,-0.39588606699861567,2.300775134518465,1.6888047337502752,-1.309295306485297,3.0412104165072145,0.7950208648084927,0.06037819657248803,-0.041519373888279316
31.0,-0.23183791357679862,-0.3958707970638221,2.3008443221695267,1.6889862582908288,-1.30690999483898,3.040841056209569,0.7950302170457453,0.06018552173436674,-0.04152373401302077
32.0,-0.23254905555373862,-0.39585564862819633,2.3009122722346222,1.6891707146391133,-1.3045252528851967,3.040470897877956,0.795039875578584,0.059992865292636574,-0.04152823695402967
33.0,-0.23325972354030805,-0.3958406225892591,2.300978985559211,1.6893581065347372,-1.3021410862360177,3.0400999369848507,0.7950498403772908,0.05980022784007542,-0.04153288269745107
34.0,-0.2339699122007462,-0.395825719838149,2.3010444630051157,1.689548437716658,-1.2997575004972035,3.0397281689795626,0.7950601114112053,0.05960760996940274,-0.041537671228990644
35.0,-0.23467961620793779,-0.39581094125963784,2.3011087054505657,1.6897417119233353,-1.2973745012681033,3.0393555892880313,0.7950706886487248,0.059415012273277744,-0.04154260253391473
36.0,-0.23538883024353635,-0.3957962877321475,2.30117171379024,1.6899379328928943,-1.2949920941415494,3.0389821933126187,0.7950815720573047,0.05922243534429757,-0.041547676597050366
37.0,-0.2360975489980865,-0.3957817601277678,2.301233488935309,1.6901371043632862,-1.292610284703758,3.0386079764319023,0.7950927616034582,0.05902987977499547,-0.04155289340278534
38.0,-0.23680576717114615,-0.39576735931227364,2.3012940318134767,1.690339230072451,-1.2902290785342259,3.038232934000466,0.7951042572527566,0.058837346157838956,-0.041558252935068256
39.0,-0.23751347947140852,-0.39575308614514687,2.3013533433690236,1.6905443137584906,-1.2878484812056301,3.037857061348688,0.7951160589698293,0.058644835085228,-0.04156375517740855
40.0,-0.23822068061682336,-0.39573894147959415,2.30141142456285,1.6907523591598326,-1.2854684982837281,3.0374803537825277,0.795128166718364,0.05845234714949322,-0.041569400112876555
41.0,-0.2389273653347178,-0.3957249261625701,2.30146827637252,1.6909633700154123,-1.283089135327258,3.03710280658331,0.7951405804611068,0.058259882942894026,-0.041575187724103575
42.0,-0.23963352836191687,-0.3957110410347984,2.3015238997923007,1.6911773500648446,-1.2807103978878391,3.036724415007511,0.7951533001598623,0.05806744305761684,-0.04158111799328191
43.0,-0.24033916444486317,-0.39569728693079725,2.3015782958332105,1.6913943030486023,-1.278332291509875,3.0363451742865366,0.7951663257754937,0.05787502808577323,-0.04158719090216492
44.0,-0.24104426833973655,-0.39568366467890026,2.30163146552306,1.6916142327082027,-1.2759548217304546,3.0359650796265036,0.7951796572679231,0.057682638619398124,-0.04159340643206708
45.0,-0.24174883481257342,-0.3956701751012852,2.301683409906498,1.6918371427863879,-1.2735779940792564,3.0355841262080174,0.7951932945961309,0.057490275250447954,-0.04159976456386405
46.0,-0.2424528586393844,-0.3956568190139975,2.301734130045051,1.6920630370273184,-1.271201814078451,3.0352023091859475,0.7952072377181572,0.05729793857079887,-0.041606265277992716
47.0,-0.24315633460627328,-0.3956435972269798,2.3017836270171728,1.692291919176759,-1.2688262872426075,3.0348196236892004,0.7952214865911007,0.05710562917224491,-0.041612908554451246
48.0,-0.243859257509554,-0.3956305105440982,2.3018319019182854,1.692523792982277,-1.266451419078597,3.0344360648204938,0.7952360411711198,0.056913347646496144,-0.041619694372799186
49.0,-0.24456162215586785,-0.39561755976317253,2.3018789558608264,1.6927586621934385,-1.2640772150854993,3.0340516276561242,0.7952509014134318,0.05672109458517691,-0.04162662271215749
50.0,-0.24526342336229984,-0.39560474567600745,2.30192478997429,1.692996530562007,-1.2617036807545094,3.033666307245737,0.7952660672723137,0.05652887057982393,-0.04163369355120857
51.0,-0.24596465595649478,-0.39559206906842154,2.3019694054052757,1.6932374018421508,-1.259330821568846,3.0332800986120905,0.7952815387011025,0.05633667622188457,-0.04164090686819644
52.0,-0.24666531477677286,-0.39557953072028085,2.302012803317533,1.693481279790641,-1.2569586430036566,3.032892996750822,0.7952973156521944,0.056144512102714934,-0.041648262640926664
53.0,-0.24736539467224436,-0.3955671314055322,2.3020549848920044,1.6937281681670708,-1.2545871505259307,3.0325049966302076,0.7953133980770459,0.05595237881357812,-0.04165576084676655
54.0,-0.2480648905029241,-0.39555487189223837,2.302095951326874,1.6939780707340655,-1.252216349594406,3.0321160931909232,0.7953297859261736,0.05576027694564233,-0.04166340146264512
55.0,-0.24876379713984526,-0.3955427529426112,2.302135703837614,1.6942309912574898,-1.2498462456594808,3.031726281345803,0.7953464791491545,0.05556820708997912,-0.04167118446505322
56.0,-0.249462109465173,-0.3955307753130488,2.3021742436570265,1.6944869335066797,-1.2474768441631234,3.031335555979594,0.7953634776946253,0.05537616983756154,-0.04167910983004361
57.0,-0.2501598223723165,-0.3955189397541747,2.302211572035295,1.6947459012546562,-1.2451081505387864,3.0309439119487087,0.7953807815102842,0.05518416577926229,-0.041687177533231
58.0,-0.2508569307660422,-0.3955072470108741,2.30224769024003,1.6950078982783536,-1.2427401702113179,3.0305513440809793,0.7953983905428896,0.05499219550585199,-0.04169538754979218
59.0,-0.25155342956258403,-0.39549569782233407,2.3022825995563134,1.6952729283588435,-1.2403729085968753,3.0301578471754045,0.7954163047382607,0.05480025960799729,-0.041703739854466
60.0,-0.2522493136897557,-0.39548429292208453,2.3023163012867496,1.6955409952815759,-1.2380063711028404,3.0297634160018965,0.7954345240412782,0.05460835867625904,-0.04171223442155357
61.0,-0.2529445780870605,-0.39547303303803866,2.3023487967515095,1.6958121028366027,-1.2356405631277336,3.0293680453010268,0.7954530483958836,0.05441649330109054,-0.04172087122491826
62.0,-0.25363921770580117,-0.3954619188925379,2.3023800872883817,1.696086254818827,-1.2332754900611314,3.0289717297837684,0.7954718777450801,0.05422466407283568,-0.04172965023798577
63.0,-0.2543332275091897,-0.39545095120239215,2.302410174252818,1.6963634550282374,-1.2309111572835814,3.0285744641312355,0.7954910120309321,0.05403287158172712,-0.041738571433744265
64.0,-0.2550266024724551,-0.39544013067892825,2.3024390590179835,1.6966437072701528,-1.2285475701665227,3.0281762429944217,0.7955104511945661,0.0538411164178845,-0.041747634784744435
65.0,-0.2557193375829524,-0.3954294580280328,2.302466742974805,1.6969270153554776,-1.226184734072201,3.0277770609939347,0.7955301951761705,0.05364939917131259,-0.041756840263099566
66.0,-0.2564114278402696,-0.3954189339502006,2.3024932275320187,1.6972133831009446,-1.2238226543535915,3.0273769127197316,0.7955502439149956,0.0534577204318995,-0.04176618784048565
67.0,-0.25710286825633416,-0.3954085591405832,2.302518514116222,1.6975028143293802,-1.2214613363543179,3.026975792730847,0.7955705973493543,0.05326608078941489,-0.04177567748814145
68.0,-0.25779365385552044,-0.3953983342890362,2.3025426041719212,1.6977953128699517,-1.219100785408572,3.026573695555123,0.7955912554166216,0.05307448083350806,-0.04178530917686858
69.0,-0.258483779674754,-0.3953882600801716,2.3025654991615823,1.6980908825584378,-1.216741006841039,3.026170615688933,0.7956122180532356,0.052882921153706255,-0.04179508287703167
70.0,-0.25917324076361725,-0.3953783371934067,2.3025872005656804,1.6983895272374918,-1.2143820059668178,3.0257665475969104,0.795633485194697,0.05269140233941279,-0.041804998558558334
71.0,-0.2598620321844536,-0.39536856630301853,2.302607709882752,1.6986912507569107,-1.2120237880913465,3.0253614857116626,0.7956550567755697,0.0524999249799052,-0.04181505619093936
72.0,-0.2605501490124712,-0.3953589480781958,2.3026270286294457,1.6989960569739024,-1.2096663585103267,3.0249554244334935,0.7956769327294808,0.052308489664333525,-0.04182525574322878
73.0,-0.26123758633584576,-0.39534948318309554,2.3026451583405705,1.6993039497533753,-1.207309722509649,3.0245483581301187,0.7956991129891211,0.0521170969817184,-0.041835597184043935
74.0,-0.26192433925582354,-0.3953401722768965,2.3026621005691523,1.6996149329682029,-1.2049538853653203,3.0241402811363782,0.7957215974862447,0.05192574752094931,-0.04184608048156562
75.0,-0.26261040288682225,-0.3953310160138569,2.3026778568864814,1.699929010499518,-1.2025988523433908,3.0237311877539477,0.79574438615167,0.05173444187078273,-0.04185670560353814
76.0,-0.26329577235653284,-0.39532201504337355,2.302692428882169,1.7002461862369922,-1.2002446286998831,3.0233210722510457,0.7957674789152793,0.051543180619840354,-0.04186747251726942
77.0,-0.2639804428060192,-0.39531317001003946,2.302705818164196,1.7005664640791365,-1.1978912196807214,3.0229099288621395,0.7957908757060195,0.05135196435660726,-0.041878381189631116
78.0,-0.2646644093898184,-0.3953044815537034,2.302718026358969,1.7008898479335797,-1.1955386305216626,3.0224977517876472,0.7958145764519013,0.051160793669430105,-0.04188943158705871
79.0,-0.26534766727603976,-0.39529595030953485,2.302729055111372,1.7012163417173867,-1.1931868664482264,3.0220845351936383,0.7958385810800013,0.05096966914651531,-0.04190062367555164
80.0,-0.266030211646463,-0.3952875769080817,2.3027389060848233,1.7015459493573408,-1.190835932675629,3.0216702732115306,0.79586288951646,0.05077859137592726,-0.04191195742067335
81.0,-0.2667120376966358,-0.395279361975338,2.302747580961325,1.7018786747902672,-1.1884858344087161,3.0212549599377834,0.7958875016864839,0.050587560945586474,-0.04192343278755143
82.0,-0.2673931406359708,-0.3952713061328063,2.302755081441521,1.7022145219633293,-1.1861365768418983,3.02083858943359,0.7959124175143447,0.05039657844326785,-0.04193504974087772
83.0,-0.26807351568784243,-0.39526340999756465,2.302761409244752,1.7025534948343444,-1.183788165159084,3.020421155724567,0.7959376369233796,0.05020564445659878,-0.041946808244908436
84.0,-0.26875315808968175,-0.3952556741823343,2.302766566109111,1.7028955973721092,-1.1814406045336185,3.0200026528004376,0.795963159835992,0.050014759573057385,-0.041958708263464234
85.0,-0.26943206309307177,-0.39524809929554633,2.3027705537914964,1.7032408335567093,-1.1790939001282206,3.0195830746147174,0.7959889861736512,0.049823924379970734,-0.04197074975993036
86.0,-0.2701102259638415,-0.39524068594141265,2.302773374067673,1.7035892073798549,-1.1767480570949198,3.019162415084392,0.7960151158568931,0.04963313946451295,-0.04198293269725676
87.0,-0.27078764198215927,-0.3952334347199968,2.302775028732326,1.703940722845202,-1.1744030805749979,3.018740668089593,0.7960415488053203,0.04944240541370352,-0.041995257037958186
88.0,-0.2714643064426257,-0.3952263462272841,2.3027755195991166,1.70429538396869,-1.1720589756989284,3.0183178274732763,0.7960682849376021,0.049251722814405374,-0.042007722744114295
89.0,-0.27214021465436555,-0.39521942105525754,2.3027748485007455,1.7046531947788754,-1.1697157475863182,3.0178938870408865,0.796095324171475,0.04906109225332317,-0.042020329777369775
90.0,-0.27281536194111905,-0.39521265979196835,2.3027730172890033,1.7050141593172763,-1.1673734013458505,3.01746884056003,0.796122666423743,0.04887051431700143,-0.042033078098934515
91.0,-0.2734897436413325,-0.39520606302161626,2.3027700278348373,1.705378281638714,-1.1650319420752282,3.0170426817601363,0.7961503116102775,0.048679989591822764,-0.042045967669583635
92.0,-0.2741633551082478,-0.3951996313246207,2.3027658820284036,1.7057455658116683,-1.1626913748611192,3.01661540433212,0.7961782596460182,0.04848951866400607,-0.04205899844965765
93.0,-0.2748361917099921,-0.3951933652777043,2.3027605817791312,1.706116015918622,-1.1603517047791014,3.016187001928039,0.7962065104449727,0.048299102119604684,-0.04207217039906263
94.0,-0.27550824882966546,-0.395187265453967,2.30275412901578,1.7064896360564268,-1.1580129368936116,3.0157574681607504,0.796235063920217,0.048108740544504654,-0.04208548347727025
95.0,-0.276179521865429,-0.39518133242297027,2.302746525686502,1.7068664303366623,-1.1556750762578916,3.01532679660356,0.796263919983896,0.047918434524422876,-0.042098937643317964
96.0,-0.27685000623059125,-0.3951755667508167,2.302737773758903,1.707246402886,-1.1533381279139374,3.0148949807898724,0.7962930785472235,0.0477281846449053,-0.04211253285580912
97.0,-0.2775196973536947,-0.39516996900023305,2.302727875220103,1.707629557846577,-1.1510020968924515,3.0144620142128344,0.7963225395204825,0.047537991491325156,-0.042126269072913086
98.0,-0.2781885906786008,-0.39516453973065513,2.3027168320767992,1.7080158993763697,-1.1486669882127916,3.0140278903249778,0.7963523028130256,0.047347855648881124,-0.042140146252365375
99.0,-0.2788566816645745,-0.3951592794983122,2.3027046463553282,1.7084054316495714,-1.1463328068829264,3.0135926025378565,0.796382368333275,0.04715777770259556,-0.042154164351467766
100.0,-0.2795239657863683,-0.39515418885631437,2.3026913201017303,1.7087981588569792,-1.143999557899386,3.013156144221682,0.7964127359887234,0.04696775823731267,-0.04216832332708847
101.0,-0.28019043853430503,-0.39514926835474035,2.302676855381812,1.7091940852063765,-1.1416672462472188,3.0127185087049533,0.7964434056859334,0.046777797837696714,-0.04218262313566222
102.0,-0.28085609541436024,-0.3951445185407259,2.3026612542812113,1.7095932149229338,-1.1393358768999464,3.012279689274085,0.7964743773305387,0.046587897088230225,-0.04219706373319043
103.0,-0.2815209319482436,-0.3951399399585546,2.3026445189054607,1.7099955522495958,-1.1370054548195225,3.0118396791730313,0.7965056508272434,0.046398056573212214,-0.042211645075241354
104.0,-0.28218494367347996,-0.3951355331497505,2.302626651380056,1.7104011014474916,-1.1346759849562877,3.0113984716029067,0.7965372260798236,0.04620827687675634,-0.042226367116950145
105.0,-0.28284812614348853,-0.39513129865316965,2.30260765385052,1.7108098667963356,-1.1323474722489335,3.010956059721602,0.796569102991126,0.046018558582789124,-0.04224122981301907
106.0,-0.28351047492766257,-0.39512723700509533,2.3025875284824693,1.7112218525948404,-1.1300199216244597,3.0105124366433964,0.7966012814630701,0.0458289022750482,-0.04225623311771761
107.0,-0.28417198561144796,-0.39512334873933347,2.3025662774616826,1.7116370631611295,-1.1276933379981364,3.010067595438568,0.7966337613966469,0.04563930853708041,-0.04227137698488264
108.0,-0.2848326537964198,-0.39511963438730935,2.302543902994168,1.7120555028331614,-1.1253677262734696,3.0096215291329984,0.7966665426919199,0.04544977795224016,-0.042286661367918504
109.0,-0.2854924751003604,-0.39511609447816587,2.302520407306231,1.7124771759691504,-1.1230430913421623,3.0091742307077753,0.7966996252480256,0.04526031110368748,-0.04230208621979724
110.0,-0.28615144515733426,-0.3951127295388641,2.3024957926445455,1.7129020869480025,-1.1207194380840817,3.0087256930987865,0.7967330089631736,0.045070908574386316,-0.042317651493058626
111.0,-0.286809559617764,-0.3951095400942817,2.3024700612762206,1.7133302401697412,-1.1183967713672263,3.008275909196319,0.7967666937346464,0.04488157094710271,-0.04233335713981044
112.0,-0.28746681414850417,-0.3951065266673183,2.302443215488875,1.7137616400559514,-1.1160750960476917,3.007824871844643,0.7968006794588006,0.044692298804403,-0.04234920311172852
113.0,-0.2881232044329147,-0.39510368977899674,2.3024152575907038,1.714196291050227,-1.113754416969643,3.007372573841602,0.7968349660310667,0.04450309272865206,-0.04236518936005695
114.0,-0.28877872617093503,-0.3951010299485697,2.3023861899105547,1.7146341976186135,-1.111434738965281,3.0069190079381904,0.7968695533459498,0.04431395330201146,-0.04238131583560818
115.0,-0.28943337507915384,-0.39509854769362385,2.302356014797997,1.7150753642500656,-1.109116066854818,3.0064641668381342,0.7969044412970291,0.04412488110643771,-0.04239758248876324
116.0,-0.2900871468908821,-0.39509624353018946,2.302324734623397,1.7155197954569064,-1.1067984054464475,3.0060080431974625,0.7969396297769591,0.04393587672368046,-0.04241398926947183
117.0,-0.29074003735622284,-0.3950941179728485,2.3022923517779894,1.7159674957752904,-1.1044817595363208,3.005550629624076,0.7969751186774697,0.04374694073528071,-0.04243053612725249
118.0,-0.29139204224213994,-0.3950921715348465,2.3022588686739556,1.7164184697656764,-1.10216613390852,3.005091918677312,0.7970109078893663,0.043558073722569014,-0.042447223011192775
119.0,-0.292043157332528,-0.3950904047282017,2.302224287744496,1.716872722013296,-1.099851533335038,3.0046319028675064,0.7970469973025303,0.0433692762666637,-0.042464049869949394
120.0,-0.2926933784282796,-0.39508881806382146,2.3021886114439076,1.7173302571286408,-1.0975379625757515,3.0041705746555465,0.7970833868059195,0.043180548948469094,-0.04248101665174837
121.0,-0.293342701347352,-0.3950874120516132,2.30215184224766,1.7177910797479392,-1.095225426378406,3.003707926452425,0.7971200762875682,0.042991892348673684,-0.0424981233043852
122.0,-0.29399112192483473,-0.39508618720060484,2.302113982652474,1.718255194533657,-1.0929139294785921,3.003243950618786,0.7971570656345879,0.0428033070477484,-0.042515369775225034
123.0,-0.2946386360130132,-0.39508514401905837,2.302075035176397,1.7187226061749838,-1.090603476599729,3.0027786394644673,0.7971943547331674,0.042614793625944766,-0.04253275601120279
124.0,-0.2952852394814349,-0.3950842830145919,2.3020350023588896,1.7191933193883406,-1.088294072453048,3.0023119852480393,0.7972319434685731,0.04242635266329318,-0.04255028195882337
125.0,-0.29593092821697237,-0.3950836046942969,2.3019938867608962,1.7196673389178792,-1.0859857217375768,3.001843980176337,0.7972698317251495,0.04223798473960106,-0.0425679475641618
126.0,-0.296575698123886,-0.39508310956486326,2.301951690964931,1.720144669536005,-1.0836784291401245,3.0013746164039885,0.7973080193863197,0.0420496904344511,-0.0425857527728634
127.0,-0.2972195451238867,-0.39508279813270036,2.3019084175751603,1.7206253160438874,-1.0813721993352703,3.0009038860329413,0.7973465063345851,0.0418614703271995,-0.04260369753014393
128.0,-0.29786246515619685,-0.3950826709040629,2.301864069217481,1.721109283271984,-1.0790670369853503,3.0004317811119763,0.797385292451527,0.04167332499697414,-0.0426217817807898
129.0,-0.29850445417761107,-0.3950827283851763,2.30181864853961,1.72159657608057,-1.0767629467404494,2.999958293636227,0.7974243776178054,0.04148525502267282,-0.04264000546915821
130.0,-0.29914550816255503,-0.3950829710823654,2.3017721582111594,1.7220871993602762,-1.0744599332383904,2.999483415546685,0.7974637617131606,0.04129726098296151,-0.04265836853917732
131.0,-0.29978562310314544,-0.3950833995021838,2.3017246009237304,1.7225811580326271,-1.0721580011047283,2.999007138729707,0.7975034446164131,0.0411093434562725,-0.04267687093434646
132.0,-0.3004247950092469,-0.39508401415154304,2.3016759793909958,1.7230784570505835,-1.0698571549527442,2.998529455016512,0.7975434262054638,0.04092150302080269,-0.04269551259773623
133.0,-0.3010630199085296,-0.3950848155378472,2.3016262963487835,1.723579101399107,-1.0675573993834389,2.9980503561826746,0.797583706357295,0.040733740254511756,-0.04271429347198876
134.0,-0.30170029384652575,-0.395085804169125,2.3015755545551704,1.7240830960957025,-1.0652587389855324,2.997569833947616,0.79762428494797,0.04054605573512042,-0.042733213499317836
135.0,-0.30233661288668434,-0.3950869805541654,2.301523756790565,1.7245904461909964,-1.0629611783354591,2.9970878799740865,0.7976651618526339,0.040358450040108636,-0.042752272621509074
136.0,-0.30297197311042634,-0.39508834520265584,2.301470905857802,1.7251011567692969,-1.0606647219973708,2.996604485867644,0.797706336945514,0.04017092374671383,-0.04277147077992013
137.0,-0.3036063706171981,-0.3950898986253188,2.3014170045822286,1.725615232949177,-1.0583693745231342,2.996119643176126,0.79774781009992,0.03998347743192912,-0.042790807915480865
138.0,-0.3042398015245247,-0.3950916413340536,2.3013620558117998,1.7261326798840566,-1.0560751404523354,2.9956333433891187,0.7977895811882448,0.03979611167250153,-0.04281028396869351
139.0,-0.30487226196806133,-0.3950935738420774,2.301306062417167,1.7266535027627896,-1.053782024312284,2.9951455779374174,0.7978316500819642,0.03960882704493024,-0.04282989887963288
140.0,-0.30550374810164527,-0.3950956966640679,2.301249027291774,1.7271777068102587,-1.0514900306180166,2.9946563381924847,0.797874016651638,0.03942162412546479,-0.04284965258794654
141.0,-0.3061342560973458,-0.3950980103163093,2.3011909533519512,1.7277052972879814,-1.0491991638723055,2.994165615465899,0.79791668076691,0.039234503490103316,-0.042869545032855
142.0,-0.30676378214551386,-0.3951005153168384,2.3011318435370103,1.7282362794947128,-1.0469094285656655,2.993673401008802,0.7979596422965085,0.03904746571459079,-0.042889576153151886
143.0,-0.3073923224548307,-0.39510321218559197,2.3010717008093406,1.728770658767065,-1.0446208291763643,2.993179686011337,0.7980029011082465,0.03886051137441723,-0.04290974588720413
144.0,-0.30801987325235614,-0.39510610144455804,2.301010528154507,1.729308440480125,-1.042333370170433,2.9926844616020825,0.7980464570690224,0.03867364104481591,-0.042930054172952196
145.0,-0.3086464307835751,-0.39510918361792624,2.3009483285813497,1.7298496300480883,-1.0400470560016792,2.9921877188474792,0.7980903100448208,0.03848685530076164,-0.04295050094791022
146.0,-0.30927199131244354,-0.39511245923224186,2.30088510512208,1.7303942329248854,-1.0377618911117008,2.9916894487512526,0.7981344599007116,0.03830015471696896,-0.042971086149166234
147.0,-0.3098965511214348,-0.3951159288165587,2.300820860832386,1.7309422546048288,-1.0354778799299025,2.9911896422538296,0.7981789065008518,0.03811353986789041,-0.04299180971338235
148.0,-0.3105201065115832,-0.3951195929025993,2.3007555987915316,1.731493700623264,-1.0331950268735108,2.9906882902317444,0.7982236497084853,0.0379270113277147,-0.043012671576794954
149.0,-0.31114265380252787,-0.3951234520249087,2.3006893221024587,1.7320485765572171,-1.0309133363475946,2.9901853834970464,0.798268689385943,0.037740569670364994,-0.0430336716752149
150.0,-0.31176418933255573,-0.39512750672101804,2.300622033891893,1.7326068880260632,-1.028632812745084,2.9896809127966937,0.7983140253946441,0.037554215469497124,-0.04305480994402774
151.0,-0.31238470945864333,-0.39513175753160595,2.30055373731045,1.7331686406921964,-1.0263534604467932,2.9891748688119457,0.798359657595096,0.03736794929849786,-0.043076086318193846
152.0,-0.3130042105564982,-0.3951362050006584,2.3004844355327387,1.7337338402616986,-1.0240752838214418,2.9886672421577467,0.7984055858468941,0.037181771730483065,-0.04309750073224869
153.0,-0.3136226890205982,-0.39514084967563856,2.3004141317574702,1.7343024924850357,-1.021798287225682,2.9881580233821032,0.7984518100087238,0.03699568333829602,-0.043119053120303015
154.0,-0.3142401412642328,-0.39514569210765216,2.300342829207569,1.734874603157737,-1.0195224750041216,2.987647202965457,0.7984983299383593,0.0368096846945056,-0.04314074341604302
155.0,-0.31485656371953935,-0.3951507328516149,2.300270531130278,1.7354501781211005,-1.0172478514893553,2.9871347713200467,0.7985451454926652,0.036623776371404584,-0.04316257155273061
156.0,-0.3154719528375429,-0.39515597246642575,2.3001972407972744,1.7360292232628993,-1.0149744210019915,2.9866207187892684,0.7985922565275962,0.03643795894100778,-0.043184537463203526
157.0,-0.3160863050881917,-0.39516141151513756,2.3001229615047802,1.7366117445180917,-1.012702187850684,2.9861050356470247,0.7986396628981983,0.03625223297505037,-0.04320664107987563
158.0,-0.3166996169603937,-0.39516705056513185,2.3000476965736754,1.7371977478695444,-1.0104311563321655,2.9855877120970704,0.7986873644586082,0.0360665990449861,-0.043228882334737095
159.0,-0.3173118849620524,-0.3951728901882955,2.2999714493496133,1.7377872393487614,-1.0081613307312804,2.985068738272347,0.7987353610620548,0.03588105772198556,-0.04325126115935455
160.0,-0.31792310562010034,-0.39517893096119905,2.299894223203138,1.7383802250366192,-1.0058927153210202,2.984548104234316,0.7987836525608588,0.03569560957693436,-0.04327377748487139
161.0,-0.3185332754805328,-0.3951851734652761,2.2998160215298005,1.7389767110641146,-1.003625314362563,2.984025799972278,0.7988322388064341,0.03551025518043145,-0.0432964312420079
162.0,-0.31914239110844117,-0.39519161828700555,2.2997368477502786,1.739576703613116,-1.0013591321053101,2.9835018154026924,0.7988811196492871,0.03532499510278729,-0.043319222361061546
163.0,-0.3197504490880441,-0.3951982660180957,2.2996567053104973,1.7401802089171226,-0.9990941727869285,2.982976140368481,0.7989302949390181,0.03513982991402219,-0.04334215077190712
164.0,-0.32035744602271915,-0.3952051172556697,2.299575597681748,1.7407872332620367,-0.9968304406333909,2.9824487646383324,0.7989797645243215,0.03495476018386443,-0.04336521640399698
165.0,-0.32096337853503226,-0.3952121726024543,2.2994935283608164,1.7413977829869343,-0.9945679398590221,2.981919677905994,0.7990295282529859,0.03476978648174864,-0.043388419186361306
166.0,-0.321568243266768,-0.39521943266696885,2.299410500870102,1.7420118644848606,-0.9923066746665424,2.9813888697895563,0.7990795859718951,0.03458490937681393,-0.043411759047608245
167.0,-0.3221720368789575,-0.39522689806371664,2.299326518757746,1.7426294842036152,-0.9900466492471159,2.9808563298307322,0.7991299375270282,0.03440012943790225,-0.043435235915924214
168.0,-0.3227747560519065,-0.39523456941338103,2.29924158559776,1.7432506486465587,-0.9877878677803996,2.980322047494127,0.7991805827634603,0.034215447233556524,-0.04345884971907405
169.0,-0.32337639748522207,-0.3952424473430188,2.2991557049901523,1.7438753643734233,-0.9855303344345929,2.979786012166499,0.7992315215253628,0.03403086333201902,-0.04348260038440125
170.0,-0.32397695789783887,-0.39525053248626013,2.29906888056106,1.7445036380011312,-0.9832740533664903,2.9792482131560165,0.799282753656004,0.03384637830122949,-0.043506487838828226
171.0,-0.3245764340280441,-0.3952588254835076,2.2989811159628797,1.7451354762046274,-0.9810190287215358,2.9787086396915,0.7993342789977496,0.033661992708823495,-0.04353051200885651
172.0,-0.3251748226335023,-0.3952673269821388,2.2988924148744005,1.7457708857177112,-0.9787652646338778,2.9781672809216624,0.799386097392063,0.03347770712213065,-0.043554672820566964
173.0,-0.3257721204912784,-0.395276037636711,2.2988027810009406,1.7464098733338889,-0.9765127652264277,2.9776241259143386,0.7994382086795061,0.03329352210817285,-0.04357897019962004
174.0,-0.32636832439786184,-0.3952849581091672,2.298712218074481,1.7470524459072234,-0.9742615346109174,2.9770791636557044,0.7994906126997393,0.03310943823366254,-0.04360340407125596
175.0,-0.32696343116918647,-0.39529408906904545,2.2986207298538064,1.7476986103532062,-0.972011576887961,2.976532383049491,0.7995433092915227,0.03292545606500099,-0.04362797436029501
176.0,-0.3275574376406536,-0.3953034311936893,2.298528320124641,1.748348373649628,-0.9697628961471176,2.9759837729161887,0.7995962982927158,0.0327415761682765,-0.04365268099113771
177.0,-0.3281503406671512,-0.3953129851684612,2.298434992699794,1.7490017428374627,-0.9675154964669559,2.975433321992239,0.7996495795402788,0.032557799109262736,-0.04367752388776511
178.0,-0.3287421371230741,-0.3953227516869576,2.2983407514192993,1.7496587250217595,-0.9652693819151179,2.9748810189292243,0.7997031528702724,0.03237412545341691,-0.04370250297373895
179.0,-0.329332823902342,-0.3953327314512281,2.29824560015056,1.7503193273725526,-0.9630245565483915,2.9743268522930446,0.7997570181178586,0.032190555765878114,-0.04372761817220196
180.0,-0.32992239791841826,-0.3953429251719932,2.2981495427884977,1.7509835571257641,-0.9607810244127756,2.973770810563084,0.7998111751173014,0.0320070906114655,-0.04375286940587805
181.0,-0.33051085610432623,-0.39535333356886815,2.298052583255694,1.751651421584141,-0.9585387895435541,2.9732128821313695,0.799865623701967,0.03182373055467662,-0.0437782565970726
182.0,-0.3310981954126661,-0.3953639573705875,2.297954725502549,1.7523229281181696,-0.9562978559653696,2.972653055301723,0.7999203637043244,0.03164047615968562,-0.04380377966767262
183.0,-0.3316844128156301,-0.3953747973152325,2.2978559735074238,1.752998084167037,-0.9540582276922964,2.972091318288898,0.799975394955946,0.0314573279903416,-0.04382943853914708
184.0,-0.3322695053050173,-0.39538585415045896,2.2977563312767986,1.753676897239573,-0.9518199087279196,2.971527659217715,0.8000307172875081,0.03127428661016674,-0.04385523313254709
185.0,-0.3328534698922477,-0.39539712863373155,2.2976558028454264,1.75435937491522,-0.949582903065413,2.9709620661221763,0.8000863305287913,0.03109135258235471,-0.04388116336850617
186.0,-0.3334363036083746,-0.3954086215325568,2.29755439227649,1.7550455248450059,-0.94734721468762,2.970394526944581,0.8001422345086813,0.03090852646976884,-0.04390722916724047
187.0,-0.3340180035040982,-0.3954203336247198,2.297452103661759,1.7557353547525258,-0.9451128475671363,2.9698250295346265,0.8001984290551689,0.03072580883494041,-0.04393343044854905
188.0,-0.3345985666497762,-0.3954322656985242,2.2973489411217534,1.756428872434942,-0.9428798056663946,2.9692535616484967,0.8002549139953512,0.030543200240066938,-0.04395976713181409
189.0,-0.33517799013543437,-0.3954444185530344,2.2972449088059,1.7571260857639948,-0.9406480929377511,2.968680110947947,0.8003116891554315,0.03036070124701048,-0.04398623913600118
190.0,-0.3357562710707775,-0.3954567929983198,2.297140010892705,1.7578270026870089,-0.9384177133235728,2.968104664999369,0.8003687543607204,0.030178312417295794,-0.04401284637965953
191.0,-0.33633340658519767,-0.39546938985570096,2.297034251589912,1.7585316312279355,-0.9361886707563289,2.967527211272857,0.800426109435636,0.02999603431210872,-0.044039588780922234
192.0,-0.3369093938277831,-0.3954822099580019,2.2969276351346735,1.7592399794883866,-0.9339609691586822,2.9669477371412523,0.8004837542037044,0.029813867492294407,-0.044066466257506536
193.0,-0.33748422996732563,-0.39549525414979986,2.2968201657937226,1.7599520556486843,-0.9317346124435841,2.9663662298791857,0.8005416884875605,0.029631812518355602,-0.04409347872671406
194.0,-0.3380579121923277,-0.39550852328768205,2.2967118478635427,1.7606678679689305,-0.9295096045143705,2.965782676662104,0.8005999121089481,0.02944986995045091,-0.044120626105431084
195.0,-0.3386304377110083,-0.3955220182405032,2.29660268567054,1.7613874247900851,-0.9272859492648586,2.965197064565286,0.8006584248887212,0.029268040348393073,-0.04414790831012878
196.0,-0.3392018037513085,-0.39553573988964663,2.296492683571225,1.7621107345350409,-0.9250636505794484,2.964609380562848,0.8007172266468437,0.029086324271647236,-0.04417532525686349
197.0,-0.33977200756089554,-0.39554968912928723,2.296381845952385,1.7628378057097367,-0.9228427123332249,2.9640196115267425,0.8007763172023907,0.028904722279329297,-0.04420287686127696
198.0,-0.3403410464071671,-0.3955638668666573,2.2962701772312673,1.763568646904264,-0.9206231383920606,2.9634277442257355,0.8008356963735485,0.02872323493020408,-0.044230563038596626
199.0,-0.34090891757725444,-0.39557827402231804,2.2961576818557616,1.7643032667939915,-0.9184049326127232,2.9628337653243806,0.8008953639776153,0.02854186278268369,-0.04425838370363585
200.0,-0.3403410464071671,-0.3955638668666573,2.2962701772312673,1.763568646904264,-0.9206231383920606,2.9634277442257355,0.8008356963735485,0.02872323493020408,-0.044230563038596626
201.0,-0.33977200756089554,-0.39554968912928723,2.296381845952385,1.7628378057097367,-0.9228427123332249,2.9640196115267425,0.8007763172023907,0.028904722279329297,-0.04420287686127696
202.0,-0.33920180375130843,-0.3955357398896466,2.2964926835712247,1.7621107345350409,-0.9250636505794484,2.964609380562848,0.8007172266468437,0.02908632427164725,-0.04417532525686349
203.0,-0.3386304377110083,-0.3955220182405032,2.29660268567054,1.7613874247900851,-0.9272859492648586,2.965197064565286,0.8006584248887212,0.029268040348393073,-0.04414790831012878
204.0,-0.3380579121923277,-0.39550852328768205,2.2967118478635427,1.7606678679689305,-0.9295096045143705,2.965782676662104,0.8005999121089481,0.029449869950450916,-0.044120626105431084
205.0,-0.33748422996732563,-0.39549525414979986,2.2968201657937226,1.7599520556486843,-0.9317346124435841,2.9663662298791857,0.8005416884875605,0.029631812518355602,-0.04409347872671406
206.0,-0.33690939382778307,-0.3954822099580019,2.2969276351346735,1.7592399794883866,-0.9339609691586823,2.9669477371412523,0.8004837542037044,0.02981386749229442,-0.044066466257506536
207.0,-0.33633340658519767,-0.39546938985570096,2.297034251589912,1.7585316312279355,-0.9361886707563289,2.967527211272857,0.800426109435636,0.02999603431210872,-0.044039588780922234
208.0,-0.3357562710707775,-0.3954567929983198,2.297140010892705,1.7578270026870089,-0.9384177133235728,2.968104664999369,0.8003687543607204,0.030178312417295794,-0.04401284637965953
209.0,-0.33517799013543437,-0.3954444185530344,2.2972449088059,1.7571260857639948,-0.9406480929377511,2.968680110947947,0.8003116891554315,0.03036070124701048,-0.04398623913600118
210.0,-0.3345985666497761,-0.39543226569852447,2.297348941121753,1.7564288724349437,-0.9428798056663948,2.9692535616484967,0.8002549139953512,0.030543200240066952,-0.04395976713181409
211.0,-0.3340180035040982,-0.3954203336247198,2.297452103661759,1.7557353547525258,-0.9451128475671363,2.9698250295346265,0.8001984290551689,0.03072580883494041,-0.04393343044854905
212.0,-0.3334363036083746,-0.3954086215325568,2.29755439227649,1.7550455248450059,-0.94734721468762,2.970394526944581,0.8001422345086813,0.03090852646976884,-0.04390722916724047
213.0,-0.3328534698922477,-0.39539712863373155,2.2976558028454264,1.75435937491522,-0.949582903065413,2.9709620661221763,0.8000863305287913,0.03109135258235471,-0.04388116336850617
214.0,-0.3322695053050173,-0.39538585415045896,2.2977563312767986,1.753676897239573,-0.9518199087279199,2.971527659217715,0.8000307172875081,0.031274286610166756,-0.04385523313254709
215.0,-0.3316844128156301,-0.3953747973152325,2.2978559735074238,1.752998084167037,-0.9540582276922964,2.972091318288898,0.799975394955946,0.0314573279903416,-0.04382943853914708
216.0,-0.3310981954126661,-0.3953639573705875,2.297954725502549,1.7523229281181696,-0.9562978559653696,2.972653055301723,0.7999203637043244,0.031640476159685633,-0.04380377966767262
217.0,-0.33051085610432623,-0.39535333356886815,2.298052583255694,1.751651421584141,-0.9585387895435541,2.9732128821313695,0.799865623701967,0.03182373055467662,-0.0437782565970726
218.0,-0.32992239791841826,-0.39534292517199326,2.2981495427884977,1.7509835571257641,-0.9607810244127757,2.973770810563084,0.7998111751173014,0.03200709061146551,-0.043752869405878046
219.0,-0.329332823902342,-0.3953327314512281,2.29824560015056,1.7503193273725526,-0.9630245565483915,2.9743268522930446,0.7997570181178586,0.032190555765878114,-0.04372761817220196
220.0,-0.3287421371230741,-0.3953227516869576,2.2983407514192993,1.7496587250217595,-0.9652693819151179,2.9748810189292243,0.7997031528702724,0.03237412545341691,-0.04370250297373895
221.0,-0.3281503406671512,-0.3953129851684612,2.298434992699794,1.7490017428374627,-0.9675154964669559,2.975433321992239,0.7996495795402788,0.032557799109262736,-0.04367752388776511
222.0,-0.32755743764065354,-0.3953034311936893,2.298528320124641,1.748348373649628,-0.969762896147118,2.9759837729161887,0.7995962982927158,0.032741576168276505,-0.04365268099113771
223.0,-0.32696343116918647,-0.39529408906904545,2.2986207298538064,1.7476986103532062,-0.972011576887961,2.976532383049491,0.7995433092915227,0.03292545606500099,-0.04362797436029501
224.0,-0.3263683243978618,-0.3952849581091673,2.2987122180744812,1.7470524459072234,-0.9742615346109177,2.9770791636557044,0.7994906126997393,0.033109438233662546,-0.04360340407125596
225.0,-0.3257721204912784,-0.395276037636711,2.2988027810009406,1.7464098733338889,-0.9765127652264277,2.9776241259143386,0.7994382086795061,0.03329352210817285,-0.04357897019962004
226.0,-0.3251748226335022,-0.3952673269821388,2.2988924148744005,1.7457708857177112,-0.978765264633878,2.9781672809216624,0.799386097392063,0.033477707122130655,-0.043554672820566964
227.0,-0.3245764340280441,-0.3952588254835076,2.2989811159628797,1.7451354762046274,-0.9810190287215358,2.9787086396915,0.7993342789977496,0.033661992708823495,-0.04353051200885651
228.0,-0.32397695789783887,-0.39525053248626013,2.29906888056106,1.7445036380011312,-0.9832740533664903,2.9792482131560165,0.799282753656004,0.03384637830122949,-0.043506487838828226
229.0,-0.32337639748522207,-0.3952424473430188,2.2991557049901523,1.7438753643734233,-0.9855303344345929,2.979786012166499,0.7992315215253628,0.03403086333201902,-0.04348260038440125
230.0,-0.3227747560519065,-0.39523456941338103,2.29924158559776,1.7432506486465587,-0.9877878677803998,2.980322047494127,0.7991805827634603,0.03421544723355653,-0.04345884971907404
231.0,-0.3221720368789575,-0.39522689806371664,2.299326518757746,1.7426294842036152,-0.9900466492471159,2.9808563298307322,0.7991299375270282,0.03440012943790225,-0.043435235915924214
232.0,-0.321568243266768,-0.39521943266696885,2.299410500870102,1.7420118644848606,-0.9923066746665424,2.9813888697895563,0.7990795859718951,0.03458490937681393,-0.043411759047608245
233.0,-0.32096337853503226,-0.3952121726024543,2.2994935283608164,1.7413977829869343,-0.9945679398590221,2.981919677905994,0.7990295282529859,0.03476978648174864,-0.043388419186361306
234.0,-0.3203574460227191,-0.3952051172556697,2.299575597681748,1.7407872332620367,-0.9968304406333911,2.9824487646383324,0.7989797645243215,0.03495476018386444,-0.04336521640399698
235.0,-0.3197504490880441,-0.3951982660180957,2.2996567053104973,1.7401802089171226,-0.9990941727869285,2.982976140368481,0.7989302949390181,0.03513982991402219,-0.04334215077190712
236.0,-0.3191423911084411,-0.39519161828700555,2.2997368477502786,1.739576703613116,-1.0013591321053101,2.9835018154026924,0.7988811196492871,0.035324995102787304,-0.043319222361061546
237.0,-0.3185332754805328,-0.3951851734652761,2.2998160215298005,1.7389767110641146,-1.003625314362563,2.984025799972278,0.7988322388064341,0.03551025518043145,-0.0432964312420079
238.0,-0.31792310562010034,-0.39517893096119905,2.299894223203138,1.7383802250366192,-1.0058927153210202,2.984548104234316,0.7987836525608588,0.035695609576934365,-0.04327377748487139
239.0,-0.3173118849620524,-0.3951728901882955,2.2999714493496133,1.7377872393487614,-1.0081613307312804,2.985068738272347,0.7987353610620548,0.03588105772198556,-0.04325126115935455
240.0,-0.3166996169603937,-0.39516705056513185,2.3000476965736754,1.7371977478695444,-1.0104311563321657,2.9855877120970704,0.7986873644586082,0.03606659904498612,-0.043228882334737095
241.0,-0.3160863050881917,-0.39516141151513756,2.3001229615047802,1.7366117445180917,-1.012702187850684,2.9861050356470247,0.7986396628981983,0.03625223297505037,-0.04320664107987563
242.0,-0.3154719528375429,-0.39515597246642575,2.3001972407972744,1.7360292232628993,-1.0149744210019915,2.9866207187892684,0.7985922565275962,0.03643795894100778,-0.043184537463203526
243.0,-0.31485656371953935,-0.3951507328516149,2.300270531130278,1.7354501781211005,-1.0172478514893553,2.9871347713200467,0.7985451454926652,0.036623776371404584,-0.04316257155273061
244.0,-0.3142401412642328,-0.39514569210765216,2.300342829207569,1.734874603157737,-1.0195224750041216,2.987647202965457,0.7984983299383593,0.036809684694505615,-0.04314074341604302
245.0,-0.3136226890205982,-0.39514084967563856,2.3004141317574702,1.7343024924850357,-1.021798287225682,2.9881580233821032,0.7984518100087238,0.03699568333829602,-0.043119053120303015
246.0,-0.3130042105564982,-0.3951362050006584,2.3004844355327387,1.7337338402616986,-1.0240752838214418,2.9886672421577467,0.7984055858468941,0.037181771730483065,-0.04309750073224869
247.0,-0.31238470945864333,-0.39513175753160595,2.30055373731045,1.7331686406921964,-1.0263534604467932,2.9891748688119457,0.798359657595096,0.03736794929849786,-0.043076086318193846
248.0,-0.31176418933255573,-0.39512750672101804,2.300622033891893,1.7326068880260632,-1.0286328127450841,2.9896809127966937,0.7983140253946441,0.03755421546949714,-0.04305480994402774
249.0,-0.31114265380252787,-0.3951234520249087,2.3006893221024587,1.7320485765572171,-1.0309133363475946,2.9901853834970464,0.798268689385943,0.037740569670364994,-0.0430336716752149
250.0,-0.3105201065115832,-0.3951195929025993,2.3007555987915316,1.731493700623264,-1.0331950268735108,2.9906882902317444,0.7982236497084853,0.0379270113277147,-0.043012671576794954
251.0,-0.3098965511214348,-0.3951159288165587,2.300820860832386,1.7309422546048288,-1.0354778799299025,2.9911896422538296,0.7981789065008518,0.03811353986789041,-0.04299180971338235
252.0,-0.3092719913124435,-0.39511245923224186,2.30088510512208,1.7303942329248854,-1.037761891111701,2.9916894487512526,0.7981344599007116,0.038300154716968966,-0.042971086149166234
253.0,-0.3086464307835751,-0.39510918361792624,2.3009483285813497,1.7298496300480883,-1.0400470560016792,2.9921877188474792,0.7980903100448208,0.03848685530076164,-0.04295050094791022
254.0,-0.30801987325235614,-0.39510610144455804,2.301010528154507,1.729308440480125,-1.042333370170433,2.9926844616020825,0.7980464570690224,0.03867364104481591,-0.042930054172952196
255.0,-0.3073923224548307,-0.39510321218559197,2.3010717008093406,1.728770658767065,-1.0446208291763643,2.993179686011337,0.7980029011082465,0.03886051137441723,-0.04290974588720413
256.0,-0.30676378214551375,-0.3951005153168385,2.3011318435370103,1.7282362794947128,-1.0469094285656657,2.993673401008802,0.7979596422965085,0.0390474657145908,-0.042889576153151886
257.0,-0.3061342560973458,-0.3950980103163093,2.3011909533519512,1.7277052972879814,-1.0491991638723055,2.994165615465899,0.79791668076691,0.039234503490103316,-0.042869545032855
258.0,-0.30550374810164527,-0.3950956966640679,2.301249027291774,1.7271777068102587,-1.0514900306180168,2.9946563381924847,0.797874016651638,0.039421624125464794,-0.04284965258794654
259.0,-0.30487226196806133,-0.3950935738420774,2.301306062417167,1.7266535027627896,-1.053782024312284,2.9951455779374174,0.7978316500819642,0.03960882704493024,-0.04282989887963288
260.0,-0.3042398015245246,-0.3950916413340536,2.3013620558117998,1.7261326798840566,-1.0560751404523356,2.9956333433891187,0.7977895811882448,0.039796111672501536,-0.04281028396869351
261.0,-0.3036063706171981,-0.3950898986253188,2.3014170045822286,1.725615232949177,-1.0583693745231342,2.996119643176126,0.79774781009992,0.03998347743192912,-0.042790807915480865
262.0,-0.30297197311042634,-0.39508834520265584,2.301470905857802,1.7251011567692969,-1.0606647219973708,2.996604485867644,0.797706336945514,0.040170923746713834,-0.04277147077992013
263.0,-0.30233661288668434,-0.3950869805541654,2.301523756790565,1.7245904461909964,-1.0629611783354591,2.9970878799740865,0.7976651618526339,0.040358450040108636,-0.042752272621509074
264.0,-0.30170029384652575,-0.395085804169125,2.3015755545551704,1.7240830960957025,-1.0652587389855326,2.997569833947616,0.79762428494797,0.04054605573512043,-0.042733213499317836
265.0,-0.3010630199085296,-0.3950848155378472,2.3016262963487835,1.723579101399107,-1.0675573993834389,2.9980503561826746,0.797583706357295,0.040733740254511756,-0.04271429347198876
266.0,-0.3004247950092469,-0.39508401415154304,2.3016759793909958,1.7230784570505835,-1.0698571549527442,2.998529455016512,0.7975434262054638,0.04092150302080269,-0.04269551259773623
267.0,-0.29978562310314544,-0.3950833995021838,2.3017246009237304,1.7225811580326271,-1.0721580011047283,2.999007138729707,0.7975034446164131,0.0411093434562725,-0.04267687093434646
268.0,-0.29914550816255503,-0.3950829710823654,2.3017721582111594,1.7220871993602762,-1.0744599332383906,2.999483415546685,0.7974637617131606,0.04129726098296152,-0.04265836853917732
269.0,-0.29850445417761107,-0.3950827283851763,2.30181864853961,1.72159657608057,-1.0767629467404494,2.999958293636227,0.7974243776178054,0.04148525502267282,-0.04264000546915821
270.0,-0.29786246515619685,-0.3950826709040629,2.301864069217481,1.721109283271984,-1.0790670369853503,3.0004317811119763,0.797385292451527,0.04167332499697414,-0.0426217817807898
271.0,-0.2972195451238867,-0.39508279813270036,2.3019084175751603,1.7206253160438874,-1.0813721993352703,3.0009038860329413,0.7973465063345851,0.0418614703271995,-0.04260369753014393
272.0,-0.296575698123886,-0.39508310956486326,2.301951690964931,1.720144669536005,-1.0836784291401245,3.0013746164039885,0.7973080193863197,0.04204969043445111,-0.0425857527728634
273.0,-0.29593092821697237,-0.3950836046942969,2.3019938867608962,1.7196673389178792,-1.0859857217375768,3.001843980176337,0.7972698317251495,0.04223798473960106,-0.0425679475641618
274.0,-0.2952852394814349,-0.3950842830145919,2.3020350023588896,1.7191933193883406,-1.0882940724530483,3.0023119852480393,0.7972319434685731,0.042426352663293185,-0.04255028195882337
275.0,-0.2946386360130132,-0.39508514401905837,2.302075035176397,1.7187226061749838,-1.090603476599729,3.0027786394644673,0.7971943547331674,0.042614793625944766,-0.04253275601120279
276.0,-0.29399112192483473,-0.39508618720060484,2.302113982652474,1.718255194533657,-1.0929139294785921,3.003243950618786,0.7971570656345879,0.0428033070477484,-0.042515369775225034
277.0,-0.293342701347352,-0.3950874120516132,2.30215184224766,1.7177910797479392,-1.095225426378406,3.003707926452425,0.7971200762875682,0.042991892348673684,-0.0424981233043852
278.0,-0.2926933784282796,-0.39508881806382146,2.3021886114439076,1.7173302571286408,-1.0975379625757515,3.0041705746555465,0.7970833868059195,0.043180548948469094,-0.04248101665174837
279.0,-0.292043157332528,-0.3950904047282017,2.302224287744496,1.716872722013296,-1.099851533335038,3.0046319028675064,0.7970469973025303,0.0433692762666637,-0.042464049869949394
280.0,-0.29139204224213994,-0.3950921715348465,2.3022588686739556,1.7164184697656764,-1.1021661339085203,3.005091918677312,0.7970109078893663,0.04355807372256902,-0.042447223011192775
281.0,-0.29074003735622284,-0.3950941179728485,2.3022923517779894,1.7159674957752904,-1.1044817595363208,3.005550629624076,0.7969751186774697,0.04374694073528071,-0.04243053612725249
282.0,-0.2900871468908821,-0.39509624353018946,2.302324734623397,1.7155197954569064,-1.1067984054464475,3.0060080431974625,0.7969396297769591,0.04393587672368046,-0.04241398926947183
283.0,-0.28943337507915384,-0.39509854769362385,2.302356014797997,1.7150753642500656,-1.109116066854818,3.0064641668381342,0.7969044412970291,0.04412488110643771,-0.04239758248876324
284.0,-0.28877872617093503,-0.3951010299485697,2.3023861899105547,1.7146341976186135,-1.111434738965281,3.0069190079381904,0.7968695533459498,0.04431395330201146,-0.04238131583560818
285.0,-0.2881232044329147,-0.39510368977899674,2.3024152575907038,1.714196291050227,-1.113754416969643,3.007372573841602,0.7968349660310667,0.04450309272865206,-0.04236518936005695
286.0,-0.2874668141485041,-0.3951065266673184,2.302443215488875,1.7137616400559514,-1.116075096047692,3.007824871844643,0.7968006794588006,0.04469229880440301,-0.04234920311172852
287.0,-0.286809559617764,-0.3951095400942817,2.3024700612762206,1.7133302401697412,-1.1183967713672263,3.008275909196319,0.7967666937346464,0.04488157094710271,-0.04233335713981044
288.0,-0.28615144515733426,-0.3951127295388641,2.3024957926445455,1.7129020869480025,-1.1207194380840817,3.0087256930987865,0.7967330089631736,0.04507090857438632,-0.042317651493058626
289.0,-0.28549247510036035,-0.39511609447816587,2.302520407306231,1.7124771759691504,-1.1230430913421623,3.0091742307077753,0.7966996252480256,0.04526031110368749,-0.04230208621979724
290.0,-0.28483265379641975,-0.39511963438730935,2.302543902994168,1.7120555028331614,-1.1253677262734696,3.009621529132999,0.7966665426919199,0.045449777952240165,-0.042286661367918504
291.0,-0.28417198561144796,-0.39512334873933347,2.3025662774616826,1.7116370631611295,-1.1276933379981364,3.010067595438568,0.7966337613966469,0.04563930853708042,-0.04227137698488264
292.0,-0.28351047492766257,-0.39512723700509533,2.3025875284824693,1.7112218525948404,-1.1300199216244597,3.0105124366433964,0.7966012814630701,0.0458289022750482,-0.04225623311771761
293.0,-0.2828481261434885,-0.39513129865316965,2.30260765385052,1.7108098667963356,-1.1323474722489337,3.010956059721602,0.796569102991126,0.04601855858278913,-0.04224122981301907
294.0,-0.28218494367347996,-0.3951355331497505,2.302626651380056,1.7104011014474916,-1.1346759849562877,3.0113984716029067,0.7965372260798236,0.04620827687675634,-0.042226367116950145
295.0,-0.2815209319482436,-0.3951399399585546,2.3026445189054607,1.7099955522495958,-1.1370054548195225,3.0118396791730313,0.7965056508272434,0.046398056573212214,-0.042211645075241354
296.0,-0.28085609541436024,-0.3951445185407259,2.3026612542812113,1.7095932149229338,-1.1393358768999464,3.012279689274085,0.7964743773305387,0.04658789708823023,-0.04219706373319043
297.0,-0.28019043853430503,-0.39514926835474035,2.302676855381812,1.7091940852063765,-1.1416672462472188,3.0127185087049533,0.7964434056859334,0.046777797837696714,-0.04218262313566222
298.0,-0.2795239657863683,-0.39515418885631437,2.3026913201017303,1.7087981588569792,-1.143999557899386,3.013156144221682,0.7964127359887234,0.04696775823731267,-0.04216832332708847
299.0,-0.2788566816645745,-0.3951592794983122,2.3027046463553282,1.7084054316495714,-1.1463328068829264,3.0135926025378565,0.796382368333275,0.04715777770259556,-0.042154164351467766
300.0,-0.2781885906786008,-0.39516453973065513,2.3027168320767992,1.7080158993763697,-1.1486669882127918,3.0140278903249778,0.7963523028130256,0.04734785564888113,-0.042140146252365375
301.0,-0.2775196973536947,-0.39516996900023305,2.302727875220103,1.707629557846577,-1.1510020968924515,3.0144620142128344,0.7963225395204825,0.04753799149132516,-0.042126269072913086
302.0,-0.27685000623059125,-0.3951755667508167,2.302737773758903,1.707246402886,-1.1533381279139374,3.0148949807898724,0.7962930785472235,0.0477281846449053,-0.04211253285580912
303.0,-0.276179521865429,-0.39518133242297027,2.302746525686502,1.7068664303366623,-1.1556750762578916,3.01532679660356,0.796263919983896,0.047918434524422876,-0.042098937643317964
304.0,-0.2755082488296654,-0.395187265453967,2.30275412901578,1.7064896360564268,-1.158012936893612,3.0157574681607504,0.7962350639202169,0.04810874054450466,-0.042085483477270244
305.0,-0.2748361917099921,-0.3951933652777043,2.3027605817791312,1.706116015918622,-1.1603517047791014,3.016187001928039,0.7962065104449727,0.04829910211960469,-0.04207217039906263
306.0,-0.2741633551082478,-0.3951996313246207,2.3027658820284036,1.7057455658116683,-1.1626913748611192,3.01661540433212,0.7961782596460182,0.04848951866400607,-0.04205899844965765
307.0,-0.2734897436413325,-0.39520606302161626,2.3027700278348373,1.705378281638714,-1.1650319420752282,3.0170426817601363,0.7961503116102775,0.048679989591822764,-0.04204596766958363
308.0,-0.27281536194111905,-0.39521265979196835,2.3027730172890033,1.7050141593172763,-1.1673734013458505,3.01746884056003,0.796122666423743,0.04887051431700143,-0.042033078098934515
309.0,-0.27214021465436555,-0.39521942105525754,2.3027748485007455,1.7046531947788754,-1.1697157475863182,3.0178938870408865,0.796095324171475,0.04906109225332317,-0.042020329777369775
310.0,-0.2714643064426257,-0.3952263462272841,2.3027755195991166,1.70429538396869,-1.1720589756989284,3.0183178274732763,0.7960682849376021,0.049251722814405374,-0.042007722744114295
311.0,-0.27078764198215927,-0.3952334347199968,2.302775028732326,1.703940722845202,-1.1744030805749979,3.018740668089593,0.7960415488053203,0.049442405413703525,-0.041995257037958186
312.0,-0.2701102259638415,-0.39524068594141265,2.302773374067673,1.7035892073798549,-1.1767480570949198,3.019162415084392,0.7960151158568931,0.049633139464512956,-0.04198293269725676
313.0,-0.26943206309307177,-0.39524809929554633,2.3027705537914964,1.7032408335567093,-1.1790939001282206,3.0195830746147174,0.7959889861736512,0.04982392437997074,-0.04197074975993036
314.0,-0.26875315808968175,-0.3952556741823343,2.302766566109111,1.7028955973721092,-1.1814406045336188,3.0200026528004376,0.795963159835992,0.0500147595730574,-0.041958708263464234
315.0,-0.26807351568784243,-0.39526340999756465,2.302761409244752,1.7025534948343444,-1.183788165159084,3.020421155724567,0.7959376369233796,0.05020564445659878,-0.041946808244908436
316.0,-0.2673931406359708,-0.3952713061328063,2.302755081441521,1.7022145219633293,-1.1861365768418983,3.02083858943359,0.7959124175143447,0.05039657844326785,-0.04193504974087772
317.0,-0.2667120376966358,-0.395279361975338,2.302747580961325,1.7018786747902672,-1.1884858344087164,3.0212549599377834,0.7958875016864839,0.05058756094558648,-0.04192343278755143
318.0,-0.266030211646463,-0.3952875769080817,2.3027389060848233,1.7015459493573408,-1.190835932675629,3.0216702732115306,0.79586288951646,0.05077859137592726,-0.04191195742067335
319.0,-0.26534766727603976,-0.39529595030953485,2.302729055111372,1.7012163417173867,-1.1931868664482264,3.0220845351936383,0.7958385810800013,0.05096966914651531,-0.04190062367555164
320.0,-0.2646644093898184,-0.3953044815537034,2.302718026358969,1.7008898479335797,-1.1955386305216626,3.0224977517876472,0.7958145764519013,0.051160793669430105,-0.04188943158705871
321.0,-0.2639804428060192,-0.39531317001003946,2.302705818164196,1.7005664640791365,-1.1978912196807214,3.0229099288621395,0.7957908757060195,0.051351964356607264,-0.041878381189631116
322.0,-0.26329577235653284,-0.39532201504337355,2.302692428882169,1.7002461862369922,-1.2002446286998831,3.0233210722510457,0.7957674789152793,0.051543180619840354,-0.04186747251726942
323.0,-0.26261040288682225,-0.3953310160138569,2.3026778568864814,1.699929010499518,-1.2025988523433908,3.0237311877539477,0.79574438615167,0.05173444187078273,-0.04185670560353814
324.0,-0.26192433925582354,-0.3953401722768965,2.3026621005691523,1.6996149329682029,-1.2049538853653203,3.0241402811363782,0.7957215974862447,0.05192574752094931,-0.04184608048156562
325.0,-0.26123758633584576,-0.39534948318309554,2.3026451583405705,1.6993039497533753,-1.207309722509649,3.0245483581301187,0.7956991129891211,0.0521170969817184,-0.041835597184043935
326.0,-0.2605501490124712,-0.3953589480781958,2.3026270286294457,1.6989960569739024,-1.2096663585103267,3.0249554244334935,0.7956769327294808,0.052308489664333525,-0.04182525574322878
327.0,-0.2598620321844536,-0.39536856630301853,2.302607709882752,1.6986912507569107,-1.2120237880913465,3.0253614857116626,0.7956550567755697,0.0524999249799052,-0.04181505619093936
328.0,-0.25917324076361725,-0.3953783371934067,2.3025872005656804,1.6983895272374918,-1.2143820059668178,3.0257665475969104,0.795633485194697,0.05269140233941279,-0.041804998558558334
329.0,-0.258483779674754,-0.3953882600801716,2.3025654991615823,1.6980908825584378,-1.216741006841039,3.026170615688933,0.7956122180532356,0.05288292115370626,-0.04179508287703167
330.0,-0.25779365385552044,-0.3953983342890362,2.3025426041719212,1.6977953128699517,-1.219100785408572,3.026573695555123,0.7955912554166216,0.05307448083350806,-0.04178530917686858
331.0,-0.25710286825633416,-0.3954085591405832,2.302518514116222,1.6975028143293802,-1.2214613363543179,3.026975792730847,0.7955705973493543,0.05326608078941489,-0.04177567748814145
332.0,-0.2564114278402696,-0.3954189339502006,2.3024932275320187,1.6972133831009446,-1.2238226543535917,3.0273769127197316,0.7955502439149956,0.05345772043189951,-0.04176618784048565
333.0,-0.2557193375829524,-0.3954294580280328,2.302466742974805,1.6969270153554776,-1.226184734072201,3.0277770609939347,0.7955301951761705,0.05364939917131259,-0.041756840263099566
334.0,-0.2550266024724551,-0.39544013067892825,2.3024390590179835,1.6966437072701528,-1.2285475701665227,3.0281762429944217,0.7955104511945661,0.0538411164178845,-0.041747634784744435
335.0,-0.2543332275091897,-0.39545095120239215,2.302410174252818,1.6963634550282374,-1.2309111572835814,3.0285744641312355,0.7954910120309321,0.05403287158172712,-0.041738571433744265
336.0,-0.25363921770580117,-0.3954619188925379,2.3023800872883817,1.696086254818827,-1.2332754900611314,3.0289717297837684,0.7954718777450801,0.05422466407283568,-0.04172965023798577
337.0,-0.2529445780870605,-0.39547303303803866,2.3023487967515095,1.6958121028366027,-1.2356405631277336,3.0293680453010268,0.7954530483958836,0.05441649330109054,-0.04172087122491826
338.0,-0.2522493136897557,-0.39548429292208453,2.3023163012867496,1.6955409952815759,-1.2380063711028404,3.0297634160018965,0.7954345240412782,0.05460835867625904,-0.04171223442155357
339.0,-0.25155342956258403,-0.39549569782233407,2.3022825995563134,1.6952729283588435,-1.2403729085968753,3.0301578471754045,0.7954163047382607,0.05480025960799729,-0.041703739854466
340.0,-0.25085693076604215,-0.3955072470108741,2.30224769024003,1.6950078982783536,-1.2427401702113179,3.0305513440809793,0.7953983905428896,0.054992195505852,-0.04169538754979218
341.0,-0.2501598223723165,-0.3955189397541747,2.302211572035295,1.6947459012546562,-1.2451081505387867,3.0309439119487087,0.7953807815102842,0.055184165779262294,-0.041687177533231
342.0,-0.249462109465173,-0.3955307753130488,2.3021742436570265,1.6944869335066797,-1.2474768441631234,3.031335555979594,0.7953634776946253,0.05537616983756154,-0.04167910983004361
343.0,-0.24876379713984528,-0.39554275294261076,2.302135703837614,1.6942309912574898,-1.2498462456594808,3.031726281345803,0.7953464791491544,0.05556820708997912,-0.04167118446505322
344.0,-0.2480648905029241,-0.39555487189223837,2.302095951326874,1.6939780707340655,-1.252216349594406,3.0321160931909232,0.7953297859261736,0.05576027694564233,-0.04166340146264512
345.0,-0.24736539467224436,-0.3955671314055322,2.3020549848920044,1.6937281681670708,-1.2545871505259307,3.0325049966302076,0.7953133980770459,0.05595237881357812,-0.04165576084676655
346.0,-0.24666531477677286,-0.39557953072028085,2.302012803317533,1.693481279790641,-1.2569586430036568,3.032892996750822,0.7952973156521944,0.05614451210271494,-0.041648262640926664
347.0,-0.24596465595649478,-0.39559206906842154,2.3019694054052757,1.6932374018421508,-1.259330821568846,3.0332800986120905,0.7952815387011025,0.05633667622188457,-0.04164090686819644
348.0,-0.24526342336229978,-0.39560474567600745,2.30192478997429,1.692996530562007,-1.2617036807545097,3.033666307245737,0.7952660672723137,0.056528870579823934,-0.04163369355120857
349.0,-0.24456162215586785,-0.39561755976317253,2.3018789558608264,1.6927586621934385,-1.2640772150854993,3.0340516276561242,0.7952509014134318,0.05672109458517691,-0.04162662271215749
350.0,-0.243859257509554,-0.3956305105440982,2.3018319019182854,1.692523792982277,-1.266451419078597,3.0344360648204938,0.7952360411711198,0.056913347646496144,-0.041619694372799186
351.0,-0.24315633460627326,-0.3956435972269798,2.3017836270171728,1.692291919176759,-1.2688262872426075,3.0348196236892004,0.7952214865911007,0.05710562917224492,-0.041612908554451246
352.0,-0.24245285863938434,-0.3956568190139975,2.301734130045051,1.6920630370273184,-1.2712018140784511,3.0352023091859475,0.7952072377181572,0.05729793857079888,-0.041606265277992716
353.0,-0.2417488348125734,-0.3956701751012852,2.301683409906498,1.6918371427863879,-1.2735779940792564,3.0355841262080174,0.7951932945961309,0.05749027525044796,-0.04159976456386405
354.0,-0.24104426833973655,-0.39568366467890026,2.30163146552306,1.6916142327082027,-1.2759548217304546,3.0359650796265036,0.7951796572679231,0.057682638619398124,-0.04159340643206708
355.0,-0.24033916444486317,-0.39569728693079725,2.3015782958332105,1.6913943030486023,-1.278332291509875,3.0363451742865366,0.7951663257754937,0.05787502808577323,-0.04158719090216492
356.0,-0.23963352836191684,-0.3957110410347986,2.3015238997923007,1.6911773500648446,-1.2807103978878394,3.036724415007511,0.7951533001598623,0.058067443057616845,-0.04158111799328191
357.0,-0.23892736533471778,-0.3957249261625701,2.30146827637252,1.6909633700154123,-1.283089135327258,3.03710280658331,0.7951405804611068,0.05825988294289403,-0.041575187724103575
358.0,-0.23822068061682336,-0.39573894147959415,2.30141142456285,1.6907523591598326,-1.2854684982837281,3.0374803537825277,0.795128166718364,0.05845234714949322,-0.041569400112876555
359.0,-0.2375134794714085,-0.39575308614514687,2.3013533433690236,1.6905443137584906,-1.2878484812056301,3.037857061348688,0.7951160589698293,0.058644835085228005,-0.04156375517740855
360.0,-0.23680576717114615,-0.39576735931227364,2.3012940318134767,1.690339230072451,-1.2902290785342259,3.038232934000466,0.7951042572527566,0.058837346157838956,-0.041558252935068256
361.0,-0.23609754899808644,-0.39578176012776783,2.301233488935309,1.6901371043632862,-1.2926102847037582,3.0386079764319023,0.7950927616034582,0.05902987977499548,-0.04155289340278534
362.0,-0.23538883024353635,-0.3957962877321475,2.30117171379024,1.6899379328928943,-1.2949920941415494,3.0389821933126187,0.7950815720573047,0.05922243534429757,-0.041547676597050366
363.0,-0.23467961620793779,-0.39581094125963784,2.3011087054505657,1.6897417119233353,-1.2973745012681033,3.0393555892880313,0.7950706886487248,0.059415012273277744,-0.04154260253391473
364.0,-0.2339699122007462,-0.395825719838149,2.3010444630051157,1.689548437716658,-1.2997575004972035,3.0397281689795626,0.7950601114112053,0.05960760996940274,-0.041537671228990644
365.0,-0.23325972354030805,-0.3958406225892591,2.300978985559211,1.6893581065347372,-1.3021410862360177,3.0400999369848507,0.7950498403772908,0.05980022784007542,-0.04153288269745107
366.0,-0.23254905555373862,-0.39585564862819633,2.3009122722346222,1.6891707146391133,-1.3045252528851967,3.040470897877956,0.795039875578584,0.05999286529263658,-0.04152823695402967
367.0,-0.23183791357679862,-0.3958707970638221,2.3008443221695267,1.6889862582908288,-1.30690999483898,3.040841056209569,0.7950302170457453,0.06018552173436675,-0.04152373401302077
368.0,-0.23112630295377085,-0.39588606699861567,2.300775134518465,1.6888047337502752,-1.309295306485297,3.0412104165072145,0.7950208648084927,0.06037819657248803,-0.041519373888279316
369.0,-0.23041422903733608,-0.3959014575286593,2.300704708452304,1.688626137277032,-1.3116811822058718,3.041578983275454,0.7950118188956016,0.060570889214165945,-0.041515156593220824
370.0,-0.22970169718844946,-0.39591696774362367,2.300633043158188,1.6884504651297247,-1.3140676163763274,3.041946760996086,0.7950030793349052,0.06076359906651121,-0.041511082140821345
371.0,-0.22898871277621455,-0.3959325967267567,2.3005601378395037,1.688277713565869,-1.3164546033662912,3.0423137541283474,0.794994646153294,0.060956325536581604,-0.04150715054361741
372.0,-0.22827528117775972,-0.39594834355486996,2.3004859917158345,1.688107878841729,-1.3188421375395,3.0426799671091103,0.7949865193767156,0.06114906803138375,-0.041503361813706015
373.0,-0.22756140777811157,-0.39596420729832815,2.300410604022922,1.6879409572121669,-1.321230213253906,3.043045404353079,0.794978699030175,0.06134182595787501,-0.04149971596274457
374.0,-0.22684709797006988,-0.3959801870210391,2.3003339740126227,1.6877769449305149,-1.3236188248617846,3.043410070252982,0.7949711851377346,0.06153459872296522,-0.04149621300195088
375.0,-0.22613235715408078,-0.3959962817804446,2.3002561009528675,1.687615838248423,-1.3260079667098401,3.0437739691797696,0.7949639777225134,0.06172738573351859,-0.04149285294210308
376.0,-0.22541719073811078,-0.3960124906275111,2.3001769841276225,1.6874576334157336,-1.3283976331393148,3.044137105482802,0.7949570768066876,0.06192018639635547,-0.041489635793539606
377.0,-0.22470160413751938,-0.39602881260672357,2.300096622836846,1.6873023266803442,-1.3307878184860968,3.044499483490041,0.7949504824114906,0.06211300011825424,-0.041486561566159194
378.0,-0.22398560277493232,-0.39604524675607883,2.3000150163964497,1.6871499142880746,-1.3331785170808286,3.0448611075082366,0.7949441945572123,0.06230582630595306,-0.04148363026942084
379.0,-0.22326919208011342,-0.3960617921070778,2.299932164138256,1.6870003924825474,-1.335569723249016,3.045221981823117,0.7949382132631997,0.06249866436615177,-0.04148084191234375
380.0,-0.22255237748983733,-0.39607844768472356,2.299848065409961,1.6868537575050537,-1.3379614313111396,3.0455821106995726,0.7949325385478564,0.06269151370551365,-0.04147819650350729
381.0,-0.22183516444776094,-0.3960952125075156,2.29976271957509,1.6867100055944368,-1.340353635582763,3.045941498381839,0.7949271704286426,0.06288437373066731,-0.041475694051051074
382.0,-0.22111755840429465,-0.3961120855874474,2.2996761260129617,1.6865691329869679,-1.3427463303746443,3.0463001490936805,0.7949221089220755,0.06307724384820843,-0.041473334562674775
383.0,-0.22039956481647396,-0.3961290659300039,2.299588284118645,1.6864311359162294,-1.3451395099928483,3.0466580670385723,0.7949173540437284,0.06327012346470169,-0.04147111804563824
384.0,-0.21968118914783014,-0.39614615253416113,2.2994991933029203,1.6862960106130036,-1.3475331687388568,3.0470152563998796,0.7949129058082317,0.06346301198668251,-0.04146904450676138
385.0,-0.21896243686826083,-0.39616334439238343,2.2994088529922396,1.6861637533051523,-1.3499273009096808,3.047371721341035,0.7949087642292719,0.06365590882065894,-0.041467113952424195
386.0,-0.21824331345390022,-0.3961806404906267,2.299317262628687,1.686034360217514,-1.3523219007979743,3.047727466005717,0.794904929319592,0.0638488133731134,-0.04146532638856675
387.0,-0.2175238243869893,-0.3961980398083375,2.299224421669939,1.685907827571792,-1.3547169626921456,3.048082494518024,0.7949014010909917,0.06404172505050462,-0.04146368182068914
388.0,-0.2168039751557454,-0.3962155413184565,2.299130329589224,1.6857841515864476,-1.3571124808764718,3.04843681098265,0.7948981795543266,0.06423464325926938,-0.04146218025385146
389.0,-0.2160837712542315,-0.3962331439874203,2.2990349858752848,1.6856633284766007,-1.3595084496312129,3.0487904194850572,0.7948952647195092,0.06442756740582437,-0.04146082169267385
390.0,-0.21536321818222634,-0.39625084677516553,2.2989383900323377,1.685545354453928,-1.3619048632327242,3.049143324091647,0.794892656595508,0.06462049689656799,-0.04145960614133641
391.0,-0.21464232144509224,-0.39626864863513356,2.298840541580034,1.6854302257265632,-1.3643017159535729,3.0494955288499304,0.7948903551903478,0.06481343113788224,-0.04145853360357922
392.0,-0.2139210865536449,-0.3962865485142756,2.2987414400534205,1.6853179384989982,-1.3666990020626515,3.0498470377886977,0.7948883605111096,0.06500636953613445,-0.04145760408270234
393.0,-0.21319951902402096,-0.3963045453530594,2.2986410850029,1.6852084889719994,-1.3690967158252945,3.0501978549181854,0.7948866725639309,0.06519931149767921,-0.041456817581565795
394.0,-0.21247762437754716,-0.396322638085476,2.2985394759941955,1.6851018733425056,-1.3714948515033931,3.050547984230243,0.7948852913540053,0.06539225642886011,-0.041456174102589526
395.0,-0.21175540814060811,-0.39634082563904643,2.298436612608306,1.6849980878035418,-1.373893403355512,3.050897429698498,0.7948842168855825,0.06558520373601164,-0.041455673647753426
396.0,-0.2110328758445143,-0.39635910693483206,2.298332494441471,1.6848971285441368,-1.3762923656370039,3.05124619527852,0.7948834491619685,0.06577815282546091,-0.04145531621859735
397.0,-0.21031003302536935,-0.3963774808874436,2.2982271211051324,1.6847989917492348,-1.3786917326001291,3.051594284907983,0.7948829881855256,0.06597110310352963,-0.041455101816221036
398.0,-0.2095868852239382,-0.3963959464050499,2.298120492225894,1.6847036735996108,-1.381091498494171,3.051941702506828,0.7948828339576721,0.0661640539765358,-0.04145503044128418
399.0,-0.20886343798551416,-0.39641450238939024,2.2980126074454836,1.6846111702717972,-1.3834916575655523,3.052288451977422,0.7948829864788826,0.0663570048507956,-0.0414551020940064
400.0,-0.20813969685978564,-0.3964331477357862,2.2979034664207143,1.684521477937999,-1.3858922040579558,3.052634537204718,0.7948834457486875,0.06654995513262522,-0.041455316774167215
401.0,-0.2074156674007043,-0.39645188133315323,2.2977930688234465,1.6844345927660227,-1.3882931322124383,3.052979962056411,0.7948842117656741,0.06674290422834266,-0.0414556744811061
402.0,-0.20669135516635034,-0.3964707020640144,2.2976814143405493,1.6843505109192025,-1.3906944362675528,3.0533247303830993,0.7948852845274853,0.06693585154426956,-0.04145617521372243
403.0,-0.20596676571880074,-0.3964896088045147,2.2975685026738626,1.684269228556323,-1.3930961104594644,3.053668846018435,0.7948866640308203,0.06712879648673307,-0.04145681897047551
404.0,-0.2052419046239948,-0.39650860042443625,2.2974543335401574,1.6841907418315627,-1.3954981490220695,3.054012312779281,0.7948883502714347,0.06732173846206761,-0.041457605749384605
405.0,-0.20451677745160082,-0.39652767578721126,2.2973389066711003,1.6841150468944088,-1.397900546187116,3.0543551344658644,0.79489034324414,0.06751467687661675,-0.04145853554802889
406.0,-0.20379138977488273,-0.3965468337499424,2.2972222218132115,1.684042139889611,-1.4003032961843214,3.0546973148619285,0.7948926429428042,0.06770761113673499,-0.041459608363547513
407.0,-0.20306574717056577,-0.39656607316341674,2.29710427872783,1.6839720169571095,-1.4027063932414927,3.0550388577348846,0.7948952493603514,0.06790054064878963,-0.041460824192639543
408.0,-0.2023398552187031,-0.39658539287212446,2.2969850771910756,1.68390467423197,-1.4051098315846464,3.0553797668359604,0.7948981624887619,0.06809346481916259,-0.041462183031564064
409.0,-0.20161371950254106,-0.3966047917142785,2.2968646169938083,1.6838401078443364,-1.4075136054381285,3.0557200459003506,0.7949013823190727,0.06828638305425222,-0.041463684876140085
410.0,-0.20088734560838623,-0.39662426852183047,2.2967428979415927,1.6837783139193603,-1.409917709024734,3.0560596986473643,0.7949049088413764,0.06847929476047511,-0.04146532972174666
411.0,-0.20016073912546992,-0.396643822120496,2.2966199198546593,1.6837192885771624,-1.4123221365658278,3.0563987287805725,0.7949087420448228,0.06867219934426796,-0.041467117563322796
412.0,-0.19943390564581473,-0.39666345132976977,2.296495682567867,1.6836630279327685,-1.4147268822814658,3.056737139987953,0.7949128819176173,0.06886509621208939,-0.041469048395367566
413.0,-0.19870685076410013,-0.3966831549629504,2.2963701859306647,1.683609528096061,-1.4171319403905147,3.0570749359420364,0.7949173284470222,0.06905798477042173,-0.04147112221194005
414.0,-0.19797958007752758,-0.39670293182716204,2.2962434298070544,1.6835587851717346,-1.4195373051107736,3.0574121203000484,0.7949220816193563,0.06925086442577291,-0.04147333900665939
415.0,-0.1972520991856871,-0.3967227807233753,2.296115414075553,1.6835107952592445,-1.4219429706590945,3.057748696704055,0.7949271414199943,0.06944373458467824,-0.041475698772704815
416.0,-0.1965244136904214,-0.396742700446434,2.2959861386291553,1.6834655544527675,-1.424348931251505,3.0580846687811025,0.7949325078333683,0.06963659465370226,-0.04147820150281564
417.0,-0.19579652919569257,-0.396762689785076,2.295855603375295,1.6834230588411556,-1.4267551811033274,3.0584200401433588,0.7949381808429665,0.06982944403944052,-0.04148084718929131
418.0,-0.1950684513074469,-0.39678274752195986,2.2957238082358096,1.6833833045078948,-1.4291617144293027,3.0587548143882537,0.7949441604313336,0.07002228214852149,-0.041483635823991394
419.0,-0.1943401856334805,-0.3968028724336903,2.2955907531468998,1.6833462875310705,-1.4315685254437105,3.0590889950986186,0.7949504465800713,0.07021510838760832,-0.04148656739833564
420.0,-0.19361173778330484,-0.39682306329084405,2.295456438059095,1.6833120039833285,-1.4339756083604913,3.059422585842823,0.7949570392698382,0.07040792216340064,-0.041489641903304
421.0,-0.19288311336801162,-0.3968433188579968,2.2953208629372135,1.6832804499318412,-1.4363829573933697,3.059755590174912,0.7949639384803491,0.0706007228826365,-0.04149285932943662
422.0,-0.19215431800013918,-0.3968636378937504,2.2951840277603273,1.6832516214382702,-1.4387905667559735,3.060088011634744,0.7949711441903763,0.07079350995209406,-0.041496219666833915
423.0,-0.19142535729353688,-0.39688401915076166,2.295045932521722,1.6832255145587427,-1.4411984306619594,3.0604198537481246,0.7949786563777488,0.07098628277859352,-0.0414997229051566
424.0,-0.19069623686323137,-0.39690446137577073,2.294906577228864,1.683202125343817,-1.443606543325132,3.0607511200269415,0.7949864750193525,0.07117904076899888,-0.04150336903362567
425.0,-0.1899669623252916,-0.39692496330963045,2.2947659619033574,1.6831814498384559,-1.4460148989595685,3.0610818139692975,0.7949946000911305,0.0713717833302198,-0.04150715804102248
426.0,-0.18923753929669435,-0.3969455236873378,2.29462408658091,1.683163484082008,-1.4484234917797396,3.0614119390596435,0.7950030315680833,0.07156450986921344,-0.041511089915688755
427.0,-0.1885079733951905,-0.39696614123806145,2.2944809513112983,1.6831482241081714,-1.4508323160006316,3.0617414987689116,0.795011769424268,0.07175721979298617,-0.04151516464552667
428.0,-0.1877782702391695,-0.39698681468517755,2.2943365561583247,1.6831356659449812,-1.4532413658378707,3.062070496554644,0.7950208136327996,0.0719499125085956,-0.0415193822179988
429.0,-0.18704843544752603,-0.39700754274629757,2.294190901199785,1.6831258056147897,-1.4556506355078436,3.0623989358611237,0.7950301641658504,0.07214258742315219,-0.04152374262012827
430.0,-0.1863184746395254,-0.3970283241333034,2.2940439865274302,1.683118639134243,-1.4580601192278209,3.062726820119505,0.7950398209946499,0.07233524394382124,-0.041528245838498706
431.0,-0.18558839343466915,-0.3970491575523803,2.2938958122469275,1.6831141625142705,-1.4604698112160794,3.0630541527479394,0.7950497840894853,0.07252788147782459,-0.0415328918592543
432.0,-0.18485819745256155,-0.39707004170404914,2.293746378477825,1.6831123717600625,-1.4628797056920246,3.0633809371517073,0.7950600534197017,0.07272049943244253,-0.04153768066809989
433.0,-0.184127892312775,-0.3970909752832028,2.293595685353515,1.6831132628710652,-1.4652897968763134,3.0637071767233404,0.7950706289537016,0.07291309721501561,-0.04154261225030094
434.0,-0.18339748363471642,-0.39711195697913937,2.293443733021196,1.6831168318409653,-1.4677000789909764,3.0640328748427503,0.7950815106589455,0.07310567423294642,-0.04154768659068364
435.0,-0.18266697703749368,-0.3971329854755999,2.2932905216418358,1.683123074657683,-1.4701105462595405,3.064358034877354,0.795092698501952,0.07329822989370142,-0.04155290367363494
436.0,-0.1819363781397816,-0.3971540594508021,2.2931360513901344,1.6831319873033588,-1.472521192907152,3.064682660182196,0.7951041924482974,0.07349076360481284,-0.04155826348310257
437.0,-0.18120569255968844,-0.39717517757747883,2.292980322454487,1.6831435657543568,-1.4749320131606976,3.0650067541000747,0.7951159924626167,0.0736832747738804,-0.04156376600259513
438.0,-0.18047492591462286,-0.3971963385229142,2.292823335036949,1.6831578059812478,-1.4773430012489281,3.065330319961665,0.7951280985086024,0.07387576280857318,-0.04156941121518209
439.0,-0.17974408382116017,-0.39721754094898354,2.2926650893531972,1.6831747039488214,-1.479754151402581,3.065653361085638,0.7951405105490063,0.07406822711663148,-0.04157519910349391
440.0,-0.17901317189490937,-0.3972387835121881,2.292505585632491,1.683194255616071,-1.4821654578545014,3.0659758807787862,0.7951532285456379,0.07426066710586857,-0.04158112964972203
441.0,-0.17828219575038054,-0.39726006486369814,2.2923448241176403,1.6832164569362045,-1.484576914839765,3.066297882336141,0.7951662524593658,0.07445308218417254,-0.04158720283561895
442.0,-0.17755116100085153,-0.3972813836493893,2.2921828050649657,1.6832413038566376,-1.4869885165958012,3.0666193690410952,0.7951795822501171,0.07464547175950817,-0.04159341864249832
443.0,-0.17682007325823576,-0.3973027385098845,2.292019528744261,1.6832687923190088,-1.4894002573625131,3.0669403441655207,0.7951932178768778,0.07483783523991866,-0.04159977705123492
444.0,-0.17608893813294949,-0.3973241280805933,2.2918549954387584,1.6832989182591744,-1.4918121313824015,3.0672608109698882,0.7952071592976929,0.07503017203352752,-0.04160627804226479
445.0,-0.17535776123377939,-0.3973455509917547,2.2916892054450915,1.6833316776072194,-1.494224132900686,3.067580772703385,0.7952214064696668,0.07522248154854039,-0.04161292159558525
446.0,-0.17462654816775108,-0.39736700586847673,2.2915221590732564,1.6833670662874705,-1.4966362561654263,3.0679002326040306,0.7952359593489625,0.0754147631932468,-0.041619707690755
447.0,-0.17389530453999683,-0.3973884913307795,2.2913538566465776,1.6834050802184948,-1.4990484954276444,3.0682191938987966,0.795250817890803,0.07560701637602209,-0.04162663630689413
448.0,-0.1731640359536239,-0.39741000599363835,2.291184298501671,1.6834457153131253,-1.501460844941446,3.06853765980372,0.7952659820494704,0.07579924050532912,-0.04163370742268422
449.0,-0.17243274800958333,-0.3974315484670263,2.291013484988404,1.6834889674784643,-1.5038732989641421,3.06885563352402,0.7952814517783068,0.07599143498972018,-0.04164092101636841
450.0,-0.1717014463065383,-0.3974531173559578,2.2908414164698634,1.6835348326159025,-1.5062858517563702,3.069173118254211,0.7952972270297138,0.07618359923783874,-0.04164827706575142
451.0,-0.1709701364407337,-0.3974747112605333,2.2906680933223154,1.6835833066211336,-1.508698497582215,3.069490117178218,0.7953133077551532,0.07637573265842135,-0.04165577554819972
452.0,-0.17023882400586496,-0.3974963287759833,2.290493515935171,1.6836343853841724,-1.5111112307093297,3.0698066334694896,0.7953296939051466,0.07656783466029936,-0.041663416440641456
453.0,-0.16950751459294788,-0.39751796849271365,2.2903176847109488,1.683688064789376,-1.5135240454090566,3.0701226702911115,0.7953463854292762,0.07675990465240083,-0.04167119971956664
454.0,-0.1687762137901879,-0.3975396289963517,2.290140600065236,1.6837443407154595,-1.5159369359565478,3.0704382307959173,0.7953633822761843,0.07695194204375229,-0.04167912536102718
455.0,-0.1680449271828507,-0.39756130886779156,2.2899622624266565,1.6838032090355253,-1.518349896630886,3.0707533181266014,0.795380684393574,0.07714394624348059,-0.04168719334063694
456.0,-0.16731366035313194,-0.39758300668324054,2.2897826722368304,1.6838646656170797,-1.5207629217152039,3.071067935415829,0.795398291728209,0.0773359166608147,-0.04169540363357184
457.0,-0.1665824188800285,-0.397604721014267,2.2896018299503393,1.683928706322064,-1.5231760054968044,3.0713820857863463,0.7954162042259139,0.07752785270508752,-0.0417037562145699
458.0,-0.16585120833920844,-0.3976264504278471,2.2894197360346897,1.6839953270068764,-1.5255891422672814,3.0716957723510925,0.7954344218315743,0.07771975378573774,-0.041712251057931374
459.0,-0.16512003430288288,-0.3976481934864125,2.2892363909702755,1.684064523522401,-1.5280023263226377,3.072008998213306,0.7954529444891371,0.07791161931231161,-0.04172088813751877
460.0,-0.16438890233967696,-0.39766994874789957,2.289051795250343,1.6841362917140403,-1.530415551963406,3.072321766466635,0.7954717721416106,0.07810344869446477,-0.041729667426756954
461.0,-0.16365781801450205,-0.3976917147657966,2.288865949380953,1.6842106274217425,-1.532828813494767,3.072634080195246,0.7954909047310647,0.07829524134196408,-0.041738588898633244
462.0,-0.16292678688842702,-0.3977134900891948,2.288678853880945,1.6842875264800334,-1.535242105226669,3.07294594247393,0.7955103421986309,0.07848699666468945,-0.04174765252569746
463.0,-0.1621958145185516,-0.3977352732628359,2.288490509281901,1.684366984718052,-1.5376554214739455,3.0732573563682095,0.7955300844845028,0.07867871407263559,-0.04175685828006206
464.0,-0.16146490645787834,-0.3977570628271641,2.2883009161281085,1.684448997959587,-1.540068756556435,3.0735683249344476,0.7955501315279361,0.07887039297591389,-0.04176620613340217
465.0,-0.16073406825518574,-0.3977788573183749,2.2881100749765255,1.684533562023104,-1.5424821047990975,3.07387885121995,0.7955704832672487,0.07906203278475421,-0.04177569605695571
466.0,-0.16000330545490174,-0.3978006552684665,2.2879179863967427,1.6846206727217956,-1.5448954605321346,3.0741889382630756,0.795591139639821,0.07925363290950671,-0.04178532802152345
467.0,-0.15927262359697764,-0.39782245520529114,2.287724650970947,1.684710325863611,-1.547308818091104,3.074498589093336,0.7956121005820961,0.07944519276064366,-0.041795101997469164
468.0,-0.15854202821676167,-0.3978442556526066,2.287530069293885,1.6848025172513001,-1.5497221718170398,3.0748078067315037,0.7956333660295801,0.07963671174876119,-0.04180501795471963
469.0,-0.15781152484487385,-0.3978660551301279,2.2873342419728306,1.6848972426824524,-1.5521355160565675,3.0751165941897156,0.7956549359168421,0.07982818928458124,-0.041815075862764776
470.0,-0.15708111900708024,-0.39788785215357997,2.287137169627543,1.6849944979495428,-1.5545488451620222,3.075424954471575,0.7956768101775145,0.08001962477895323,-0.04182527569065778
471.0,-0.15635081622416902,-0.39790964523474964,2.2869388528902337,1.685094278839973,-1.5569621534915628,3.0757328905722567,0.7956989887442929,0.08021101764285597,-0.04183561740701515
472.0,-0.15562062201182494,-0.3979314328815398,2.2867392924055294,1.6851965811361185,-1.5593754354092906,3.076040405478609,0.795721471548937,0.08040236728739943,-0.04184610098001682
473.0,-0.15489054188050588,-0.3979532135980228,2.286538488830437,1.6853014006153748,-1.5617886852853637,3.0763475021692543,0.7957442585222704,0.08059367312382654,-0.04185672637740626
474.0,-0.15416058133531926,-0.3979749858844926,2.2863364428343056,1.6854087330502028,-1.5642018974961123,3.076654183614693,0.7957673495941804,0.08078493456351506,-0.04186749356649054
475.0,-0.15343074587589814,-0.3979967482375209,2.2861331550987916,1.68551857420818,-1.5666150664241543,3.0769604527774033,0.795790744693619,0.08097615101797932,-0.041878402514140475
476.0,-0.15270104099627924,-0.3980184991500105,2.285928626317822,1.6856309198520523,-1.5690281864585096,3.0772663126119433,0.7958144437486027,0.08116732189887207,-0.041889453186790694
477.0,-0.15197147218477952,-0.3980402371112504,2.2857228571975585,1.6857457657397819,-1.5714412519947152,3.077571766065051,0.7958384466862126,0.08135844661798632,-0.04190064555043979
478.0,-0.15124204492387486,-0.3980619606069707,2.2855158484563614,1.6858631076245996,-1.5738542574349381,3.077876816075742,0.7958627534325949,0.08154952458725706,-0.041911979570650355
479.0,-0.15051276469007815,-0.3980836681193989,2.285307600824754,1.6859829412550644,-1.5762671971880897,3.078181465575414,0.7958873639129611,0.08174055521876314,-0.041923455212549136
480.0,-0.14978363695381816,-0.39810535812731435,2.2850981150453853,1.6861052623751116,-1.578680065669939,3.0784857174879408,0.7959122780515879,0.08193153792472907,-0.041935072440827136
481.0,-0.14905466717931828,-0.39812702910610626,2.2848873918729957,1.686230066724112,-1.5810928573032261,3.078789574729775,0.7959374957718182,0.08212247211752684,-0.041946831219739716
482.0,-0.14832586082447735,-0.39814867952782707,2.2846754320743794,1.6863573500369287,-1.5835055665177733,3.079093040210043,0.7959630169960601,0.08231335720967767,-0.04195873151310668
483.0,-0.14759722334074904,-0.3981703078612534,2.28446223642835,1.6864871080439763,-1.5859181877505975,3.0793961168306465,0.7959888416457883,0.08250419261385386,-0.041970773284312445
484.0,-0.14686876017302172,-0.3981919125719391,2.284247805725703,1.6866193364712798,-1.5883307154460244,3.0796988074863583,0.7960149696415441,0.08269497774288063,-0.041982956496306095
485.0,-0.14614047675950137,-0.3982134921222742,2.2840321407691815,1.6867540310405327,-1.5907431440557958,3.0800011150649187,0.7960414009029348,0.08288571200973786,-0.04199528111160155
486.0,-0.1454123785315915,-0.39823504497154344,2.2838152423734397,1.6868911874691668,-1.5931554680391837,3.0803030424471336,0.7960681353486354,0.08307639482756193,-0.042007747092277614
487.0,-0.14468447091377598,-0.39825656957598193,2.283597111365006,1.6870308014704014,-1.5955676818630988,3.080604592506972,0.7960951728963872,0.08326702560964752,-0.04202035439997814
488.0,-0.1439567593235007,-0.3982780643888354,2.283377748582249,1.687172868753324,-1.5979797800022029,3.08090576811166,0.7961225134629997,0.08345760376944943,-0.04203310299591215
489.0,-0.14322924917105787,-0.39829952786041734,2.2831571548753407,1.6873173850229384,-1.600391756939015,3.0812065721217783,0.7961501569643493,0.08364812872058434,-0.042045992840853946
490.0,-0.14250194585946818,-0.3983209584381675,2.282935331106221,1.6874643459802459,-1.602803607164024,3.081507007391357,0.7961781033153809,0.0838385998768327,-0.04205902389514319
491.0,-0.14177485478436536,-0.3983423545667124,2.282712278148563,1.687613747322301,-1.6052153251757957,3.0818070767679715,0.7962063524301073,0.08402901665214044,-0.042072196118685096
492.0,-0.1410479813338806,-0.3983637146879225,2.2824879968877347,1.6877655847422866,-1.6076269054810803,3.082106783092836,0.7962349042216097,0.08421937846062079,-0.04208550947095052
493.0,-0.1403213308885274,-0.39838503724097263,2.282262488220767,1.6879198539295788,-1.610038342594923,3.0824061292008995,0.7962637586020381,0.08440968471655617,-0.04209896391097605
494.0,-0.139594908821087,-0.3984063206624018,2.282035753056316,1.6880765505698199,-1.6124496310407685,3.0827051179209404,0.7962929154826117,0.08459993483439988,-0.042112559397364205
495.0,-0.13886872049649465,-0.39842756338617225,2.2818077923146256,1.6882356703449883,-1.614860765350569,3.083003752075658,0.7963223747736184,0.08479012822877798,-0.0421262958882835
496.0,-0.1381427712717258,-0.3984487638437303,2.2815786069274964,1.6883972089334736,-1.6172717400648915,3.0833020344817696,0.7963521363844162,0.08498026431449102,-0.04214017334146861
497.0,-0.13741706649568317,-0.39846992046406704,2.2813481978382484,1.6885611620101442,-1.6196825497330223,3.083599967950101,0.7963822002234324,0.0851703425065159,-0.04215419171422048
498.0,-0.13669161150908468,-0.3984910316737768,2.281116566001683,1.6887275252464262,-1.6220931889130732,3.0838975552856813,0.7964125661981647,0.08536036222000769,-0.042168350963406466
499.0,-0.13596641164435114,-0.3985120958971209,2.280883712384053,1.6888962943103787,-1.6245036521720861,3.0841947992878347,0.7964432342151812,0.08555032287030133,-0.04218265104546047
500.0,-0.13524147222549524,-0.39853311155608606,2.2806496379630206,1.6890674648667672,-1.6269139340861385,3.084491702750275,0.7964742041801204,0.08574022387291352,-0.04219709191638306
501.0,-0.13451679856801044,-0.398554077070447,2.2804143437276285,1.6892410325771403,-1.629324029240446,3.084788268461195,0.796505475997692,0.0859300646435445,-0.042211673531741635
502.0,-0.13379239597876114,-0.3985749908578269,2.2801778306782614,1.6894169930999132,-1.6317339322294666,3.0850844992033615,0.7965370495716767,0.0861198445980798,-0.04222639584667053
503.0,-0.13306826975587277,-0.3985958513337595,2.27994009982661,1.6895953420904413,-1.634143637657003,3.0853803977542045,0.796568924804927,0.08630956315259208,-0.04224125881587116
504.0,-0.13234442518862247,-0.39861665691175024,2.279701152195639,1.6897760752011017,-1.6365531401363067,3.0856759668859115,0.796601101599367,0.08649921972334297,-0.04225626239361217
505.0,-0.13162086755733096,-0.39863740600334013,2.2794609888195487,1.6899591880813765,-1.6389624342901778,3.0859712093655167,0.7966335798559933,0.08668881372678475,-0.04227140653372959
506.0,-0.1308976021332546,-0.39865809701816435,2.279219610743743,1.690144676377929,-1.6413715147510675,3.086266127954993,0.7966663594748743,0.08687834457956226,-0.042286691189626927
507.0,-0.1301746341784774,-0.3986787283640168,2.278977019024792,1.690332535734692,-1.643780376161178,3.086560725411344,0.7966994403551518,0.08706781169851459,-0.04230211631427537
508.0,-0.12945196894580507,-0.39869929844691226,2.2787332147303982,1.6905227617929504,-1.6461890131725647,3.086855004486692,0.7967328223950404,0.087257214500677,-0.04231768186021388
509.0,-0.1287296116786582,-0.39871980567114895,2.278488198939362,1.69071535019142,-1.6485974204472333,3.087148967928371,0.7967665054918278,0.0874465524032826,-0.042333387779549383
510.0,-0.12800756761096674,-0.3987402484393704,2.2782419727415464,1.6909102965663438,-1.6510055926572413,3.0874426184790162,0.796800489541876,0.08763582482376418,-0.042349234023956864
511.0,-0.12728584196706516,-0.39876062515262917,2.2779945372378414,1.6911075965515663,-1.6534135244847956,3.0877359588766544,0.7968347744406205,0.08782503117975604,-0.04236522054467958
512.0,-0.12656443996158787,-0.3987809342104485,2.2777458935401302,1.691307245778628,-1.6558212106223502,3.088028991854794,0.7968693600825711,0.08801417088909574,-0.04238134729252917
513.0,-0.12584336679936572,-0.39880117401088816,2.2774960427712565,1.6915092398768528,-1.6582286457727045,3.0883217201425133,0.7969042463613129,0.0882032433698259,-0.042397614217885786
514.0,-0.12512262767532245,-0.39882134295060423,2.2772449860649857,1.6917135744734326,-1.6606358246490995,3.088614146464552,0.796939433169505,0.088392248040196,-0.0424140212706983
515.0,-0.12440222777437189,-0.39884143942491485,2.276992724565974,1.6919202451935205,-1.6630427419753149,3.0889062735414003,0.7969749203988827,0.08858118431866414,-0.042430568400484425
516.0,-0.12368217227131688,-0.3988614618278629,2.276739259429732,1.6921292476603205,-1.665449392485764,3.0891981040893874,0.7970107079402565,0.08877005162389888,-0.04244725555633088
517.0,-0.12296246633074695,-0.39888140855227905,2.2764845918225918,1.6923405774951787,-1.66785577092559,3.0894896408207715,0.797046795683513,0.08895884937478099,-0.04246408268689352
518.0,-0.12224311510693822,-0.39890127798984687,2.2762287229216716,1.692554230317674,-1.670261872050759,3.0897808864438283,0.7970831835176149,0.08914757699040525,-0.04248104974039755
519.0,-0.12152412374375321,-0.39892106853116477,2.2759716539148407,1.6927702017457122,-1.6726676906281555,3.090071843662939,0.7971198713306018,0.08933623389008223,-0.04249815666463763
520.0,-0.12080549737454097,-0.3989407785658116,2.2757133860006884,1.6929884873956198,-1.6750732214356756,3.0903625151786818,0.7971568590095904,0.0895248194933401,-0.04251540340697806
521.0,-0.12008724112203867,-0.3989604064824099,2.275453920388486,1.6932090828822377,-1.677478459262319,3.090652903687917,0.7971941464407746,0.08971333321992639,-0.042532789914352935
522.0,-0.11936936009827395,-0.3989799506686893,2.2751932582981564,1.693431983819017,-1.679883398908281,3.090943011883878,0.7972317335094258,0.08990177448980978,-0.042550316133266326
523.0,-0.11865185940446608,-0.3989994095115516,2.2749314009602366,1.693657185818113,-1.682288035185045,3.0912328424562596,0.7972696200998937,0.0900901427231819,-0.042567982009792414
524.0,-0.11793474413093001,-0.39901878139713487,2.274668349615847,1.693884684490483,-1.6846923629154744,3.0915223980913042,0.7973078060956065,0.0902784373404591,-0.04258578748957568
525.0,-0.1172180193569801,-0.3990380647108778,2.2744041055166564,1.6941144754459885,-1.6870963769338998,3.0918116814718926,0.797346291379071,0.09046665776228421,-0.04260373251783106
526.0,-0.1165016901508345,-0.399057257837583,2.274138669924848,1.694346554293482,-1.6895000720862114,3.092100695277629,0.7973850758318731,0.09065480340952842,-0.04262181703934413
527.0,-0.11578576156951992,-0.39907635916148265,2.273872044113084,1.6945809166409165,-1.6919034432299471,3.092389442184933,0.7974241593346784,0.09084287370329291,-0.042640040998471254
528.0,-0.11507023865877769,-0.399095367066303,2.2736042293644783,1.6948175580954425,-1.6943064852343808,3.092677924867124,0.797463541767232,0.09103086806491076,-0.04265840433913976
529.0,-0.11435512645297041,-0.39911427993532794,2.273335226972553,1.6950564742635044,-1.6967091929806115,3.092966145994511,0.7975032230083597,0.09121878591594866,-0.04267690700484814
530.0,-0.11364042997498842,-0.3991330961514639,2.2730650382412168,1.6952976607509458,-1.699111561361648,3.0932541082344795,0.7975432029359676,0.09140662667820874,-0.042695548938666165
531.0,-0.1129261542361581,-0.3991518140973054,2.27279366448472,1.6955411131631097,-1.7015135852824985,3.09354181425158,0.7975834814270428,0.0915943897737303,-0.04271433008323515
532.0,-0.11221230423615006,-0.399170432155199,2.272521107027632,1.6957868271049403,-1.7039152596602536,3.0938292667076146,0.7976240583576539,0.09178207462479161,-0.042733250380768015
533.0,-0.11149888496288861,-0.3991889487073068,2.2722473672047987,1.6960347981810868,-1.706316579424173,3.094116468261726,0.7976649336029511,0.0919696806539117,-0.042752309773049564
534.0,-0.1107859013924611,-0.3992073621356739,2.2719724463613167,1.6962850219960066,-1.7087175395157705,3.0944034215704836,0.7977061070371667,0.09215720728385211,-0.042771508201436624
535.0,-0.11007335848902865,-0.39922567082229027,2.271696345852497,1.6965374941540736,-1.7111181348888975,3.0946901292879727,0.7977475785336159,0.0923446539376187,-0.042790845606858224
536.0,-0.10936126120473755,-0.3992438731491581,2.2714190670438317,1.696792210259675,-1.7135183605098245,3.094976594065881,0.7977893479646961,0.09253202003846338,-0.042810321929815764
537.0,-0.10864961447963063,-0.3992619674983539,2.2711406113109636,1.6970491659173252,-1.7159182113573268,3.0952628185535853,0.7978314152018886,0.09271930500988593,-0.04282993711038323
538.0,-0.10793842324156033,-0.39927995225209595,2.2708609800396506,1.6973083567317702,-1.7183176824227648,3.0955488053982414,0.7978737801157583,0.09290650827563576,-0.04284969108820735
539.0,-0.10722769240610162,-0.3992978257928071,2.2705801746257364,1.6975697783080916,-1.7207167687101648,3.09583455724487,0.7979164425759538,0.09309362925971365,-0.04286958380250781
540.0,-0.10651742687646637,-0.3993155865031805,2.270298196475116,1.6978334262518155,-1.7231154652362999,3.0961200767364434,0.7979594024512087,0.09328066738637357,-0.04288961519207741
541.0,-0.10580763154341749,-0.3993332327662445,2.270015047003703,1.6980992961690247,-1.7255137670307712,3.0964053665139755,0.798002659609341,0.09346762208012444,-0.04290978519528225
542.0,-0.10509831128518446,-0.3993507629654271,2.269730727637399,1.6983673836664652,-1.7279116691360856,3.0966904292166078,0.7980462139172546,0.09365449276573186,-0.042930093750061966
543.0,-0.10438947096738008,-0.39936817548462006,2.2694452398120593,1.6986376843516526,-1.730309166607734,3.0969752674816955,0.7980900652409385,0.09384127886821994,-0.04295054079392986
