beomjoonlee/lg_sgu_vision/gtsp_trajectory/data/sample/trajectory/163/tilt_trajectory.csv
time,shoulder_pan_joint,shoulder_lift_joint,elbow_joint,wrist_1_joint,wrist_2_joint,wrist_3_joint,target-POS_X,target-POS_Y,target-POS_Z
0.0,-1.243220926909026,-2.783745064316155,-2.1258634163184515,2.135006173457225,1.2636314256954546,3.025873179850516,-0.0051299999468028545,1.0047065019607544,0.10514531284570694
1.0,-1.2445840144545668,-2.783788873921358,-2.1259227241910135,2.1347431871408653,1.2666462634336855,3.0264495429184426,-0.004937049071028855,1.0047066576139891,0.1051453727170056
2.0,-1.2459484941133956,-2.7838308909550995,-2.125978598857435,2.134477834901682,1.26966269505522,3.027024474924583,-0.004744098784581114,1.0047071313113636,0.10514554834441601
3.0,-1.247314347421073,-2.7838711154510762,-2.1260310414634627,2.1342101104830973,1.2726807012543369,3.027597985243003,-0.004551149681141642,1.0047079230514202,0.10514583972739783
4.0,-1.2486815558553572,-2.783909547522625,-2.126080053175395,2.133940007772447,1.2757002626730967,3.028170083197344,-0.004358202354388812,1.0047090328317227,0.10514624686505447
5.0,-1.2500501008371818,-2.783946187362795,-2.126125635180113,2.1336675208006235,1.2787213599022595,3.028740778061352,-0.004165257397995527,1.0047104606488568,0.10514676975613324
6.0,-1.251419963731639,-2.7839810352444143,-2.1261677886851196,2.133392643741732,1.2817439734822114,3.029310079059396,-0.0039723154056273986,1.004712206498429,0.10514740839902528
7.0,-1.252791125848971,-2.7840140915201426,-2.1262065149185707,2.133115370912729,1.2847680839038949,3.0298779953669865,-0.0037793769709409206,1.0047142703750678,0.10514816279176559
8.0,-1.254163568445565,-2.7840453566225207,-2.1262418151293074,2.132835696773069,1.2877936716097493,3.030444536111282,-0.003586442687581636,1.004716652272423,0.10514903293203295
9.0,-1.2555372727249563,-2.784074831064007,-2.1262736905868866,2.132553615924335,1.2908207169946555,3.0310097103715985,-0.003393513149182318,1.0047193521831652,0.10515001881715011
10.0,-1.2569122198388374,-2.7841025154370054,-2.126302142581605,2.132269123109872,1.2938492004068887,3.0315735271799094,-0.0032005889493611373,1.0047223700989878,0.1051511204440836
11.0,-1.2582883908880713,-2.7841284104138917,-2.1263271724245283,2.131982213214418,1.2968791021490766,3.032135995521344,-0.003007670681719843,1.0047257060106047,0.10515233780944389
12.0,-1.2596657669237123,-2.784152516747019,-2.126348781447513,2.131692881263723,1.2999104024791657,3.0326971243346783,-0.002814758939841927,1.004729359907752,0.1051536709094853
13.0,-1.261044328948031,-2.7841748352687268,-2.126366971003231,2.1314011224241742,1.3029430816113907,3.0332569225128254,-0.0026218543172908046,1.004733331779187,0.10515511974010605
14.0,-1.2624240579155461,-2.7841953668913315,-2.1263817424651874,2.1311069320024054,1.3059771197172532,3.033815398903317,-0.0024289574076079862,1.004737621612689,0.10515668429684828
15.0,-1.2638049347340592,-2.784214112607118,-2.1263930972277407,2.130810305444912,1.309012496926503,3.034372562308785,-0.00223606880431125,1.0047422293950585,0.10515836457489808
16.0,-1.2651869402656974,-2.784231073488311,-2.126401036706119,2.1305112383376557,1.312049193328128,3.0349284214874346,-0.0020431891008928153,1.004747155112118,0.10516016056908546
17.0,-1.2665700553279597,-2.784246250687051,-2.1264055623364344,2.1302097264056687,1.315087188971349,3.0354829851535166,-0.0018503188908175214,1.004752398748712,0.10516207227388438
18.0,-1.267954260694768,-2.7842596454353505,-2.1264066755756956,2.129905765512648,1.3181264638666184,3.036036261977794,-0.001657458767520993,1.0047579602887062,0.10516409968341278
19.0,-1.269339537097522,-2.7842712590450467,-2.1264043779018227,2.1295993516605534,1.3211669979866243,3.0365882605880046,-0.001464609324407824,1.0047638397149887,0.10516624279143261
20.0,-1.2707258652261613,-2.784281092907748,-2.1263986708136526,2.129290480989194,1.3242087712673023,3.0371389895693195,-0.0012717711548497416,1.0047700370094692,0.10516850159134977
21.0,-1.2721132257302294,-2.784289148494767,-2.12638955583095,2.128979149775814,1.3272517636088494,3.0376884574647978,-0.0010789448521837906,1.0047765521530794,0.1051708760762143
22.0,-1.2735015992199428,-2.784295427357047,-2.126377034494408,2.1286653544346716,1.3302959548767443,3.038236672775837,-0.0008861310097105024,1.0047833851257733,0.10517336623872019
23.0,-1.2748909662672647,-2.7842999311250822,-2.1263611083656606,2.1283490915166174,1.333341324902771,3.038783643962621,-0.0006933302206920669,1.0047905359065266,0.10517597207120555
24.0,-1.2762813074069819,-2.784302661508826,-2.1263417790272783,2.1280303577086612,1.3363878534860483,3.0393293794445606,-0.0005005430783505101,1.0047980044733373,0.1051786935656526
25.0,-1.2776726031377856,-2.784303620297596,-2.126319048082771,2.1277091498335454,1.3394355203940629,3.0398738876007334,-0.0003077701758658754,1.0048057908032257,0.10518153071368765
26.0,-1.2790648339233566,-2.784302809359962,-2.1262929171565887,2.1273854648493034,1.3424843053637068,3.0404171767703208,-0.0001150121063743844,1.0048138948722345,0.10518448350658119
27.0,-1.280457980193453,-2.7843002306436366,-2.126263387894116,2.127059299848817,1.3455341881023182,3.0409592552530365,7.773053703337592e-05,1.0048223166554282,0.10518755193524788
28.0,-1.281852022345002,-2.784295886175349,-2.126230461961668,2.1267306520593716,1.3485851482887274,3.041500131309557,0.0002704571613142831,1.0048310561268943,0.10519073599024656
29.0,-1.2832469407431946,-2.7842897780607143,-2.126194141046487,2.126399518842207,1.351637165574305,3.0420398131619444,0.00046316717347450603,1.0048401132597424,0.10519403566178034
30.0,-1.284642715722583,-2.784281908484095,-2.126154426856728,2.1260658976920572,1.3546902195840154,3.0425783089940652,0.0006558599805713229,1.0048494880261054,0.10519745093969657
31.0,-1.2860393275881818,-2.784272279708452,-2.1261113211214577,2.1257297862366955,1.3577442899174708,3.0431156269520114,0.0008485349897149538,1.004859180397138,0.10520098181348689
32.0,-1.2874367566165712,-2.78426089407519,-2.1260648255906363,2.125391182236467,1.3607993561499923,3.043651775144511,0.0010411916080703756,1.0048691903430182,0.1052046282722873
33.0,-1.2888349830570025,-2.784247754003993,-2.126014942035106,2.12505008358382,1.3638553978336707,3.044186761643338,0.001233829242859156,1.0048795178329468,0.10520839030487812
34.0,-1.2902339871325075,-2.7842328619926544,-2.125961672246578,2.1247064883028366,1.366912394498432,3.04472059448372,0.00142644730136127,1.0048901628351474,0.10521226789968408
35.0,-1.2916337490410081,-2.784216220616894,-2.1259050180376136,2.1243603945487486,1.369970325653105,3.0452532816647415,0.0016190451909169267,1.004901125316867,0.10521626104477436
36.0,-1.2930342489564295,-2.7841978325301726,-2.1258449812416074,2.1240118006074598,1.373029170786491,3.045784831149743,0.0018116223189283947,1.0049124052443752,0.10522036972786258
37.0,-1.294435467029815,-2.784177700463498,-2.1257815637127666,2.123660704895059,1.3760889093684368,3.0463152508667184,0.002004178092861817,1.0049240025829653,0.10522459393630687
38.0,-1.2958373833904424,-2.784155827225218,-2.1257147673260905,2.1233071059573274,1.3791495208509104,3.046844548708706,0.002196711920249046,1.004935917296954,0.10522893365710992
39.0,-1.2972399781469424,-2.784132215700811,-2.1256445939773467,2.122951002469245,1.3822109846690769,3.0473727325341833,0.0023892232086894574,1.0049481493496812,0.10523338887691902
40.0,-1.298643231388417,-2.78410686885267,-2.1255710455830448,2.12259239323449,1.3852732802423773,3.047899810167449,0.002581711365851779,1.0049606987035105,0.105237959582026
41.0,-1.300047123185563,-2.7840797897198706,-2.1254941240804124,2.1222312771849343,1.388336386975611,3.0484257893990088,0.0027741757994759085,1.0049735653198293,0.10524264575836746
42.0,-1.3014516335917912,-2.784050981417942,-2.1254138314273643,2.1218676533801353,1.3914002842600153,3.0489506779859568,0.0029666159173747384,1.0049867491590487,0.10524744739152467
43.0,-1.3028567426443511,-2.7840204471386234,-2.125330169602475,2.121501521006825,1.394464951474351,3.049474483652353,0.003159031127435977,1.005000250180604,0.10525236446672362
44.0,-1.3042624303654549,-2.7839881901496124,-2.125243140604946,2.121132879378389,1.397530367985987,3.049997214089596,0.0033514208376239684,1.005014068342954,0.10525739696883515
45.0,-1.3056686767634016,-2.783954213794314,-2.125152746454573,2.1207617279343505,1.4005965131519853,3.0505188769567972,0.0035437844559815202,1.0050282036035825,0.10526254488237494
46.0,-1.307075461833702,-2.7839185214915694,-2.125058989191712,2.1203880662398373,1.4036633663201892,3.051039479881149,0.0037361213906317225,1.0050426559189967,0.10526780819150355
47.0,-1.3084827655602054,-2.7838811167353934,-2.1249618708772404,2.1200118939850627,1.4067309068303113,3.0515590304582885,0.003928431049779762,1.0050574252447293,0.10527318688002649
48.0,-1.3098905679162236,-2.7838420030946875,-2.1248613935925222,2.1196332109847806,1.4097991140150197,3.0520775362526633,0.0041207128417147494,1.0050725115353367,0.10527868093139423
49.0,-1.3112988488656585,-2.783801184212959,-2.1247575594393666,2.119252017177754,1.4128679672010291,3.0525950047978903,0.004312966174811546,1.0050879147444007,0.10528429032870235
50.0,-1.3127075883641262,-2.7837586638080265,-2.12465037053999,2.118868312626211,1.4159374457101883,3.053111443597113,0.004505190457532564,1.0051036348245275,0.10529001505469149
51.0,-1.314116766360084,-2.7837144456717207,-2.1245398290369675,2.1184820975153,1.4190075288605715,3.0536268601233574,0.004697385098429618,1.0051196717273487,0.10529585509174741
52.0,-1.3155263627959533,-2.7836685336695743,-2.124425937093195,2.1180933721525337,1.4220781959675635,3.054141261819882,0.004889549506145704,1.0051360254035206,0.10530181042190112
53.0,-1.3169363576092468,-2.783620931740513,-2.124308696891841,2.1177021369672446,1.4251494263449536,3.0546546561005288,0.0050816830894168654,1.0051526958027255,0.1053078810268289
54.0,-1.31834673073369,-2.7835716438965314,-2.124188110636298,2.1173083925100187,1.428221199306021,3.0551670503500685,0.005273785257073967,1.0051696828736707,0.10531406688785228
55.0,-1.319757462100345,-2.783520674222364,-2.124064180550135,2.1169121394521335,1.4312934941646231,3.055678451924547,0.005465855418044546,1.0051869865640892,0.10532036798593822
56.0,-1.3211685316387323,-2.7834680268751537,-2.1239369088770492,2.1165133785849983,1.4343662902362846,3.056188868151624,0.005657892981354623,1.00520460682074,0.10532678430169908
57.0,-1.3225799192779504,-2.7834137060841098,-2.12380629788081,2.116112110819577,1.4374395668392816,3.0566983063309134,0.005849897356130511,1.005222543589408,0.10533331581539271
58.0,-1.3239916049477969,-2.783357716150158,-2.12367234984521,2.1157083371858185,1.4405133032957298,3.0572067737343205,0.006041867951600644,1.005240796814904,0.10533996250692257
59.0,-1.3254035685798846,-2.783300061445589,-2.123535067074007,2.1153020588320772,1.4435874789326668,3.0577142776063746,0.006233804177097378,1.0052593664410652,0.10534672435583763
60.0,-1.3268157901087585,-2.7832407464136963,-2.1233944518908694,2.114893277024534,1.4466620730831368,3.0582208251645615,0.006425705442058837,1.0052782524107557,0.10535360134133262
61.0,-1.3282282494730093,-2.7831797755684082,-2.123250506639318,2.1144819931466086,1.4497370650872707,3.0587264235996523,0.006617571156030709,1.0052974546658657,0.10536059344224799
62.0,-1.3296409266163864,-2.783117153493915,-2.1231032336826683,2.1140682086983724,1.452812434293367,3.0592310800760316,0.006809400728668063,1.0053169731473124,0.10536770063706996
63.0,-1.3310538014889086,-2.7830528848442904,-2.1229526354039656,2.1136519252959567,1.4558881600589713,3.05973480173202,0.0070011935697371725,1.0053368077950402,0.10537492290393069
64.0,-1.3324668540479705,-2.7829869743431024,-2.122798714205928,2.1132331446709562,1.45896422175195,3.060237595680198,0.007192949089117333,1.0053569585480207,0.1053822602206082
65.0,-1.3338800642594484,-2.782919426783024,-2.122641472510881,2.11281186866983,1.4620405987515652,3.0607394690077254,0.007384666696802663,1.0053774253442525,0.10538971256452659
66.0,-1.3352934120988051,-2.7828502470254337,-2.122480912760691,2.112388099253298,1.4651172704495483,3.06124042877666,0.0075763458029039455,1.0053982081207617,0.10539727991275599
67.0,-1.336706877552188,-2.7827794400000117,-2.1223170374167,2.11196183849574,1.4681942162511687,3.0617404820242724,0.007767985817650413,1.0054193068136033,0.10540496224201268
68.0,-1.3381204406175276,-2.78270701070433,-2.12214984895966,2.1115330885845793,1.4712714155763003,3.0622396357633592,0.007959586151391591,1.005440721357859,0.10541275952865917
69.0,-1.3395340813056316,-2.7826329642034366,-2.121979349889659,2.111101851819674,1.4743488478604863,3.062737896982556,0.008151146214599083,1.0054624516876391,0.10542067174870426
70.0,-1.3409477796412759,-2.7825573056294335,-2.121805542726056,2.1106681306127015,1.4774264925560003,3.063235272646645,0.008342665417868413,1.0054844977360826,0.10542869887780312
71.0,-1.342361515664293,-2.78248004018105,-2.1216284300074055,2.1102319274865393,1.480504329132905,3.0637317696968633,0.008534143171920812,1.0055068594353564,0.10543684089125738
72.0,-1.3437752694306564,-2.782401173123211,-2.121448014291386,2.1097932450746435,1.4835823370801082,3.0642273950512084,0.00872557888760506,1.0055295367166568,0.10544509776401513
73.0,-1.345189021013562,-2.7823207097865956,-2.1212642981547227,2.1093520861204205,1.4866604959064147,3.0647221556047413,0.00891697197589927,1.0055525295102088,0.1054534694706711
74.0,-1.3466027505045046,-2.7822386555671987,-2.1210772841931145,2.108908453476605,1.4897387851415747,3.0652160582298866,0.009108321847912722,1.0055758377452668,0.10546195598546666
75.0,-1.3480164380143513,-2.7821550159258774,-2.120886975021157,2.108462350104625,1.4928171843373275,3.0657091097767344,0.009299627914887667,1.0055994613501142,0.10547055728228998
76.0,-1.349430063674412,-2.7820697963878986,-2.120693373272261,2.108013779073968,1.4958956730684463,3.066201317073335,0.009490889588201129,1.0056234002520648,0.105479273334676
77.0,-1.350843607637503,-2.781983002542481,-2.120496481598575,2.1075627435615476,1.4989742309337721,3.066692686925998,0.009682106279366737,1.0056476543774613,0.10548810411580661
78.0,-1.35225705007901,-2.78189464004233,-2.120296302670902,2.1071092468510613,1.5020528375572506,3.067183226119582,0.009873277400036507,1.0056722236516775,0.10549704959851071
79.0,-1.3536703711979428,-2.781804714603167,-2.1200928391786196,2.1066532923323504,1.5051314725889584,3.067672941417791,0.010064402362002702,1.0056971079991168,0.10550610975526423
80.0,-1.3550835512179886,-2.7817132320032574,-2.1198860938295936,2.106194883500755,1.508210115706131,3.068161839563461,0.01025548057719957,1.0057223073432136,0.10551528455819029
81.0,-1.356496570388559,-2.7816201980829307,-2.119676069350096,2.105734023956468,1.511288746614181,3.0686499272788508,0.010446511457705216,1.0057478216064326,0.10552457397905927
82.0,-1.3579094089858321,-2.7815256187440975,-2.119462768484715,2.1052707174038843,1.5143673450477155,3.0691372112659283,0.010637494415743382,1.00577365071027,0.10553397798928887
83.0,-1.3593220473137921,-2.781429499949761,-2.119246193996269,2.1048049676509506,1.5174458907715502,3.0696236982066565,0.010828428863685256,1.0057997945752533,0.10554349655994422
84.0,-1.3607344657052596,-2.7813318477235223,-2.1190263486657197,2.10433677860851,1.5205243635817114,3.0701093947632745,0.011019314214051303,1.0058262531209412,0.10555312966173797
85.0,-1.36214664452292,-2.7812326681490873,-2.1188032352920794,2.1038661542896464,1.5236027433064405,3.0705943075785824,0.01121014987951302,1.0058530262659244,0.10556287726503034
86.0,-1.3635585641603465,-2.7811319673697605,-2.1185768566923224,2.1033930988090264,1.526681009807191,3.07107844327622,0.011400935272894826,1.0058801139278255,0.1055727393398293
87.0,-1.364970205043015,-2.781029751587943,-2.11834721570129,2.1029176163822387,1.529759142979619,3.071561808460946,0.01159166980717577,1.0059075160232993,0.10558271585579054
88.0,-1.3663815476293177,-2.7809260270646203,-2.118114315171597,2.10243971132513,1.5328371227545707,3.072044409718916,0.011782352895491427,1.0059352324680335,0.10559280678221772
89.0,-1.3677925724115663,-2.780820800118849,-2.1178781579735397,2.1019593880531424,1.5359149290990617,3.072526253617956,0.011972983951135639,1.0059632631767481,0.10560301208806236
90.0,-1.3692032599169928,-2.7807140771272376,-2.1176387469949973,2.1014766510806466,1.5389925420172537,3.0730073467078394,0.012163562387562356,1.0059916080631965,0.10561333174192414
91.0,-1.3706135907087436,-2.780605864523425,-2.1173960851413356,2.1009915050202714,1.5420699415514234,3.0734876955205586,0.012354087618387435,1.0060202670401655,0.10562376571205087
92.0,-1.3720235453868668,-2.7804961687975562,-2.1171501753353086,2.1005039545822375,1.5451471077829264,3.073967306570596,0.012544559057390433,1.006049240019475,0.10563431396633864
93.0,-1.373433104589294,-2.78038499649575,-2.1169010205169605,2.100014004573682,1.5482240208331552,3.0744461863551953,0.012734976118516404,1.006078526911979,0.1056449764723319
94.0,-1.374842248992816,-2.7802723542195675,-2.1166486236435227,2.0995216598979884,1.5513006608644915,3.0749243413546297,0.012925338215877751,1.0061081276275659,0.10565575319722353
95.0,-1.376250959314051,-2.780158248625474,-2.1163929876893133,2.099026925554108,1.5543770080812505,3.0754017780324685,0.01311564476375596,1.006138042075158,0.10566664410785502
96.0,-1.3776592163104089,-2.780042686424301,-2.116134115645634,2.098529806635887,1.557453042730623,3.075878502835844,0.013305895176603445,1.006168270162713,0.10567764917071651
97.0,-1.379067000781045,-2.7799256743806993,-2.11587201052067,2.0980303083313894,1.5605287451036056,3.076354522195716,0.01349608886904535,1.006198811797223,0.10568876835194688
98.0,-1.3804742935678116,-2.7798072193125947,-2.1156066753393783,2.097528435922213,1.563604095535929,3.076829842527136,0.01368622525588132,1.0062296668847153,0.10570000161733395
99.0,-1.3818810755561992,-2.7796873280906365,-2.115338113143386,2.0970241947828145,1.566679074408978,3.07730447022951,0.013876303752087333,1.0062608353302531,0.10571134893231443
100.0,-1.3832873276762732,-2.7795660076376447,-2.1150663269908834,2.096517590379825,1.5697536621507056,3.077778411686856,0.014066323772817507,1.0062923170379354,0.1057228102619742
101.0,-1.3846930309036005,-2.779443264928054,-2.1147913199565145,2.096008628271369,1.5728278392365365,3.07825167326807,0.01425628473340584,1.0063241119108972,0.10573438557104829
102.0,-1.3860981662601743,-2.779319106987353,-2.1145130951312687,2.0954973141063813,1.575901586190271,3.0787242613271797,0.014446186049368096,1.0063562198513099,0.10574607482392101
103.0,-1.387502714815326,-2.7791935408915247,-2.1142316556223704,2.0949836536239212,1.5789748835849744,3.0791961822036047,0.014636027136403516,1.0063886407603815,0.10575787798462613
104.0,-1.3889066576866334,-2.77906657376648,-2.1139470045531676,2.0944676526524884,1.582047712043865,3.0796674422224135,0.014825807410396682,1.0064213745383574,0.10576979501684691
105.0,-1.3903099760408204,-2.77893821278749,-2.1136591450630196,2.0939493171093364,1.5851200522411912,3.080138047694578,0.015015526287419277,1.0064544210845203,0.10578182588391624
106.0,-1.3917126510946496,-2.778808465178618,-2.1133680803071835,2.093428652999786,1.5881918849031036,3.0806080049172277,0.01520518318373192,1.0064877802971905,0.10579397054881678
107.0,-1.393114664115806,-2.7786773382121446,-2.1130738134567038,2.0929056664165393,1.5912631908085166,3.081077320173906,0.015394777515785898,1.0065214520737258,0.10580622897418102
108.0,-1.3945159964237763,-2.778544839207995,-2.112776347698291,2.0923803635389913,1.594333950789969,3.0815459997348205,0.015584308700225029,1.0065554363105231,0.10581860112229144
109.0,-1.3959166293907155,-2.7784109755331596,-2.1124756862342102,2.0918527506325373,1.5974041457344677,3.082014049857094,0.015773776153887413,1.0065897329030171,0.10583108695508062
110.0,-1.3973165444423117,-2.778275754601117,-2.112171832282161,2.091322834047892,1.6004737565843343,3.0824814767850186,0.015963179293807243,1.0066243417456824,0.1058436864341313
111.0,-1.3987157230586367,-2.7781391838712506,-2.1118647890751654,2.090790620220396,1.6035427643380322,3.082948286750302,0.016152517537216603,1.0066592627320314,0.10585639952067663
112.0,-1.4001141467749947,-2.7780012708482675,-2.1115545598614394,2.0902561156693267,1.6066111500509996,3.0834144859723196,0.016341790301547247,1.0066944957546178,0.10586922617560013
113.0,-1.4015117971827578,-2.7778620230816102,-2.1112411479042823,2.0897193269972094,1.6096788948364604,3.08388008065836,0.016530997004432408,1.0067300407050337,0.10588216635943593
114.0,-1.4029086559301975,-2.7777214481648707,-2.11092455648195,2.0891802608891283,1.6127459798662402,3.084345077003875,0.01672013706370858,1.0067658974739124,0.10589522003236881
115.0,-1.4043047047233046,-2.777579553735203,-2.1106047888875374,2.088638924112038,1.6158123863715625,3.0848094811927247,0.016909209897417295,1.0068020659509276,0.1059083871542344
116.0,-1.4056999253266032,-2.777436347472729,-2.1102818484288535,2.0880953235140716,1.618878095643846,3.0852732993974223,0.01709821492380695,1.0068385460247933,0.10592166768451922
117.0,-1.4070942995639555,-2.777291837099951,-2.109955738428297,2.087549466023855,1.6219430890354896,3.0857365377793817,0.01728715156133457,1.0068753375832658,0.10593506158236088
118.0,-1.4084878093193576,-2.7771460303811524,-2.109626462222738,2.087001358649815,1.6250073479606473,3.086199202489161,0.017476019228667584,1.0069124405131418,0.10594856880654815
119.0,-1.4098804365377295,-2.776998935121808,-2.1092940231633834,2.0864510084794934,1.628070853896002,3.0866612996667055,0.01766481734468567,1.006949854700261,0.10596218931552115
120.0,-1.411272163225692,-2.7768505591679826,-2.1089584246156607,2.085898422678856,1.6311335883815206,3.087122835441591,0.017853545328482465,1.0069875800295052,0.10597592306737139
121.0,-1.4126629714523382,-2.7767009104057374,-2.1086196699590856,2.0853436084916077,1.6341955330212081,3.0875838159332667,0.018042202599367424,1.007025616384798,0.10598977001984196
122.0,-1.4140528433499984,-2.776549996760529,-2.1082777625871336,2.084786573238503,1.6372566694838555,3.0880442472512977,0.018230788576867565,1.0070639636491072,0.10600373013032768
123.0,-1.4154417611149892,-2.77639782619661,-2.107932705907117,2.084227324316663,1.6403169795037662,3.088504135495604,0.018419302680729267,1.0071026217044432,0.10601780335587514
124.0,-1.416829707008362,-2.776244406716428,-2.107584503340051,2.083665869198886,1.6433764448814905,3.088963486756704,0.01860774433092005,1.0071415904318606,0.10603198965318296
125.0,-1.4182166633566364,-2.7760897463600243,-2.1072331583205264,2.083102215432965,1.6464350474845373,3.0894223071159526,0.018796112947630377,1.0071808697114575,0.1060462889786018
126.0,-1.4196026125525292,-2.775933853204431,-2.1068786742965755,2.082536370641001,1.649492769248088,3.0898806026457817,0.018984407951275404,1.0072204594223773,0.10606070128813455
127.0,-1.420987537055671,-2.7757767353630687,-2.1065210547295457,2.0819683425187248,1.6525495921756925,3.0903383794099395,0.01917262876249681,1.0072603594428073,0.10607522653743649
128.0,-1.4223714193933166,-2.775618400985141,-2.1061603030939624,2.0813981388348086,1.6556054983399635,3.09079564346373,0.01936077480216453,1.007300569649981,0.10608986468181539
129.0,-1.423754242161044,-2.775458858255031,-2.105796422877399,2.080825767430191,1.658660469883257,3.091252400854248,0.019548845491378586,1.007341089920177,0.10610461567623165
130.0,-1.4251359880234458,-2.775298115391696,-2.105429417580344,2.0802512362173924,1.661714489018345,3.091708657620622,0.01973684025147081,1.0073819201287193,0.10611947947529846
131.0,-1.426516639714812,-2.7751361806480643,-2.1050592907160612,2.07967455317984,1.6647675380290836,3.0921644197942486,0.01992475850400669,1.0074230601499794,0.10613445603328188
132.0,-1.4278961800398018,-2.7749730623104263,-2.1046860458104604,2.0790957263711882,1.667819599271065,3.0926196933990298,0.0201125996707871,1.007464509857375,0.10614954530410109
133.0,-1.4292745918741079,-2.7748087686978313,-2.10430968640196,2.0785147639146455,1.6708706551722645,3.093074484451611,0.02030036317385011,1.0075062691233707,0.10616474724132845
134.0,-1.4306518581651104,-2.7746433081614796,-2.103930216041349,2.077931674002296,1.6739206882336783,3.0935287989616165,0.020488048435472733,1.007548337819479,0.10618006179818962
135.0,-1.4320279619325222,-2.774476689084119,-2.103547638291649,2.0773464648944313,1.6769696810299515,3.0939826429318864,0.020675654878172727,1.00759071581626,0.10619548892756378
136.0,-1.4334028862690253,-2.7743089198794366,-2.1031619567279813,2.0767591449188774,1.680017616209997,3.0944360223587135,0.020863181924710365,1.0076334029833227,0.10621102858198375
137.0,-1.4347766143408969,-2.7741400089914543,-2.1027731749374214,2.0761697224703237,1.683064476497605,3.0948889432320783,0.021050628998090223,1.0076763991893243,0.10622668071363608
138.0,-1.4361491293886257,-2.7739699648939222,-2.1023812965188653,2.075578206009658,1.6861102446920417,3.095341411535883,0.02123799552156293,1.007719704301971,0.10624244527436132
139.0,-1.4375204147275218,-2.7737987960897135,-2.101986325082888,2.0749846040632995,1.6891549036686444,3.09579343324819,0.021425280918626964,1.007763318188019,0.10625832221565398
140.0,-1.438890453748314,-2.773626511110221,-2.1015882642515997,2.0743889252225367,1.6921984363793996,3.0962450143414557,0.021612484613030405,1.0078072407132743,0.10627431148866291
141.0,-1.4402592299177386,-2.773453118514749,-2.1011871176585104,2.0737911781428613,1.6952408258535177,3.0966961607827663,0.021799606028772737,1.0078514717425933,0.10629041304419123
142.0,-1.4416267267791185,-2.773278626889913,-2.1007828889483844,2.0731913715433143,1.698282055197993,3.097146878534071,0.02198664459010659,1.0078960111398827,0.10630662683269666
143.0,-1.4429929279529354,-2.7731030448490324,-2.1003755817770977,2.0725895142058235,1.7013221075981626,3.09759717355242,0.022173599721539552,1.0079408587681011,0.10632295280429155
144.0,-1.444357817137388,-2.772926381031532,-2.0999651998114968,2.0719856149745524,1.7043609663182462,3.0980470517901972,0.022360470847835875,1.0079860144892585,0.10633939090874306
145.0,-1.4457213781089449,-2.7727486441023346,-2.0995517467292544,2.071379682755242,1.7073986147018823,3.098496519195356,0.02254725739401831,1.0080314781644166,0.10635594109547337
146.0,-1.447083594722885,-2.7725698427512633,-2.099135226218725,2.0707717265145664,1.710435036172655,3.0989455817116554,0.022733958785369858,1.00807724965369,0.10637260331355981
147.0,-1.4484444509138292,-2.772389985692439,-2.0987156419788033,2.07016175527948,1.713470214234606,3.099394245278892,0.022920574447435484,1.0081233288162457,0.10638937751173497
148.0,-1.4498039306962665,-2.7722090816636826,-2.0982929977187705,2.0695497781365733,1.7165041324727497,3.099842515833139,0.02310710380602399,1.0081697155103047,0.1064062636383869
149.0,-1.451162018165061,-2.772027139425914,-2.09786729715816,2.06893580423143,1.719536774553558,3.100290399306977,0.023293546287209678,1.008216409593141,0.10642326164155927
150.0,-1.4525186974959616,-2.771844167762555,-2.0974385440266,2.0683198427679863,1.7225681242254598,3.100737901629734,0.02347990131733419,1.0082634109210835,0.1064403714689515
151.0,-1.4538739529460911,-2.7716601754789356,-2.0970067420636758,2.0677019030078934,1.7255981653193107,3.1011850287277163,0.02366616832300821,1.0083107193495153,0.10645759306791899
152.0,-1.455227768854433,-2.771475171401694,-2.096571895018776,2.067081994269882,1.7286268817488657,3.101631786524447,0.02385234673111329,1.0083583347328748,0.10647492638547318
153.0,-1.4565801296423069,-2.7712891643781865,-2.0961340066509466,2.0664601259291313,1.7316542575112392,3.1020781809409015,0.02403843596880358,1.0084062569246561,0.10649237136828178
154.0,-1.4579310198138304,-2.771102163275893,-2.0956930807287453,2.065836307416639,1.734680276687349,3.1025242178957417,0.024224435463507592,1.0084544857774087,0.10650992796266896
155.0,-1.4592804239563788,-2.770914176981827,-2.095249121030087,2.0652105482185945,1.737704923442363,3.102969903305553,0.024410344642929942,1.008503021142739,0.10652759611461543
156.0,-1.4606283267410292,-2.770725214401944,-2.0948021313420995,2.0645828578757603,1.7407281820261273,3.1034152430850823,0.024596162935053185,1.0085518628713106,0.10654537576975867
157.0,-1.461974712922996,-2.7705352844605544,-2.09435211546097,2.063953245982844,1.7437500367735843,3.103860243147472,0.024781889768139474,1.0086010108128436,0.10656326687339307
158.0,-1.4633195673420614,-2.770344396099738,-2.093899077191797,2.0633217221878897,1.7467704721051902,3.1043049094044997,0.024967524570732393,1.0086504648161168,0.10658126937047013
159.0,-1.4646628749229882,-2.7701525582787565,-2.093443020348438,2.062688296191659,1.7497894725273107,3.104749247766813,0.02515306677165869,1.0087002247289665,0.1065993832055986
160.0,-1.4660046206759325,-2.7699597799734716,-2.09298394875336,2.0620529777470242,1.7528070226326198,3.105193264144169,0.025338515800030048,1.0087502903982883,0.10661760832304464
161.0,-1.4673447896968392,-2.769766070175765,-2.092521866237484,2.0614157766583605,1.755823107100479,3.105636964445673,0.02552387108524477,1.0088006616700373,0.10663594466673201
162.0,-1.468683367167832,-2.7695714378929557,-2.092056776640037,2.060776702780941,1.7588377106973123,3.106080354580014,0.025709132056989697,1.0088513383892275,0.10665439218024228
163.0,-1.470020338357592,-2.769375892147225,-2.0915886838083977,2.0601357660203408,1.7618508182769683,3.1065234404557076,0.025894298145241763,1.0089023203999332,0.10667295080681491
164.0,-1.4713556886217298,-2.7691794419750395,-2.091117591597941,2.0594929763318364,1.7648624147810814,3.1069662279813324,0.026079368780269906,1.0089536075452903,0.10669162048934755
165.0,-1.4726894034031435,-2.768982096426577,-2.0906435038718887,2.0588483437198173,1.7678724852394088,3.107408723065771,0.02626434339263672,1.0090051996674947,0.10671040117039605
166.0,-1.474021468232372,-2.768783864565158,-2.090166424501152,2.058201878237195,1.7708810147701728,3.1078509316184517,0.026449221413200285,1.0090570966078045,0.10672929279217483
167.0,-1.4753518687279357,-2.7685847554666707,-2.0896863573641804,2.057553589984817,1.7738879885803849,3.1082928595495867,0.026634002273115843,1.00910929820654,0.10674829529655691
168.0,-1.4766805905966687,-2.768384778219009,-2.089203306346804,2.0569034891108893,1.7768933919661631,3.1087345127704165,0.026818685403837642,1.0091618043030834,0.10676740862507413
169.0,-1.4780076196340433,-2.7681839419215044,-2.0887172753420775,2.0562515858103945,1.779897210313042,3.1091758971934507,0.02700327023712055,1.0092146147358811,0.10678663271891736
170.0,-1.4793329417244812,-2.7679822556843647,-2.08822826825013,2.0555978903245222,1.7828994290962676,3.1096170187327115,0.02718775620502196,1.0092677293424424,0.10680596751893667
171.0,-1.480656542841661,-2.7677797286281143,-2.0877362889780033,2.0549424129400986,1.7859000338810913,3.110057883303976,0.027372142739903408,1.0093211479593407,0.10682541296564148
172.0,-1.4819784090488095,-2.767576369883033,-2.0872413414395012,2.0542851639890216,1.7888990103230442,3.110498496825021,0.027556429274432404,1.0093748704222139,0.10684496899920076
173.0,-1.4832985264989926,-2.767372188588605,-2.086743429555024,2.0536261538476968,1.7918963441682165,3.1109388652158696,0.027740615241584127,1.0094288965657656,0.10686463555944326
174.0,-1.4846168814353868,-2.7671671938929623,-2.086242557251422,2.052965392936485,1.7948920212535102,3.1113789943990335,0.027924700074643195,1.0094832262237645,0.1068844125858576
175.0,-1.48593346019155,-2.7669613949523355,-2.085738728461831,2.052302891719147,1.7978860275068966,3.1118188902997623,0.02810868320720539,1.0095378592290456,0.10690430001759255
176.0,-1.487248249191678,-2.766754800930508,-2.0852319471255165,2.0516386607022965,1.8008783489476596,3.1122585588462885,0.02829256407317945,1.0095927954135104,0.10692429779345713
177.0,-1.4885612349508563,-2.7665474209982674,-2.0847222171877173,2.0509727104348543,1.8038689716866287,3.1126980059700773,0.02847634210678873,1.0096480346081278,0.10694440585192096
178.0,-1.4898724040752966,-2.766339264332866,-2.084209542599484,2.050305051507512,1.8068578819264047,3.113137237606075,0.028660016742572996,1.0097035766429343,0.10696462413111418
179.0,-1.4911817432625707,-2.766130340117479,-2.083693927317523,2.049635694552192,1.8098450659615741,3.1135762596929566,0.028843587415390174,1.0097594213470342,0.1069849525688279
180.0,-1.492489239301832,-2.76592065754067,-2.0831753753040343,2.048964650241523,1.8128305101789222,3.114015078173381,0.02902705356041806,1.0098155685486014,0.10700539110251425
181.0,-1.4937948790740276,-2.765710225795853,-2.0826538905265566,2.048291929288308,1.8158142010576226,3.114453698994237,0.029210414613156068,1.0098720180748781,0.10702593966928664
182.0,-1.4950986495521037,-2.7654990540807662,-2.0821294769578036,2.0476175424450083,1.8187961251694327,3.1148921281069004,0.029393670009426952,1.0099287697521768,0.10704659820591989
183.0,-1.4964005378012009,-2.765287151596941,-2.0816021385755046,2.0469415005032237,1.8217762691788744,3.115330371467486,0.029576819185378588,1.0099858234058805,0.10706736664885044
184.0,-1.4977005309788394,-2.765074527549176,-2.0810718793622467,2.0462638142931815,1.8247546198434001,3.1157684350370998,0.02975986157748565,1.0100431788604425,0.10708824493417664
185.0,-1.498998616335099,-2.7648611911450174,-2.0805387033053098,2.045584494683228,1.8277311640135627,3.1162063247821,0.029942796622551383,1.010100835939388,0.10710923299765879
186.0,-1.500294781212786,-2.764647151594237,-2.080002614396511,2.044903552579331,1.8307058886331637,3.1166440466743475,0.030125623757709313,1.0101587944653139,0.10713033077471945
187.0,-1.5015890130475942,-2.7644324181083175,-2.0794636166320393,2.044220998924576,1.833678780739401,3.117081606691468,0.030308342420425013,1.0102170542598894,0.10715153820044362
188.0,-1.5028812993682574,-2.7642169998999404,-2.078921714012294,2.0435368446986786,1.8366498274630076,3.117519010817109,0.030490952048497815,1.0102756151438574,0.10717285520957891
189.0,-1.5041716277966903,-2.764000906182474,-2.0783769105417274,2.042851100917494,1.8396190160283727,3.1179562650412014,0.030673452080062478,1.0103344769370335,0.10719428173653574
190.0,-1.5054599860481268,-2.7637841461694697,-2.077829210228676,2.0421637786325393,1.842586333753672,3.118393375360219,0.030855841953591052,1.0103936394583082,0.10721581771538757
191.0,-1.506746361931242,-2.7635667290741543,-2.077278617085203,2.0414748889305088,1.8455517680509694,3.118830347777443,0.031038121107894463,1.0104531025256465,0.10723746307987114
192.0,-1.5080307433482714,-2.763348664108934,-2.0767251351269356,2.0407844429328095,1.8485153064263218,3.119267188303222,0.031220288982124356,1.0105128659560882,0.10725921776338655
193.0,-1.5093131182951203,-2.7631299604848967,-2.0761687683729,2.040092451795091,1.8514769364798749,3.1197039029552434,0.03140234501577473,1.0105729295657495,0.10728108169899758
194.0,-1.5105934748614658,-2.762910627411316,-2.0756095208453575,2.0393989267067822,1.8544366459059498,3.120140497758794,0.03158428864868373,1.0106332931698228,0.10730305481943184
195.0,-1.5118718012308463,-2.762690674095164,-2.0750473965696448,2.0387038788906375,1.8573944224931165,3.12057697874703,0.031766119321035347,1.0106939565825772,0.10732513705708102
196.0,-1.5131480856807484,-2.7624701097406223,-2.074482399574007,2.038007319602284,1.8603502541242658,3.1210133519612473,0.03194783647336111,1.0107549196173597,0.10734732834400104
197.0,-1.5144223165826831,-2.7622489435486024,-2.073914533889434,2.037309260129779,1.863304128776671,3.1214496234511504,0.03212943954654182,1.0108161820865955,0.1073696286119123
198.0,-1.5156944824022518,-2.7620271847162603,-2.0733438035494993,2.036609711793166,1.8662560345220376,3.1218857992751246,0.03231092798180935,1.010877743801788,0.10739203779219987
199.0,-1.5169645716992084,-2.7618048424365247,-2.0727702125901915,2.0359086859440416,1.8692059595265509,3.1223218855005106,0.03249230122074824,1.0109396045735202,0.10741455581591375
200.0,-1.5156944824022518,-2.7620271847162603,-2.0733438035494993,2.036609711793166,1.8662560345220374,3.1218857992751246,0.032310927981809345,1.010877743801788,0.10739203779219987
201.0,-1.5144223165826831,-2.7622489435486024,-2.073914533889434,2.037309260129779,1.863304128776671,3.1214496234511504,0.03212943954654182,1.0108161820865955,0.1073696286119123
202.0,-1.5131480856807484,-2.7624701097406223,-2.074482399574007,2.038007319602284,1.8603502541242656,3.1210133519612473,0.031947836473361094,1.0107549196173597,0.10734732834400103
203.0,-1.5118718012308463,-2.762690674095164,-2.0750473965696448,2.0387038788906375,1.8573944224931165,3.12057697874703,0.031766119321035347,1.0106939565825772,0.10732513705708102
204.0,-1.5105934748614656,-2.762910627411316,-2.0756095208453575,2.0393989267067822,1.8544366459059496,3.120140497758794,0.03158428864868372,1.0106332931698228,0.10730305481943184
205.0,-1.5093131182951203,-2.7631299604848967,-2.0761687683729,2.040092451795091,1.8514769364798749,3.1197039029552434,0.03140234501577473,1.0105729295657495,0.10728108169899758
206.0,-1.5080307433482711,-2.763348664108934,-2.0767251351269356,2.0407844429328095,1.8485153064263213,3.119267188303222,0.031220288982124342,1.0105128659560882,0.10725921776338655
207.0,-1.506746361931242,-2.7635667290741543,-2.077278617085203,2.0414748889305088,1.8455517680509694,3.118830347777443,0.031038121107894463,1.0104531025256465,0.10723746307987114
208.0,-1.5054599860481268,-2.7637841461694697,-2.077829210228676,2.0421637786325393,1.8425863337536719,3.118393375360219,0.030855841953591045,1.0103936394583082,0.10721581771538757
209.0,-1.5041716277966903,-2.764000906182474,-2.0783769105417274,2.042851100917494,1.8396190160283727,3.1179562650412014,0.030673452080062478,1.0103344769370335,0.10719428173653574
210.0,-1.5028812993682572,-2.7642169998999404,-2.078921714012294,2.0435368446986786,1.8366498274630074,3.117519010817109,0.030490952048497808,1.0102756151438574,0.10717285520957891
211.0,-1.5015890130475942,-2.7644324181083175,-2.0794636166320393,2.044220998924576,1.833678780739401,3.117081606691468,0.030308342420425013,1.0102170542598894,0.10715153820044362
212.0,-1.500294781212786,-2.764647151594237,-2.080002614396511,2.044903552579331,1.8307058886331637,3.1166440466743475,0.030125623757709313,1.0101587944653139,0.10713033077471945
213.0,-1.498998616335099,-2.7648611911450174,-2.0805387033053098,2.045584494683228,1.8277311640135627,3.1162063247821,0.029942796622551383,1.010100835939388,0.10710923299765879
214.0,-1.4977005309788394,-2.765074527549176,-2.0810718793622467,2.0462638142931815,1.8247546198434001,3.1157684350370998,0.029759861577485638,1.0100431788604425,0.10708824493417664
215.0,-1.4964005378012009,-2.765287151596941,-2.0816021385755046,2.0469415005032237,1.8217762691788744,3.115330371467486,0.029576819185378588,1.0099858234058805,0.10706736664885044
216.0,-1.4950986495521035,-2.7654990540807662,-2.0821294769578036,2.047617542445008,1.8187961251694325,3.1148921281069004,0.029393670009426946,1.0099287697521768,0.10704659820591989
217.0,-1.4937948790740276,-2.765710225795853,-2.0826538905265566,2.048291929288308,1.8158142010576226,3.114453698994237,0.029210414613156068,1.0098720180748781,0.10702593966928664
218.0,-1.492489239301832,-2.76592065754067,-2.0831753753040343,2.048964650241523,1.8128305101789222,3.114015078173381,0.029027053560418053,1.0098155685486014,0.10700539110251425
219.0,-1.4911817432625707,-2.766130340117479,-2.083693927317523,2.049635694552192,1.8098450659615741,3.1135762596929566,0.028843587415390174,1.0097594213470342,0.1069849525688279
220.0,-1.4898724040752966,-2.766339264332866,-2.084209542599484,2.050305051507512,1.8068578819264047,3.113137237606075,0.028660016742572996,1.0097035766429343,0.10696462413111418
221.0,-1.4885612349508563,-2.7665474209982674,-2.0847222171877173,2.0509727104348543,1.8038689716866287,3.1126980059700773,0.02847634210678873,1.0096480346081278,0.10694440585192096
222.0,-1.487248249191678,-2.7667548009305083,-2.0852319471255165,2.051638660702297,1.8008783489476596,3.1122585588462885,0.028292564073179444,1.0095927954135104,0.10692429779345713
223.0,-1.48593346019155,-2.7669613949523355,-2.085738728461831,2.052302891719147,1.7978860275068966,3.1118188902997623,0.02810868320720539,1.0095378592290456,0.10690430001759255
224.0,-1.4846168814353868,-2.7671671938929623,-2.086242557251422,2.052965392936485,1.79489202125351,3.1113789943990335,0.027924700074643188,1.0094832262237645,0.1068844125858576
225.0,-1.4832985264989926,-2.767372188588605,-2.086743429555024,2.0536261538476968,1.7918963441682165,3.1109388652158696,0.027740615241584127,1.0094288965657656,0.10686463555944326
226.0,-1.4819784090488095,-2.767576369883033,-2.0872413414395012,2.0542851639890216,1.7888990103230442,3.110498496825021,0.027556429274432404,1.0093748704222139,0.10684496899920076
227.0,-1.480656542841661,-2.7677797286281143,-2.0877362889780033,2.0549424129400986,1.7859000338810913,3.110057883303976,0.027372142739903408,1.0093211479593407,0.10682541296564148
228.0,-1.4793329417244812,-2.7679822556843647,-2.08822826825013,2.0555978903245222,1.7828994290962676,3.1096170187327115,0.027187756205021955,1.0092677293424424,0.10680596751893667
229.0,-1.4780076196340433,-2.7681839419215044,-2.0887172753420775,2.0562515858103945,1.779897210313042,3.1091758971934507,0.02700327023712055,1.0092146147358811,0.10678663271891736
230.0,-1.4766805905966687,-2.768384778219009,-2.089203306346804,2.0569034891108893,1.7768933919661631,3.1087345127704165,0.026818685403837635,1.0091618043030834,0.10676740862507413
231.0,-1.4753518687279357,-2.7685847554666707,-2.0896863573641804,2.057553589984817,1.7738879885803849,3.1082928595495867,0.026634002273115843,1.00910929820654,0.10674829529655691
232.0,-1.474021468232372,-2.768783864565158,-2.090166424501152,2.058201878237195,1.7708810147701728,3.1078509316184517,0.026449221413200285,1.0090570966078045,0.10672929279217483
233.0,-1.4726894034031435,-2.768982096426577,-2.0906435038718887,2.0588483437198173,1.7678724852394088,3.107408723065771,0.02626434339263672,1.0090051996674947,0.10671040117039605
234.0,-1.4713556886217296,-2.7691794419750395,-2.091117591597941,2.0594929763318364,1.7648624147810812,3.1069662279813324,0.0260793687802699,1.0089536075452903,0.10669162048934755
235.0,-1.470020338357592,-2.769375892147225,-2.0915886838083977,2.0601357660203408,1.7618508182769683,3.1065234404557076,0.025894298145241763,1.0089023203999332,0.10667295080681491
236.0,-1.468683367167832,-2.7695714378929557,-2.092056776640037,2.060776702780941,1.7588377106973123,3.106080354580014,0.02570913205698969,1.0088513383892275,0.10665439218024228
237.0,-1.4673447896968392,-2.769766070175765,-2.092521866237484,2.0614157766583605,1.755823107100479,3.105636964445673,0.02552387108524477,1.0088006616700373,0.10663594466673201
238.0,-1.4660046206759325,-2.7699597799734716,-2.09298394875336,2.0620529777470242,1.7528070226326196,3.105193264144169,0.02533851580003004,1.0087502903982883,0.10661760832304464
239.0,-1.4646628749229882,-2.7701525582787565,-2.093443020348438,2.062688296191659,1.7497894725273107,3.104749247766813,0.02515306677165869,1.0087002247289665,0.1065993832055986
240.0,-1.4633195673420611,-2.770344396099738,-2.093899077191797,2.0633217221878897,1.7467704721051898,3.1043049094044997,0.024967524570732383,1.0086504648161168,0.10658126937047013
241.0,-1.461974712922996,-2.7705352844605544,-2.09435211546097,2.063953245982844,1.7437500367735843,3.103860243147472,0.024781889768139474,1.0086010108128436,0.10656326687339307
242.0,-1.4606283267410292,-2.770725214401944,-2.0948021313420995,2.0645828578757603,1.7407281820261273,3.1034152430850823,0.024596162935053185,1.0085518628713106,0.10654537576975867
243.0,-1.4592804239563788,-2.770914176981827,-2.095249121030087,2.0652105482185945,1.737704923442363,3.102969903305553,0.024410344642929942,1.008503021142739,0.10652759611461543
244.0,-1.4579310198138304,-2.771102163275893,-2.0956930807287453,2.065836307416639,1.734680276687349,3.1025242178957417,0.024224435463507586,1.0084544857774087,0.10650992796266896
245.0,-1.4565801296423069,-2.7712891643781865,-2.0961340066509466,2.0664601259291313,1.7316542575112392,3.1020781809409015,0.02403843596880358,1.0084062569246561,0.10649237136828178
246.0,-1.455227768854433,-2.771475171401694,-2.096571895018776,2.067081994269882,1.7286268817488657,3.101631786524447,0.02385234673111329,1.0083583347328748,0.10647492638547318
247.0,-1.4538739529460911,-2.7716601754789356,-2.0970067420636758,2.0677019030078934,1.7255981653193107,3.1011850287277163,0.02366616832300821,1.0083107193495153,0.10645759306791899
248.0,-1.4525186974959616,-2.771844167762555,-2.0974385440266,2.0683198427679863,1.7225681242254596,3.100737901629734,0.023479901317334184,1.0082634109210835,0.1064403714689515
249.0,-1.451162018165061,-2.772027139425914,-2.09786729715816,2.06893580423143,1.719536774553558,3.100290399306977,0.023293546287209678,1.008216409593141,0.10642326164155927
250.0,-1.4498039306962665,-2.7722090816636826,-2.0982929977187705,2.0695497781365733,1.7165041324727497,3.099842515833139,0.02310710380602399,1.0081697155103047,0.1064062636383869
251.0,-1.4484444509138292,-2.772389985692439,-2.0987156419788033,2.07016175527948,1.713470214234606,3.099394245278892,0.022920574447435484,1.0081233288162457,0.10638937751173497
252.0,-1.4470835947228848,-2.7725698427512633,-2.099135226218725,2.0707717265145664,1.7104350361726548,3.0989455817116554,0.02273395878536985,1.00807724965369,0.10637260331355981
253.0,-1.4457213781089449,-2.7727486441023346,-2.0995517467292544,2.071379682755242,1.7073986147018823,3.098496519195356,0.02254725739401831,1.0080314781644166,0.10635594109547337
254.0,-1.444357817137388,-2.772926381031532,-2.0999651998114968,2.0719856149745524,1.7043609663182462,3.0980470517901972,0.022360470847835875,1.0079860144892585,0.10633939090874306
255.0,-1.4429929279529354,-2.7731030448490324,-2.1003755817770977,2.0725895142058235,1.7013221075981626,3.09759717355242,0.022173599721539552,1.0079408587681011,0.10632295280429155
256.0,-1.4416267267791185,-2.773278626889913,-2.1007828889483844,2.0731913715433143,1.698282055197993,3.097146878534071,0.021986644590106588,1.0078960111398827,0.10630662683269666
257.0,-1.4402592299177386,-2.773453118514749,-2.1011871176585104,2.0737911781428613,1.6952408258535177,3.0966961607827663,0.021799606028772737,1.0078514717425933,0.10629041304419123
258.0,-1.438890453748314,-2.773626511110221,-2.1015882642515997,2.0743889252225367,1.6921984363793996,3.0962450143414557,0.021612484613030402,1.0078072407132743,0.10627431148866291
259.0,-1.4375204147275218,-2.7737987960897135,-2.101986325082888,2.0749846040632995,1.6891549036686444,3.09579343324819,0.021425280918626964,1.007763318188019,0.10625832221565398
260.0,-1.4361491293886257,-2.7739699648939222,-2.1023812965188653,2.075578206009658,1.6861102446920417,3.095341411535883,0.021237995521562927,1.007719704301971,0.10624244527436132
261.0,-1.4347766143408969,-2.7741400089914543,-2.1027731749374214,2.0761697224703237,1.683064476497605,3.0948889432320783,0.021050628998090223,1.0076763991893243,0.10622668071363608
262.0,-1.4334028862690253,-2.7743089198794366,-2.1031619567279813,2.0767591449188774,1.680017616209997,3.0944360223587135,0.020863181924710365,1.0076334029833227,0.10621102858198375
263.0,-1.4320279619325222,-2.774476689084119,-2.103547638291649,2.0773464648944313,1.6769696810299515,3.0939826429318864,0.020675654878172727,1.00759071581626,0.10619548892756378
264.0,-1.4306518581651104,-2.7746433081614796,-2.103930216041349,2.077931674002296,1.6739206882336781,3.0935287989616165,0.02048804843547273,1.007548337819479,0.10618006179818962
265.0,-1.4292745918741079,-2.7748087686978313,-2.10430968640196,2.0785147639146455,1.6708706551722645,3.093074484451611,0.02030036317385011,1.0075062691233707,0.10616474724132845
266.0,-1.4278961800398018,-2.7749730623104263,-2.1046860458104604,2.0790957263711882,1.6678195992710647,3.0926196933990298,0.020112599670787098,1.007464509857375,0.10614954530410109
267.0,-1.426516639714812,-2.7751361806480643,-2.1050592907160612,2.07967455317984,1.6647675380290836,3.0921644197942486,0.01992475850400669,1.0074230601499794,0.10613445603328188
268.0,-1.4251359880234458,-2.775298115391696,-2.105429417580344,2.0802512362173924,1.661714489018345,3.091708657620622,0.019736840251470808,1.0073819201287193,0.10611947947529846
269.0,-1.423754242161044,-2.775458858255031,-2.105796422877399,2.080825767430191,1.658660469883257,3.091252400854248,0.019548845491378586,1.007341089920177,0.10610461567623165
270.0,-1.4223714193933166,-2.775618400985141,-2.1061603030939624,2.0813981388348086,1.6556054983399635,3.09079564346373,0.01936077480216453,1.007300569649981,0.10608986468181539
271.0,-1.420987537055671,-2.7757767353630687,-2.1065210547295457,2.0819683425187248,1.6525495921756925,3.0903383794099395,0.01917262876249681,1.0072603594428073,0.10607522653743649
272.0,-1.4196026125525292,-2.775933853204431,-2.1068786742965755,2.082536370641001,1.649492769248088,3.0898806026457817,0.0189844079512754,1.0072204594223773,0.10606070128813455
273.0,-1.4182166633566364,-2.7760897463600243,-2.1072331583205264,2.083102215432965,1.6464350474845373,3.0894223071159526,0.018796112947630377,1.0071808697114575,0.1060462889786018
274.0,-1.416829707008362,-2.776244406716428,-2.107584503340051,2.083665869198886,1.6433764448814905,3.088963486756704,0.01860774433092005,1.0071415904318606,0.10603198965318296
275.0,-1.4154417611149892,-2.77639782619661,-2.107932705907117,2.084227324316663,1.6403169795037662,3.088504135495604,0.018419302680729267,1.0071026217044432,0.10601780335587514
276.0,-1.4140528433499984,-2.776549996760529,-2.1082777625871336,2.084786573238503,1.6372566694838555,3.0880442472512977,0.018230788576867562,1.0070639636491072,0.10600373013032768
277.0,-1.4126629714523382,-2.7767009104057374,-2.1086196699590856,2.0853436084916077,1.6341955330212081,3.0875838159332667,0.018042202599367424,1.007025616384798,0.10598977001984196
278.0,-1.411272163225692,-2.7768505591679826,-2.1089584246156607,2.085898422678856,1.6311335883815206,3.087122835441591,0.017853545328482462,1.0069875800295052,0.10597592306737139
279.0,-1.4098804365377295,-2.776998935121808,-2.1092940231633834,2.0864510084794934,1.628070853896002,3.0866612996667055,0.017664817344685668,1.006949854700261,0.10596218931552115
280.0,-1.4084878093193576,-2.7771460303811524,-2.109626462222738,2.087001358649815,1.6250073479606473,3.086199202489161,0.01747601922866758,1.0069124405131418,0.10594856880654815
281.0,-1.4070942995639555,-2.777291837099951,-2.109955738428297,2.087549466023855,1.6219430890354896,3.0857365377793817,0.017287151561334566,1.0068753375832658,0.10593506158236088
282.0,-1.4056999253266032,-2.777436347472729,-2.1102818484288535,2.0880953235140716,1.618878095643846,3.0852732993974223,0.01709821492380695,1.0068385460247933,0.10592166768451922
283.0,-1.4043047047233046,-2.777579553735203,-2.1106047888875374,2.088638924112038,1.6158123863715625,3.0848094811927247,0.016909209897417295,1.0068020659509276,0.1059083871542344
284.0,-1.4029086559301975,-2.7777214481648707,-2.11092455648195,2.0891802608891283,1.6127459798662402,3.084345077003875,0.01672013706370858,1.0067658974739124,0.10589522003236881
285.0,-1.4015117971827578,-2.7778620230816102,-2.1112411479042823,2.0897193269972094,1.6096788948364604,3.08388008065836,0.016530997004432404,1.0067300407050337,0.10588216635943593
286.0,-1.4001141467749947,-2.7780012708482675,-2.1115545598614394,2.0902561156693267,1.6066111500509996,3.0834144859723196,0.016341790301547244,1.0066944957546178,0.10586922617560013
287.0,-1.3987157230586367,-2.7781391838712506,-2.1118647890751654,2.090790620220396,1.6035427643380322,3.082948286750302,0.0161525175372166,1.0066592627320314,0.10585639952067663
288.0,-1.3973165444423117,-2.778275754601117,-2.112171832282161,2.091322834047892,1.6004737565843343,3.0824814767850186,0.01596317929380724,1.0066243417456824,0.1058436864341313
289.0,-1.3959166293907155,-2.7784109755331596,-2.1124756862342102,2.0918527506325373,1.5974041457344677,3.082014049857094,0.01577377615388741,1.0065897329030171,0.10583108695508062
290.0,-1.3945159964237763,-2.778544839207995,-2.112776347698291,2.0923803635389913,1.594333950789969,3.0815459997348205,0.015584308700225025,1.0065554363105231,0.10581860112229144
291.0,-1.393114664115806,-2.7786773382121446,-2.1130738134567038,2.0929056664165393,1.5912631908085166,3.081077320173906,0.015394777515785895,1.0065214520737258,0.10580622897418102
292.0,-1.3917126510946496,-2.778808465178618,-2.1133680803071835,2.093428652999786,1.5881918849031036,3.0806080049172277,0.015205183183731916,1.0064877802971905,0.10579397054881678
293.0,-1.3903099760408204,-2.77893821278749,-2.1136591450630196,2.0939493171093364,1.585120052241191,3.080138047694578,0.015015526287419274,1.0064544210845203,0.10578182588391624
294.0,-1.3889066576866334,-2.77906657376648,-2.1139470045531676,2.0944676526524884,1.582047712043865,3.0796674422224135,0.014825807410396675,1.0064213745383574,0.10576979501684691
295.0,-1.387502714815326,-2.7791935408915247,-2.1142316556223704,2.0949836536239212,1.5789748835849744,3.0791961822036047,0.014636027136403513,1.0063886407603815,0.10575787798462613
296.0,-1.3860981662601743,-2.779319106987353,-2.1145130951312687,2.0954973141063813,1.575901586190271,3.0787242613271797,0.01444618604936809,1.0063562198513099,0.10574607482392101
297.0,-1.3846930309036005,-2.7794432649280534,-2.114791319956515,2.096008628271369,1.5728278392365365,3.07825167326807,0.014256284733405837,1.0063241119108972,0.10573438557104829
298.0,-1.383287327676273,-2.7795660076376447,-2.1150663269908834,2.096517590379825,1.5697536621507053,3.077778411686856,0.014066323772817496,1.0062923170379354,0.1057228102619742
299.0,-1.3818810755561992,-2.7796873280906365,-2.115338113143386,2.0970241947828145,1.566679074408978,3.07730447022951,0.013876303752087333,1.0062608353302531,0.10571134893231443
300.0,-1.3804742935678116,-2.7798072193125947,-2.1156066753393783,2.097528435922213,1.563604095535929,3.076829842527136,0.013686225255881312,1.0062296668847153,0.10570000161733395
301.0,-1.379067000781045,-2.7799256743806993,-2.11587201052067,2.0980303083313894,1.5605287451036056,3.076354522195716,0.013496088869045346,1.006198811797223,0.10568876835194688
302.0,-1.3776592163104087,-2.780042686424301,-2.116134115645634,2.098529806635887,1.5574530427306228,3.0758785028358435,0.013305895176603438,1.006168270162713,0.10567764917071651
303.0,-1.3762509593140508,-2.780158248625474,-2.1163929876893133,2.099026925554108,1.5543770080812502,3.0754017780324685,0.013115644763755954,1.006138042075158,0.10566664410785502
304.0,-1.374842248992816,-2.7802723542195675,-2.1166486236435227,2.0995216598979884,1.5513006608644915,3.0749243413546297,0.012925338215877751,1.0061081276275659,0.10565575319722353
305.0,-1.373433104589294,-2.78038499649575,-2.1169010205169605,2.100014004573682,1.5482240208331552,3.0744461863551953,0.012734976118516404,1.006078526911979,0.1056449764723319
306.0,-1.3720235453868668,-2.7804961687975562,-2.1171501753353086,2.1005039545822375,1.5451471077829264,3.073967306570596,0.01254455905739043,1.006049240019475,0.10563431396633864
307.0,-1.3706135907087436,-2.780605864523425,-2.1173960851413356,2.1009915050202714,1.5420699415514234,3.0734876955205586,0.012354087618387431,1.0060202670401655,0.10562376571205087
308.0,-1.3692032599169925,-2.7807140771272376,-2.1176387469949973,2.1014766510806466,1.5389925420172534,3.0730073467078394,0.012163562387562353,1.0059916080631965,0.10561333174192414
309.0,-1.3677925724115663,-2.780820800118849,-2.1178781579735397,2.1019593880531424,1.5359149290990617,3.072526253617956,0.011972983951135635,1.0059632631767481,0.10560301208806236
310.0,-1.3663815476293177,-2.7809260270646203,-2.118114315171597,2.10243971132513,1.5328371227545707,3.072044409718916,0.011782352895491423,1.0059352324680335,0.10559280678221772
311.0,-1.364970205043015,-2.781029751587943,-2.11834721570129,2.1029176163822387,1.529759142979619,3.071561808460946,0.01159166980717577,1.0059075160232993,0.10558271585579054
312.0,-1.3635585641603465,-2.7811319673697605,-2.1185768566923224,2.1033930988090264,1.526681009807191,3.07107844327622,0.011400935272894822,1.0058801139278255,0.1055727393398293
313.0,-1.36214664452292,-2.7812326681490873,-2.1188032352920794,2.1038661542896464,1.5236027433064405,3.0705943075785824,0.01121014987951302,1.0058530262659244,0.10556287726503034
314.0,-1.3607344657052596,-2.7813318477235223,-2.1190263486657197,2.10433677860851,1.5205243635817114,3.0701093947632745,0.0110193142140513,1.0058262531209412,0.10555312966173797
315.0,-1.3593220473137921,-2.781429499949761,-2.119246193996269,2.1048049676509506,1.5174458907715502,3.0696236982066565,0.010828428863685253,1.0057997945752533,0.10554349655994422
316.0,-1.3579094089858321,-2.7815256187440975,-2.119462768484715,2.1052707174038843,1.5143673450477153,3.0691372112659283,0.010637494415743378,1.00577365071027,0.10553397798928887
317.0,-1.3564965703885588,-2.7816201980829307,-2.119676069350096,2.105734023956468,1.5112887466141804,3.0686499272788503,0.010446511457705213,1.0057478216064326,0.10552457397905927
318.0,-1.3550835512179886,-2.7817132320032574,-2.1198860938295936,2.106194883500755,1.5082101157061307,3.068161839563461,0.010255480577199567,1.0057223073432136,0.10551528455819029
319.0,-1.3536703711979428,-2.781804714603167,-2.1200928391786196,2.1066532923323504,1.5051314725889584,3.067672941417791,0.010064402362002699,1.0056971079991168,0.10550610975526423
320.0,-1.35225705007901,-2.78189464004233,-2.120296302670902,2.1071092468510613,1.5020528375572506,3.067183226119582,0.009873277400036507,1.0056722236516775,0.10549704959851071
321.0,-1.350843607637503,-2.781983002542481,-2.120496481598575,2.1075627435615476,1.4989742309337721,3.066692686925998,0.009682106279366734,1.0056476543774613,0.10548810411580661
322.0,-1.349430063674412,-2.7820697963878986,-2.120693373272261,2.108013779073968,1.4958956730684463,3.066201317073335,0.009490889588201129,1.0056234002520648,0.105479273334676
323.0,-1.3480164380143513,-2.7821550159258774,-2.120886975021157,2.108462350104625,1.4928171843373275,3.0657091097767344,0.009299627914887663,1.0055994613501142,0.10547055728228998
324.0,-1.3466027505045046,-2.7822386555671987,-2.1210772841931145,2.108908453476605,1.4897387851415747,3.0652160582298866,0.009108321847912722,1.0055758377452668,0.10546195598546666
325.0,-1.345189021013562,-2.7823207097865956,-2.1212642981547227,2.1093520861204205,1.4866604959064147,3.0647221556047413,0.008916971975899267,1.0055525295102088,0.1054534694706711
326.0,-1.3437752694306564,-2.782401173123211,-2.121448014291386,2.1097932450746435,1.4835823370801082,3.0642273950512084,0.00872557888760506,1.0055295367166568,0.10544509776401513
327.0,-1.342361515664293,-2.78248004018105,-2.1216284300074055,2.1102319274865393,1.480504329132905,3.0637317696968633,0.008534143171920812,1.0055068594353564,0.10543684089125738
328.0,-1.3409477796412759,-2.7825573056294335,-2.121805542726056,2.1106681306127015,1.4774264925560003,3.063235272646645,0.008342665417868409,1.0054844977360826,0.10542869887780312
329.0,-1.3395340813056316,-2.7826329642034366,-2.121979349889659,2.111101851819674,1.4743488478604863,3.062737896982556,0.008151146214599083,1.0054624516876391,0.10542067174870426
330.0,-1.3381204406175276,-2.78270701070433,-2.12214984895966,2.1115330885845793,1.4712714155763003,3.0622396357633592,0.007959586151391591,1.005440721357859,0.10541275952865917
331.0,-1.336706877552188,-2.7827794400000117,-2.1223170374167,2.11196183849574,1.4681942162511687,3.0617404820242724,0.007767985817650412,1.0054193068136033,0.10540496224201268
332.0,-1.3352934120988051,-2.7828502470254337,-2.122480912760691,2.112388099253298,1.4651172704495483,3.06124042877666,0.007576345802903944,1.0053982081207617,0.10539727991275599
333.0,-1.3338800642594484,-2.782919426783024,-2.122641472510881,2.11281186866983,1.4620405987515652,3.0607394690077254,0.007384666696802661,1.0053774253442525,0.10538971256452659
334.0,-1.3324668540479703,-2.7829869743431024,-2.122798714205928,2.1132331446709562,1.4589642217519498,3.060237595680198,0.0071929490891173295,1.0053569585480207,0.1053822602206082
335.0,-1.3310538014889086,-2.7830528848442904,-2.1229526354039656,2.1136519252959567,1.4558881600589713,3.05973480173202,0.007001193569737171,1.0053368077950402,0.10537492290393069
336.0,-1.3296409266163864,-2.783117153493915,-2.1231032336826683,2.1140682086983724,1.452812434293367,3.0592310800760316,0.006809400728668063,1.0053169731473124,0.10536770063706996
337.0,-1.3282282494730093,-2.7831797755684082,-2.123250506639318,2.1144819931466086,1.4497370650872707,3.0587264235996523,0.0066175711560307075,1.0052974546658657,0.10536059344224799
338.0,-1.3268157901087585,-2.7832407464136963,-2.1233944518908694,2.114893277024534,1.4466620730831368,3.0582208251645615,0.006425705442058837,1.0052782524107557,0.10535360134133262
339.0,-1.3254035685798846,-2.783300061445589,-2.123535067074007,2.1153020588320772,1.4435874789326668,3.0577142776063746,0.006233804177097377,1.0052593664410652,0.10534672435583763
340.0,-1.3239916049477969,-2.783357716150158,-2.12367234984521,2.1157083371858185,1.4405133032957298,3.0572067737343205,0.0060418679516006405,1.005240796814904,0.10533996250692257
341.0,-1.3225799192779504,-2.7834137060841098,-2.12380629788081,2.116112110819577,1.4374395668392816,3.0566983063309134,0.005849897356130511,1.005222543589408,0.10533331581539271
342.0,-1.3211685316387323,-2.7834680268751537,-2.1239369088770492,2.1165133785849983,1.4343662902362846,3.056188868151624,0.005657892981354621,1.00520460682074,0.10532678430169908
343.0,-1.319757462100345,-2.783520674222364,-2.124064180550135,2.1169121394521335,1.4312934941646231,3.055678451924547,0.005465855418044545,1.0051869865640892,0.10532036798593822
344.0,-1.31834673073369,-2.7835716438965314,-2.124188110636298,2.1173083925100187,1.428221199306021,3.0551670503500685,0.005273785257073965,1.0051696828736707,0.10531406688785228
345.0,-1.3169363576092468,-2.783620931740513,-2.124308696891841,2.1177021369672446,1.4251494263449536,3.0546546561005288,0.00508168308941686,1.0051526958027255,0.1053078810268289
346.0,-1.3155263627959533,-2.7836685336695743,-2.124425937093195,2.1180933721525337,1.4220781959675635,3.054141261819882,0.004889549506145701,1.0051360254035206,0.10530181042190112
347.0,-1.314116766360084,-2.7837144456717207,-2.1245398290369675,2.1184820975153,1.4190075288605715,3.0536268601233574,0.004697385098429613,1.0051196717273487,0.10529585509174741
348.0,-1.3127075883641262,-2.7837586638080265,-2.12465037053999,2.118868312626211,1.4159374457101883,3.053111443597113,0.004505190457532562,1.0051036348245275,0.10529001505469149
349.0,-1.3112988488656585,-2.783801184212959,-2.1247575594393666,2.119252017177754,1.4128679672010291,3.0525950047978903,0.0043129661748115425,1.0050879147444007,0.10528429032870235
350.0,-1.3098905679162236,-2.7838420030946875,-2.1248613935925222,2.1196332109847806,1.4097991140150197,3.0520775362526633,0.004120712841714748,1.0050725115353367,0.10527868093139423
351.0,-1.3084827655602054,-2.7838811167353934,-2.1249618708772404,2.1200118939850627,1.4067309068303113,3.0515590304582885,0.003928431049779759,1.0050574252447293,0.10527318688002649
352.0,-1.307075461833702,-2.7839185214915694,-2.125058989191712,2.1203880662398373,1.4036633663201892,3.051039479881149,0.003736121390631719,1.0050426559189967,0.10526780819150355
353.0,-1.3056686767634016,-2.783954213794314,-2.125152746454573,2.1207617279343505,1.4005965131519853,3.0505188769567972,0.0035437844559815185,1.0050282036035825,0.10526254488237494
354.0,-1.3042624303654549,-2.7839881901496124,-2.125243140604946,2.121132879378389,1.397530367985987,3.049997214089596,0.0033514208376239666,1.005014068342954,0.10525739696883515
355.0,-1.3028567426443511,-2.784020447138623,-2.1253301696024747,2.121501521006824,1.394464951474351,3.049474483652353,0.0031590311274359755,1.005000250180604,0.10525236446672362
356.0,-1.3014516335917912,-2.784050981417942,-2.1254138314273643,2.1218676533801353,1.3914002842600153,3.0489506779859568,0.0029666159173747366,1.0049867491590487,0.10524744739152467
357.0,-1.300047123185563,-2.7840797897198706,-2.1254941240804124,2.1222312771849343,1.388336386975611,3.0484257893990088,0.0027741757994759067,1.0049735653198293,0.10524264575836746
358.0,-1.298643231388417,-2.78410686885267,-2.1255710455830448,2.12259239323449,1.3852732802423773,3.047899810167449,0.0025817113658517772,1.0049606987035105,0.105237959582026
359.0,-1.2972399781469421,-2.784132215700811,-2.1256445939773467,2.122951002469245,1.3822109846690767,3.0473727325341833,0.0023892232086894522,1.0049481493496812,0.10523338887691902
360.0,-1.2958373833904424,-2.784155827225218,-2.1257147673260905,2.1233071059573274,1.3791495208509104,3.046844548708706,0.002196711920249046,1.004935917296954,0.10522893365710992
361.0,-1.294435467029815,-2.784177700463498,-2.1257815637127666,2.123660704895059,1.3760889093684368,3.0463152508667184,0.0020041780928618125,1.0049240025829653,0.10522459393630687
362.0,-1.2930342489564295,-2.7841978325301726,-2.1258449812416074,2.1240118006074598,1.373029170786491,3.045784831149743,0.0018116223189283947,1.0049124052443752,0.10522036972786258
363.0,-1.2916337490410081,-2.7842162206168934,-2.1259050180376136,2.124360394548748,1.369970325653105,3.0452532816647415,0.0016190451909169241,1.004901125316867,0.10521626104477436
364.0,-1.2902339871325075,-2.7842328619926544,-2.125961672246578,2.1247064883028366,1.366912394498432,3.04472059448372,0.0014264473013612692,1.0048901628351474,0.10521226789968408
365.0,-1.2888349830570025,-2.784247754003993,-2.126014942035106,2.12505008358382,1.3638553978336707,3.044186761643338,0.0012338292428591526,1.0048795178329468,0.10520839030487812
366.0,-1.2874367566165712,-2.78426089407519,-2.1260648255906363,2.125391182236467,1.3607993561499923,3.043651775144511,0.001041191608070374,1.0048691903430182,0.1052046282722873
367.0,-1.2860393275881818,-2.784272279708452,-2.1261113211214577,2.1257297862366955,1.3577442899174705,3.0431156269520114,0.0008485349897149486,1.004859180397138,0.10520098181348689
368.0,-1.284642715722583,-2.784281908484095,-2.126154426856728,2.1260658976920572,1.3546902195840154,3.0425783089940652,0.0006558599805713229,1.0048494880261054,0.10519745093969657
369.0,-1.2832469407431943,-2.7842897780607143,-2.1261941410464864,2.1263995188422067,1.3516371655743047,3.0420398131619444,0.0004631671734745017,1.0048401132597424,0.10519403566178034
370.0,-1.281852022345002,-2.784295886175349,-2.126230461961668,2.1267306520593716,1.3485851482887274,3.041500131309557,0.00027045716131428223,1.0048310561268943,0.10519073599024656
371.0,-1.280457980193453,-2.7843002306436366,-2.126263387894116,2.127059299848817,1.3455341881023182,3.0409592552530365,7.773053703337158e-05,1.0048223166554282,0.10518755193524788
372.0,-1.2790648339233566,-2.784302809359962,-2.1262929171565887,2.1273854648493034,1.3424843053637068,3.0404171767703208,-0.000115012106374387,1.0048138948722345,0.10518448350658119
373.0,-1.2776726031377856,-2.784303620297596,-2.126319048082771,2.1277091498335454,1.3394355203940629,3.0398738876007334,-0.00030777017586587976,1.0048057908032257,0.10518153071368765
374.0,-1.2762813074069819,-2.784302661508826,-2.1263417790272783,2.1280303577086612,1.3363878534860483,3.0393293794445606,-0.0005005430783505118,1.0047980044733373,0.1051786935656526
375.0,-1.2748909662672647,-2.7842999311250822,-2.1263611083656606,2.1283490915166174,1.3333413249027708,3.038783643962621,-0.0006933302206920712,1.0047905359065266,0.10517597207120555
376.0,-1.2735015992199428,-2.784295427357047,-2.126377034494408,2.1286653544346716,1.3302959548767443,3.038236672775837,-0.0008861310097105024,1.0047833851257733,0.10517336623872019
377.0,-1.2721132257302294,-2.784289148494767,-2.12638955583095,2.128979149775814,1.3272517636088494,3.0376884574647978,-0.0010789448521837958,1.0047765521530794,0.1051708760762143
378.0,-1.2707258652261613,-2.784281092907748,-2.1263986708136526,2.129290480989194,1.3242087712673023,3.0371389895693195,-0.0012717711548497425,1.0047700370094692,0.10516850159134977
379.0,-1.269339537097522,-2.7842712590450467,-2.1264043779018227,2.1295993516605534,1.3211669979866243,3.0365882605880046,-0.001464609324407827,1.0047638397149887,0.10516624279143261
380.0,-1.267954260694768,-2.7842596454353505,-2.1264066755756956,2.129905765512648,1.3181264638666184,3.036036261977794,-0.001657458767520993,1.0047579602887062,0.10516409968341278
381.0,-1.2665700553279597,-2.784246250687051,-2.1264055623364344,2.1302097264056687,1.315087188971349,3.0354829851535166,-0.0018503188908175253,1.004752398748712,0.10516207227388438
382.0,-1.2651869402656974,-2.784231073488311,-2.126401036706119,2.1305112383376557,1.312049193328128,3.0349284214874346,-0.0020431891008928157,1.004747155112118,0.10516016056908546
383.0,-1.2638049347340592,-2.784214112607118,-2.1263930972277407,2.130810305444912,1.3090124969265027,3.034372562308785,-0.002236068804311254,1.0047422293950585,0.10515836457489808
384.0,-1.2624240579155461,-2.7841953668913315,-2.1263817424651874,2.1311069320024054,1.3059771197172532,3.033815398903317,-0.0024289574076079867,1.004737621612689,0.10515668429684828
385.0,-1.261044328948031,-2.7841748352687268,-2.126366971003231,2.1314011224241742,1.3029430816113907,3.0332569225128254,-0.002621854317290809,1.004733331779187,0.10515511974010605
386.0,-1.2596657669237123,-2.784152516747019,-2.126348781447513,2.131692881263723,1.2999104024791657,3.0326971243346783,-0.002814758939841928,1.004729359907752,0.1051536709094853
387.0,-1.258288390888071,-2.7841284104138917,-2.1263271724245287,2.1319822132144184,1.2968791021490764,3.032135995521344,-0.003007670681719847,1.0047257060106047,0.10515233780944389
388.0,-1.2569122198388374,-2.7841025154370054,-2.126302142581605,2.132269123109872,1.2938492004068887,3.0315735271799094,-0.0032005889493611378,1.0047223700989878,0.1051511204440836
389.0,-1.255537272724956,-2.784074831064007,-2.1262736905868866,2.132553615924335,1.2908207169946553,3.031009710371598,-0.003393513149182321,1.0047193521831652,0.10515001881715011
390.0,-1.254163568445565,-2.7840453566225207,-2.1262418151293074,2.132835696773069,1.2877936716097493,3.030444536111282,-0.0035864426875816366,1.004716652272423,0.10514903293203295
391.0,-1.252791125848971,-2.7840140915201426,-2.1262065149185707,2.133115370912729,1.2847680839038949,3.0298779953669865,-0.003779376970940924,1.0047142703750678,0.10514816279176559
392.0,-1.251419963731639,-2.7839810352444143,-2.1261677886851196,2.133392643741732,1.2817439734822114,3.029310079059396,-0.003972315405627399,1.004712206498429,0.10514740839902528
393.0,-1.2500501008371818,-2.783946187362795,-2.126125635180113,2.1336675208006235,1.2787213599022595,3.028740778061352,-0.00416525739799553,1.0047104606488568,0.10514676975613324
394.0,-1.2486815558553572,-2.783909547522625,-2.126080053175395,2.133940007772447,1.2757002626730967,3.028170083197344,-0.004358202354388812,1.0047090328317227,0.10514624686505447
395.0,-1.247314347421073,-2.7838711154510762,-2.1260310414634627,2.1342101104830973,1.2726807012543369,3.027597985243003,-0.004551149681141646,1.0047079230514202,0.10514583972739783
396.0,-1.2459484941133956,-2.7838308909550995,-2.125978598857435,2.134477834901682,1.26966269505522,3.027024474924583,-0.004744098784581114,1.0047071313113636,0.10514554834441601
397.0,-1.2445840144545668,-2.783788873921358,-2.1259227241910135,2.1347431871408653,1.2666462634336855,3.0264495429184426,-0.004937049071028859,1.0047066576139891,0.1051453727170056
398.0,-1.243220926909026,-2.783745064316155,-2.1258634163184515,2.135006173457225,1.2636314256954546,3.025873179850516,-0.0051299999468028545,1.0047065019607544,0.10514531284570694
399.0,-1.2418592498824401,-2.783699462185355,-2.12580067411451,2.135266800251589,1.2606182010931206,3.025295376295789,-0.005322950818219287,1.0047066643521383,0.10514536873070426
400.0,-1.2404990017207396,-2.7836520676542875,-2.125734496474421,2.135525074069377,1.2576066088252444,3.0247161227777597,-0.005515901091594342,1.004707144787641,0.10514554037182564
401.0,-1.2391402007091603,-2.7836028809276536,-2.1256648823138433,2.1357810016009378,1.254596668035459,3.0241354097678985,-0.005708850173246047,1.0047079432657844,0.10514582776854292
402.0,-1.2377828650712948,-2.783551902289417,-2.1255918305688177,2.1360345896818806,1.2515883978115816,3.023553227685107,-0.0059017974694961,1.0047090597841115,0.10514623091997183
403.0,-1.2364270129681492,-2.7834991321026865,-2.125515340195722,2.136285845293404,1.248581817184734,3.0229695668951626,-0.006094742386671688,1.0047104943391874,0.10514674982487193
404.0,-1.2350726624972062,-2.7834445708095914,-2.1254354101712223,2.1365347755626187,1.2455769451284688,3.0223844177101684,-0.00628768433110732,1.0047122469265977,0.10514738448164662
405.0,-1.2337198316914988,-2.783388218931148,-2.125352039492225,2.136781387762871,1.242573800557906,3.0217977703879892,-0.006480622709146653,1.00471431754095,0.10514813488834317
406.0,-1.2323685385186869,-2.783330077067116,-2.1252652271758237,2.1370256893140605,1.2395724023288759,3.0212096151316876,-0.006673556927144315,1.0047167061758735,0.10514900104265265
407.0,-1.2310188008801477,-2.7832701458958513,-2.125174972259243,2.137267687782952,1.2365727692370747,3.020619942088951,-0.006866486391467737,1.0047194128240187,0.10514998294191003
408.0,-1.2296706366100665,-2.783208426174142,-2.1250812737997875,2.1375073908834876,1.2335749200172197,3.0200287413515174,-0.007059410508498973,1.0047224374770574,0.10515108058309411
409.0,-1.2283240634745405,-2.7831449187370403,-2.124984130874784,2.1377448064770945,1.2305788733422225,3.0194360029545932,-0.00725232868463653,1.004725780125683,0.10515229396282766
410.0,-1.2269790991706906,-2.783079624497689,-2.124883542581517,2.1379799425729886,1.227584647822366,3.018841716876263,-0.0074452403262972,1.0047294407596112,0.10515362307737722
411.0,-1.2256357613257765,-2.7830125444471325,-2.124779508037177,2.138212807328475,1.2245922620044896,3.0182458730368986,-0.007638144839917872,1.004733419367578,0.10515506792265329
412.0,-1.2242940674963267,-2.7829436796541236,-2.1246720263787857,2.138443409049245,1.221601734371188,3.017648461298562,-0.007831041631957372,1.0047377159373425,0.1051566284942103
413.0,-1.2229540351672705,-2.7828730312649212,-2.1245610967631423,2.138671756189672,1.2186130833400115,3.017049471464395,-0.008023930108898285,1.0047423304556844,0.10515830478724657
414.0,-1.2216156817510817,-2.7828006005030774,-2.1244467183667517,2.138897857353104,1.2156263272626822,3.016448893278016,-0.00821680967724878,1.004747262908405,0.10516009679660437
415.0,-1.2202790245869322,-2.7827263886692197,-2.124328890385753,2.13912172129215,1.2126414844243176,3.015846716422898,-0.008409679743544434,1.0047525132803288,0.10516200451676994
416.0,-1.2189440809398486,-2.7826503971408205,-2.124207612035856,2.1393433569089653,1.209658573042661,3.01524293052175,-0.008602539714350063,1.0047580815553,0.10516402794187345
417.0,-1.2176108679998843,-2.78257262737196,-2.1240828825522624,2.139562773255538,1.206677611267324,3.0146375251358863,-0.008795388996261543,1.0047639677161868,0.10516616706568913
418.0,-1.2162794028812953,-2.782493080893083,-2.123954701189597,2.139779979533966,1.2036986171790385,3.0140304897645946,-0.008988226995907643,1.0047701717448774,0.10516842188163517
419.0,-1.2149497026217273,-2.782411759310741,-2.123823067221825,2.139994985096737,1.2007216087889165,3.013421813844493,-0.009181053119951842,1.0047766936222835,0.1051707923827738
420.0,-1.2136217841814103,-2.782328664307334,-2.123687979942182,2.1402077994470026,1.1977466040377216,3.0128114867488844,-0.009373866775094157,1.0047835333283377,0.10517327856181133
421.0,-1.2122956644423641,-2.7822437976408354,-2.123549438663087,2.1404184322388513,1.1947736207951496,3.012199497787105,-0.009566667368072972,1.0047906908419955,0.10517588041109809
422.0,-1.2109713602076115,-2.782157161144517,-2.123407442716066,2.140626893277582,1.1918026768591188,3.0115858362038628,-0.009759454305666868,1.004798166141234,0.10517859792262856
423.0,-1.2096488882004002,-2.782068756726656,-2.1232619914516637,2.1408331925199646,1.1888337899550698,3.010970491178572,-0.009952226994696431,1.0048059592030527,0.10518143108804132
424.0,-1.2083282650634362,-2.781978586370245,-2.1231130842393626,2.141037340074516,1.1858669777352784,3.010353451824682,-0.010144984842026096,1.0048140700034733,0.10518437989861909
425.0,-1.2070095073581242,-2.781886652132682,-2.122960720467491,2.1412393462017585,1.1829022577781747,3.009734707188996,-0.010337727254565958,1.0048224985175405,0.10518744434528882
426.0,-1.205692631563819,-2.7817929561454613,-2.1228048995431386,2.141439221314482,1.179939647587675,3.0091142462509888,-0.010530453639273608,1.0048312447193202,0.10519062441862156
427.0,-1.2043776540770863,-2.7816975006138525,-2.122645620892061,2.141636975978008,1.176979164592524,3.008492057922111,-0.010723163403155947,1.0048403085819018,0.1051939201088327
428.0,-1.2030645912109719,-2.7816002878165684,-2.122482883958589,2.141832620910445,1.1740208261456468,3.007868131045091,-0.010915855953271023,1.004849690077397,0.10519733140578183
429.0,-1.201753459194282,-2.781501320105432,-2.122316688205533,2.1420261669829475,1.1710646495235117,3.0072424543932295,-0.011108530696729842,1.0048593891769406,0.10520085829897285
430.0,-1.200444274170872,-2.781400599905027,-2.1221470331140875,2.142217625219971,1.1681106519255031,3.0066150166696852,-0.011301187040698202,1.0048694058506893,0.10520450077755397
431.0,-1.1991370521989475,-2.781298129712347,-2.1219739181837314,2.1424070067995262,1.1651588504733075,3.0059858065067555,-0.011493824392398513,1.004879740067823,0.10520825883031781
432.0,-1.1978318092503715,-2.7811939120964344,-2.121797342932126,2.1425943230534346,1.1622092622103066,3.0053548124651472,-0.011686442159111618,1.0048903917965453,0.10521213244570131
433.0,-1.196528561209985,-2.7810879496980068,-2.1216173068950153,2.1427795854675744,1.1592619041009855,3.0047220230332448,-0.011879039748178631,1.0049013610040818,0.1052161216117859
434.0,-1.1952273238749351,-2.780980245229083,-2.1214338096261223,2.142962805682139,1.1563167930303468,3.0040874266263646,-0.01207161656700274,1.0049126476566819,0.10522022631629745
435.0,-1.1939281129540156,-2.780870801472598,-2.121246850697039,2.143143995491882,1.1533739458033425,3.003451011586009,-0.01226417202305104,1.004924251719618,0.10522444654660634
436.0,-1.192630944067015,-2.780759621282006,-2.121056429697122,2.1433231668463675,1.1504333791443093,3.0028127661791064,-0.012456705523856363,1.0049361731571862,0.10522878228972747
437.0,-1.1913358327440775,-2.7806467075808823,-2.120862546233383,2.1435003318502193,1.1474951096964212,3.002172678597248,-0.012649216477019089,1.0049484119327055,0.10523323353232038
438.0,-1.1900427944250715,-2.780532063362513,-2.120665199930374,2.143675502763368,1.144559154021151,3.0015307369559157,-0.012841704290208977,1.004960968008519,0.10523780026068917
439.0,-1.1887518444589709,-2.780415691689478,-2.1204643904300755,2.1438486920013005,1.1416255285977424,3.000886929293701,-0.013034168371166981,1.0049738413459934,0.10524248246078263
440.0,-1.187462998103245,-2.7802975956932263,-2.1202601173917834,2.144019912135304,1.1386942498226957,3.000241243571518,-0.013226608127707082,1.0049870319055192,0.10524728011819429
441.0,-1.1861762705232592,-2.7801777785736443,-2.1200523804919893,2.144189175892718,1.1357653340092608,2.9995936676718062,-0.0134190229677181,1.0050005396465107,0.10525219321816237
442.0,-1.1848916767916877,-2.780056243598616,-2.119841179424261,2.1443564961571773,1.1328387973869485,2.998944189397728,-0.013611412299165515,1.0050143645274066,0.10525722174556995
443.0,-1.1836092318879337,-2.7799329941035746,-2.119626513899125,2.1445218859688606,1.1299146561010451,2.998292796472356,-0.013803775530093307,1.0050285065056692,0.10526236568494492
444.0,-1.182328950697562,-2.779808033491048,-2.11940838364394,2.14468535852474,1.126992926212146,2.9976394765378505,-0.013996112068625746,1.005042965537786,0.10526762502046007
445.0,-1.1810508480117436,-2.779681365230198,-2.119186788402776,2.144846927178828,1.1240736236956959,2.9969842171546333,-0.014188421322969245,1.0050577415792683,0.10527299973593313
446.0,-1.1797749385267071,-2.779552992856347,-2.118961727936285,2.1450066054424237,1.1211567644415437,2.9963270058005507,-0.014380702701414165,1.0050728345846522,0.10527848981482683
447.0,-1.1785012368432044,-2.779422919970503,-2.118733202021577,2.1451644069843656,1.1182423642535066,2.995667829870025,-0.014572955612336624,1.0050882445074985,0.10528409524024895
448.0,-1.1772297574659842,-2.7792911502388757,-2.1185012104520835,2.145320345631281,1.115330438848949,2.9950066766732006,-0.014765179464200355,1.005103971300393,0.10528981599495234
449.0,-1.1759605148032792,-2.779157687392383,-2.1182657530374343,2.145474435367837,1.1124210038583702,2.9943435334350834,-0.014957373665558472,1.0051200149149468,0.10529565206133501
450.0,-1.1746935231663014,-2.779022535226153,-2.118026829603317,2.145626690336991,1.1095140748250076,2.993678387294667,-0.015149537625055349,1.0051363753017954,0.10530160342144015
451.0,-1.173428796768748,-2.7788856975990166,-2.117784439991346,2.1457771248402477,1.1066096672044459,2.9930112253040497,-0.015341670751428393,1.0051530524106003,0.10530767005695627
452.0,-1.1721663497263217,-2.778747178432996,-2.117538584058924,2.145925753337914,1.1037077963642457,2.992342034427547,-0.015533772453509884,1.0051700461900483,0.10531385194921712
453.0,-1.1709061960562575,-2.778606981712784,-2.1172892616791033,2.146072590449351,1.1008084775835787,2.9916708015407916,-0.015725842140228784,1.0051873565878517,0.10532014907920187
454.0,-1.1696483496768622,-2.7784651114852146,-2.1170364727404465,2.1462176509532407,1.0979117260528766,2.990997513429824,-0.015917879220612576,1.0052049835507488,0.10532656142753508
455.0,-1.168392824407065,-2.7783215718587324,-2.116780217146881,2.146360949787839,1.095017556873492,2.990322156790175,-0.016109883103789056,1.0052229270245039,0.10533308897448682
456.0,-1.167139633965979,-2.778176367002848,-2.116520494817559,2.1465025020512436,1.0921259850573717,2.9896447182259376,-0.016301853198988168,1.0052411869539073,0.10533973169997274
457.0,-1.165888791972472,-2.7780295011475924,-2.1162573056867093,2.146642323001656,1.0892370255267423,2.98896518424883,-0.016493788915543824,1.0052597632827758,0.10534648958355403
458.0,-1.1646403119447504,-2.777880978582961,-2.1159906497034933,2.1467804280576512,1.0863506931138065,2.9882835412772497,-0.016685689662895697,1.0052786559539522,0.10535336260443762
459.0,-1.1633942072999517,-2.777730803658355,-2.115720526831848,2.146916832798446,1.0834670025604534,2.9875997756353145,-0.016877554850591073,1.0052978649093065,0.10536035074147612
460.0,-1.1621504913537497,-2.777578980782009,-2.115446937050344,2.147051552964173,1.0805859685179788,2.9869138735518983,-0.017069383888286636,1.0053173900897354,0.10536745397316802
461.0,-1.1609091773199705,-2.7774255144204196,-2.1151698803520285,2.1471846044561556,1.0777076055468213,2.9862258211596515,-0.017261176185750314,1.0053372314351623,0.1053746722776576
462.0,-1.1596702783102173,-2.7772704090977647,-2.114889356744271,2.1473160033371896,1.074831928116306,2.9855356044940153,-0.017452931152863067,1.0053573888845384,0.10538200563273513
463.0,-1.1584338073335085,-2.7771136693953142,-2.1146053662486066,2.1474457658318227,1.0719589506044036,2.9848432094922237,-0.01764464819962072,1.0053778623758418,0.10538945401583685
464.0,-1.1571997772959262,-2.7769552999508367,-2.1143179089005817,2.1475739083266396,1.0690886872975018,2.9841486219922966,-0.01783632673613578,1.0053986518460782,0.10539701740404508
465.0,-1.1559682010002736,-2.776795305458001,-2.1140269847495916,2.147700447370558,1.066221152390187,2.9834518277320194,-0.01802796617263923,1.0054197572312815,0.10540469577408834
466.0,-1.1547390911457465,-2.7766336906657667,-2.11373259385872,2.1478253996751127,1.0633563599850397,2.982752812347916,-0.01821956591948237,1.005441178466513,0.10541248910234127
467.0,-1.1535124603276121,-2.776470460377775,-2.1134347363045785,2.147948782114763,1.0604943240924407,2.9820515613742065,-0.018411125387138617,1.0054629154858623,0.10542039736482489
468.0,-1.1522883210369026,-2.776305619451726,-2.113133412177137,2.1480706117271873,1.0576350586303933,2.9813480602417552,-0.01860264398620532,1.005484968222448,0.10542842053720651
469.0,-1.1510666856601153,-2.776139172798759,-2.1128286215795637,2.148190905713592,1.054778577424352,2.9806422942770125,-0.018794121127405583,1.0055073366084166,0.10543655859479993
470.0,-1.149847566478928,-2.775971125382816,-2.112520364628054,2.148309681439023,1.0519248942070702,2.9799342487009377,-0.018985556221590056,1.0055300205749436,0.10544481151256543
471.0,-1.1486309756699205,-2.7758014822200097,-2.1122086414516645,2.148426956432682,1.0490740226184532,2.9792239086279158,-0.01917694867973877,1.0055530200522331,0.10545317926510991
472.0,-1.1474169253043114,-2.775630248377978,-2.111893452192136,2.148542748388246,1.046225976205429,2.9785112590646587,-0.01936829791296295,1.0055763349695195,0.10546166182668693
473.0,-1.146205427347702,-2.775457428975237,-2.1115747970037275,2.148657075164195,1.043380768421828,2.9777962849091,-0.019559603332506805,1.0055999652550656,0.10547025917119676
474.0,-1.144996493659834,-2.7752830291805246,-2.1112526760530415,2.148769954784141,1.0405384126282786,2.9770789709492744,-0.01975086434974935,1.005623910836164,0.10547897127218656
475.0,-1.1437901359943552,-2.775107054212145,-2.110927089518843,2.1488814054371685,1.0376989220921113,2.976359301862184,-0.01994208037620624,1.0056481716391377,0.10548779810285036
476.0,-1.1425863659985973,-2.7749295093372983,-2.1105980375918882,2.148991445478176,1.0348623099872747,2.9756372622126563,-0.020133250823531536,1.0056727475893392,0.10549673963602918
477.0,-1.141385195213365,-2.7747503998714125,-2.1102655204747442,2.149100093428227,1.0320285893942696,2.974912836452187,-0.020324375103519556,1.005697638611152,0.10550579584421116
478.0,-1.1401866350727334,-2.7745697311774653,-2.1099295383816075,2.1492073679749013,1.0291977733000885,2.97418600891777,-0.020515452628106667,1.0057228446279896,0.10551496669953153
479.0,-1.1389906969038595,-2.774387508665303,-2.109590091538125,2.1493132879726624,1.0263698745981722,2.973456763830721,-0.02070648280937309,1.005748365562296,0.10552425217377284
480.0,-1.1377973919268003,-2.774203737790954,-2.1092471801812054,2.1494178724432236,1.0235449060883743,2.972725085295477,-0.020897465059544717,1.0057742013355477,0.10553365223836492
481.0,-1.1366067312543444,-2.774018424055933,-2.108900804558843,2.149521140575922,1.0207228804769424,2.9719909572983947,-0.02108839879099492,1.0058003518682508,0.10554316686438503
482.0,-1.1354187258918524,-2.7738315730065453,-2.1085509649299246,2.149623111728106,1.0179038103765081,2.9712543637065285,-0.021279283416246363,1.0058268170799436,0.10555279602255796
483.0,-1.13423338673711,-2.7736431902331855,-2.1081976615640423,2.149723805425521,1.0150877083060923,2.970515288266397,-0.02147011834797278,1.0058535968891966,0.1055625396832561
484.0,-1.133050724580187,-2.773453281369624,-2.107840894741309,2.1498232413627103,1.012274586691118,2.969773714602739,-0.021660902999000836,1.0058806912136118,0.10557239781649949
485.0,-1.1318707501033132,-2.7732618520922996,-2.1074806647521642,2.1499214394034194,1.009464457863441,2.9690296262172513,-0.021851636782311883,1.0059080999698236,0.10558237039195603
486.0,-1.1306934738807581,-2.7730689081195963,-2.1071169718971814,2.150018419581009,1.006657334061389,2.968283006487317,-0.022042319111043786,1.005935823073499,0.1055924573789414
487.0,-1.129518906378725,-2.772874455211123,-2.10674981648688,2.1501142020988797,1.003853227429811,2.9675338386647168,-0.022232949398492737,1.0059638604393375,0.10560265874641933
488.0,-1.1283470579552535,-2.772678499166984,-2.106379198841524,2.1502088073308996,1.0010521500201457,2.966782105874329,-0.022423527058115053,1.005992211981072,0.10561297446300158
489.0,-1.127177938860134,-2.7724810458270475,-2.106005119290929,2.1503022558218454,0.998254113790495,2.966027791112813,-0.02261405150352896,1.006020877611469,0.1056234044969481
490.0,-1.1260115592348297,-2.772282101070206,-2.1056275781742664,2.1503945682878522,0.9954591306057127,2.9652708772472804,-0.022804522148516453,1.0060498572423278,0.10563394881616704
491.0,-1.1248479291124107,-2.772081670813635,-2.1052465758398613,2.150485765616865,0.9926672122375041,2.964511347013949,-0.02299493840702503,1.0060791507844822,0.10564460738821499
492.0,-1.1236870584174978,-2.771879761012046,-2.1048621126449953,2.150575868869113,0.9898783703645404,2.9637491830167866,-0.02318529969316955,1.0061087581477997,0.10565538018029694
493.0,-1.1225289569662156,-2.771676377656934,-2.104474188955703,2.1506648992775816,0.9870926165725801,2.9629843677261336,-0.023375605421233996,1.0061386792411826,0.10566626715926647
494.0,-1.1213736344661553,-2.7714715267758234,-2.1040828051465694,2.150752878248502,0.9843099623546064,2.9622168834773177,-0.02356585500567331,1.0061689139725678,0.10567726829162581
495.0,-1.1202211005163494,-2.7712652144315046,-2.1036879616005293,2.150839827361846,0.9815304191109746,2.9614467124692454,-0.02375604786111518,1.0061994622489272,0.10568838354352597
496.0,-1.1190713646072532,-2.7710574467212705,-2.1032896587086585,2.150925768371833,0.9787539981495733,2.9606738367629872,-0.023946183402361838,1.0062303239762673,0.10569961288076682
497.0,-1.1179244361207386,-2.7708482297761483,-2.1028878968699667,2.151010723207451,0.9759807106859936,2.959898238280337,-0.02413626104439186,1.0062614990596315,0.10571095626879717
498.0,-1.1167803243300958,-2.770637569760123,-2.1024826764911935,2.151094713972982,0.9732105678437141,2.9591198988023657,-0.02432628020236198,1.0062929874030977,0.10572241367271498
499.0,-1.1156390384000459,-2.7704254728693614,-2.1020739979865986,2.1511777629485462,0.970443580654296,2.9583387999679505,-0.02451624029160886,1.0063247889097806,0.10573398505726736
500.0,-1.1145005873867617,-2.770211945331431,-2.1016618617777474,2.1512598925906503,0.9676797600575882,2.957554923272293,-0.024706140727650944,1.0063569034818316,0.1057456703868507
501.0,-1.1133649802379,-2.7699969934045114,-2.1012462682933077,2.1513411255327526,0.9649191169019484,2.9567682500654184,-0.024895980926190175,1.0063893310204381,0.10575746962551083
502.0,-1.1122322257926407,-2.7697806233766054,-2.1008272179688308,2.151421484585838,0.9621616619444707,2.955978761550662,-0.025085760303113883,1.0064220714258252,0.1057693827369431
503.0,-1.111102332781737,-2.7695628415647437,-2.1004047112465414,2.151500992739007,0.9594074058512295,2.955186438783131,-0.02527547827449651,1.0064551245972548,0.10578140968449244
504.0,-1.109975309827575,-2.7693436543141883,-2.099978748575122,2.151579673160075,0.9566563591975302,2.954391262668157,-0.02546513425660144,1.0064884904330271,0.10579355043115357
505.0,-1.1088511654442412,-2.7691230679976284,-2.0995493304094976,2.151657549196184,0.9539085324681765,2.9535932139597296,-0.025654727665882792,1.0065221688304797,0.10580580493957106
506.0,-1.1077299080376,-2.768901089014376,-2.0991164572106205,2.1517346443744323,0.9511639360577454,2.952792273258908,-0.02584425791898721,1.0065561596859887,0.10581817317203943
507.0,-1.1066115459053805,-2.7686777237895543,-2.098680129445249,2.1518109824025116,0.948422580270874,2.9519884210122194,-0.026033724432755673,1.0065904628949691,0.1058306550905033
508.0,-1.1054960872372712,-2.7684529787732846,-2.0982403475857367,2.151886587169361,0.9456844753225608,2.9511816375100404,-0.02622312662422526,1.006625078351874,0.10584325065655747
509.0,-1.104383540115025,-2.7682268604398708,-2.097797112109802,2.1519614827458353,0.9429496313384736,2.9503719028849535,-0.02641246391063098,1.006660005950197,0.1058559598314471
510.0,-1.1032739125125721,-2.767999375286974,-2.097350423500316,2.152035693385383,0.9402180583552736,2.9495591971100956,-0.026601735709407524,1.00669524558247,0.10586878257606777
511.0,-1.1021672122961415,-2.767770529834792,-2.0969002822450804,2.1521092435247464,0.9374897663209459,2.948743499997478,-0.026790941438191093,1.0067307971402657,0.10588171885096564
512.0,-1.1010634472243912,-2.767540330625228,-2.096446688836602,2.152182157784669,0.934764765095146,2.9479247911962916,-0.02698008051482118,1.0067666605141965,0.10589476861633751
513.0,-1.099962624948549,-2.767308784221061,-2.0959896437718695,2.152254460970625,0.9320430644495532,2.947103050191195,-0.02716915235734235,1.006802835593916,0.10590793183203104
514.0,-1.0988647530125575,-2.7670758972051064,-2.095529147552135,2.152326178073555,0.9293246740682378,2.9462782563005816,-0.027358156384006033,1.0068393222681182,0.10592120845754477
515.0,-1.0977698388532326,-2.766841676179383,-2.0950652006826838,2.15239733427063,0.9266096035480397,2.945450388674825,-0.027547092013272344,1.0068761204245384,0.1059345984520283
516.0,-1.0966778898004264,-2.766606127764265,-2.0945978036726096,2.1524679549260153,0.9238978623989547,2.9446194262945085,-0.02773595866381181,1.006913229949954,0.10594810177428246
517.0,-1.0955889130772003,-2.766369258597639,-2.094126957034592,2.152538065591669,0.921189460044537,2.943785347968631,-0.027924755754507233,1.0069506507301835,0.1059617183827593
518.0,-1.0945029158000052,-2.7661310753340533,-2.093652661284666,2.1526076920081394,0.9184844058223064,2.9429481323327957,-0.028113482704455416,1.0069883826500885,0.1059754482355624
519.0,-1.0934199049788718,-2.7658915846438683,-2.0931749169419964,2.152676860105395,0.9157827089841722,2.942107757847377,-0.028302138932968984,1.0070264255935728,0.10598929129044685
520.0,-1.092339887517606,-2.765650793212396,-2.0926937245286457,2.152745596003656,0.9130843786968648,2.941264202795663,-0.028490723859578168,1.0070647794435836,0.1060032475048194
521.0,-1.0912628702139944,-2.7654087077390455,-2.092209084569351,2.152813926014259,0.9103894240423779,2.940417445281985,-0.02867923690403258,1.0071034440821112,0.1060173168357387
522.0,-1.0901888597600167,-2.7651653349364578,-2.091720997591292,2.1528818766405293,0.9076978540184231,2.9395674632298183,-0.028867677486302996,1.0071424193901897,0.10603149923991528
523.0,-1.0891178627420668,-2.7649206815296403,-2.0912294641238587,2.152949474578671,0.9050096775388948,2.9387142343798645,-0.029056045026583172,1.0071817052478973,0.10604579467371182
524.0,-1.0880498856411802,-2.7646747542551005,-2.090734484698425,2.1530167467186834,0.9023249034343449,2.9378577362881115,-0.02924433894529157,1.0072213015343567,0.10606020309314321
525.0,-1.0869849348332692,-2.7644275598599704,-2.090236059848114,2.153083720145289,0.899643540452468,2.936997946323872,-0.0294325586630732,1.0072612081277357,0.10607472445387664
526.0,-1.0859230165893674,-2.7641791051011335,-2.0897341901075697,2.1531504221388817,0.8969655972585986,2.936134841667798,-0.029620703600801376,1.0073014249052468,0.10608935871123187
527.0,-1.0848641370758783,-2.7639293967443477,-2.0892288760127227,2.1532168801765006,0.8942910824362174,2.935268399309874,-0.029808773179579504,1.0073419517431486,0.10610410582018129
528.0,-1.0838083023548353,-2.7636784415633615,-2.08872011810056,2.153283121932812,0.8916200044874704,2.9343985960473864,-0.029996766820742836,1.0073827885167452,0.10611896573534998
529.0,-1.0827555183841644,-2.7634262463390313,-2.0882079169088916,2.1533491752811242,0.8889523718336936,2.933525408482871,-0.030184683945860297,1.0074239351003875,0.10613393841101604
530.0,-1.0817057910179588,-2.763172817858434,-2.087692272976115,2.1534150682944135,0.8862881928159545,2.9326488130220345,-0.030372523976736232,1.0074653913674732,0.1061490238011105
531.0,-1.0806591260067548,-2.7629181629139747,-2.087173186840988,2.1534808292463756,0.8836274756955964,2.931768785871654,-0.03056028633541221,1.0075071571904468,0.10616422185921773
532.0,-1.0796155289978224,-2.7626622883024963,-2.0866506590423897,2.153546486612494,0.8809702286548043,2.930885303037452,-0.030747970444168753,1.0075492324408004,0.10617953253857527
533.0,-1.0785750055354528,-2.7624052008243796,-2.0861246901190915,2.1536120690711376,0.8783164597971649,2.929998340321946,-0.03093557572552718,1.0075916169890744,0.1061949557920743
534.0,-1.077537561061263,-2.762146907282647,-2.08559528060952,2.1536776055046727,0.8756661771482541,2.929107873322275,-0.03112310160225134,1.007634310704857,0.1062104915722595
535.0,-1.0765032009144988,-2.7618874144820564,-2.0850624310515267,2.153743125000597,0.8730193886562213,2.928213877428001,-0.0313105474973494,1.0076773134567856,0.10622613983132939
536.0,-1.0754719303323494,-2.7616267292282006,-2.0845261419821504,2.1538086568527044,0.8703761021923906,2.927316327818879,-0.03149791283407561,1.0077206251125463,0.10624190052113637
537.0,-1.0744437544502663,-2.7613648583265933,-2.0839864139373865,2.153874230562261,0.8677363255518713,2.9264151994626135,-0.0316851970359321,1.0077642455388751,0.10625777359318694
538.0,-1.0734186783022883,-2.761101808581763,-2.083443247451953,2.1539398758392174,0.8651000664541759,2.925510467112575,-0.03187239952667064,1.007808174601558,0.1062737589986418
539.0,-1.0723967068213751,-2.7608375867963324,-2.082896643059057,2.154005622603431,0.8624673325438512,2.924602105305501,-0.03205951973029441,1.0078524121654309,0.106289856688316
540.0,-1.0713778448397437,-2.7605721997701083,-2.0823466012901592,2.154071500985924,0.8598381313911175,2.9236900883591646,-0.03224655707105977,1.0078969580943808,0.10630606661267913
541.0,-1.070362097089214,-2.7603056542991555,-2.081793122674745,2.154137541330158,0.8572124704925175,2.922774390370017,-0.032433510973478054,1.0079418122513462,0.10632238872185543
542.0,-1.0693494682015587,-2.760037957174875,-2.081236207740088,2.1542037741933386,0.854590357271577,2.921854985210806,-0.03262038086231731,1.0079869744983165,0.10633882296562397
543.0,-1.0683399627088592,-2.7597691151830794,-2.080675857011019,2.15427023034774,0.8519717990794727,2.9209318465281586,-0.032807166162604096,1.0080324446963338,0.1063553692934188
544.0,-1.0673335850438674,-2.759499135103061,-2.0801120710096934,2.1543369407820605,0.8493568031957123,2.920004947740145,-0.03299386629962523,1.0080782227054925,0.10637202765432911
545.0,-1.066330339540374,-2.759228023706662,-2.079544850255361,2.1544039367028005,0.8467453768288231,2.919074262033808,-0.03318048069892956,1.0081243083849396,0.10638879799709937
546.0,-1.0653302304335825,-2.758955787757337,-2.0789741952641316,2.1544712495356664,0.8441375271170509,2.9181397623626673,-0.03336700878632975,1.008170701592876,0.10640568027012948
547.0,-1.0643332618604853,-2.7586824340092146,-2.07840010654875,2.154538910927004,0.8415332611290666,2.917201421444191,-0.03355344998790403,1.0082174021865555,0.10642267442147499
548.0,-1.0633394378602505,-2.7584079692061585,-2.077822584618357,2.154606952745259,0.838932585864685,2.9162592117572363,-0.03373980372999797,1.0082644100222875,0.10643978039884715
549.0,-1.0623487623746117,-2.7581324000808203,-2.0772416299782708,2.154675407082458,0.8363355082555947,2.915313105539473,-0.03392606943922622,1.0083117249554345,0.10645699814961321
550.0,-1.0613612392482599,-2.757855733353692,-2.07665724312975,2.15474430625573,0.8337420351660907,2.914363074784756,-0.03411224654247433,1.008359346840415,0.10647432762079645
