beomjoonlee/lg_sgu_vision/gtsp_trajectory/data/sample/trajectory/163/trajectory.csv
time,ur20-shoulder_pan_joint,ur20-shoulder_lift_joint,ur20-elbow_joint,ur20-wrist_1_joint,ur20-wrist_2_joint,ur20-wrist_3_joint,target-POS_X,target-POS_Y,target-POS_Z,target-ROT_X,target-ROT_Y,target-ROT_Z,target-ROT_W
0.0,1.2389509086248833,-0.7900680888237025,2.4390891144114586,-2.016452804767399,1.2596772635835336,0.1172898923761584,0.007792577147483826,1.0042110681533813,0.10631570219993591,7.11407346727457e-06,0.573596344759556,0.8191381038151232,1.0297123691345784e-05
1.0,1.255361210433357,-0.7900737775761253,2.4385341687669624,-2.0141303304820317,1.275005200111085,0.11117019649824077,-0.0026557950768619776,1.0043760538101196,0.1062147319316864,1.2226762361782922e-05,0.5735649476050831,0.8191600885816019,2.0655381317438426e-06
2.0,1.2635663613375938,-0.7900766219523367,2.438256695944714,-2.0129690933393483,1.2826691683748606,0.10811034855928195,-0.007881452329456806,1.0043995380401611,0.10615034401416779,1.233493520825393e-05,0.5735651217678348,0.8191599666338661,1.923947044024359e-06
3.0,1.2717715122418305,-0.7900794663285481,2.4379792231224657,-2.0118078561966644,1.2903331366386364,0.10505050062032315,-0.013107397593557835,1.0043836832046509,0.10607708990573883,1.0590303326204032e-05,0.5735754627897922,0.8191527259014193,4.647092636656223e-06
4.0,1.2799766631460674,-0.7900823107047595,2.4377017503002176,-2.010646619053981,1.297997104902412,0.10199065268136433,-0.01833386719226837,1.0043283700942993,0.10599448531866074,6.876345954092185e-06,0.5735964219321854,0.8191380497820978,9.924292678372428e-06
5.0,1.2933973796883311,-0.789597497278997,2.436642900604887,-2.0088076500695387,1.310549036637348,0.09707543641005355,-0.026769835501909256,1.0045245885849,0.10560901463031769,9.039327810591891e-06,0.5735828837309215,0.8191475296699725,6.692686848123387e-06
6.0,1.3001077379594632,-0.7893550905661157,2.436113475757222,-2.007888165577318,1.316825002504816,0.09461782827439816,-0.030991146340966225,1.0045843124389648,0.1054072305560112,8.432243072851958e-06,0.5735863407855287,0.8191451089625168,7.480044287998293e-06
7.0,1.306818096230595,-0.7891126838532344,2.4355840509095565,-2.006968681085097,1.323100968372284,0.09216022013874277,-0.035214755684137344,1.0046179294586182,0.10519950091838837,6.694960998894369e-06,0.5735964991037449,0.8191379957475428,9.685236223271072e-06
8.0,1.322701897823327,-0.7888518591664773,2.4340958368791323,-2.0044172463437713,1.3379710901819162,0.08642253810945538,-0.045161474496126175,1.004798412322998,0.10491620004177094,9.377756738097676e-06,0.5735781345866926,0.8191508550955635,5.68460650079312e-06
9.0,1.3306437986196928,-0.7887214468230987,2.4333517298639205,-2.0031415289731083,1.3454061510867323,0.0835536970948117,-0.05014079809188843,1.0048352479934692,0.10476279258728027,8.662624423040597e-06,0.5735826292822831,0.8191477078456396,6.46658267598806e-06
10.0,1.3385856994160588,-0.7885910344797201,2.4326076228487086,-2.0018658116024453,1.3528412119915485,0.080684856080168,-0.05512326583266258,1.0048362016677856,0.10460135340690613,6.626264001260977e-06,0.5735964991052044,0.8191379957496276,9.46724618757848e-06
11.0,1.3344872371331866,-0.801205204839718,2.4286658884594368,-1.9856494000203289,1.3490040734845423,0.08216344028666855,-0.05148671194911003,1.0092624425888062,0.11145922541618347,7.44611221274681e-06,0.5735891324841144,0.819143154138574,8.281601250509101e-06
12.0,1.3324380059917504,-0.8075122900197169,2.426695021264801,-1.9775411942292704,1.3470855042310392,0.08290273238991884,-0.04966256022453308,1.011438250541687,0.1149253100156784,7.674270565348387e-06,0.5735862125084921,0.8191451987888461,7.902557010756907e-06
13.0,1.3303887748503145,-0.8138193751997158,2.4247241540701654,-1.9694329884382122,1.3451669349775361,0.08364202449316913,-0.04783494025468826,1.0135889053344727,0.11841611564159393,7.74239190537278e-06,0.5735839098878187,0.8191468111395224,7.603266530224106e-06
14.0,1.3283395437088783,-0.8201264603797148,2.4227532868755293,-1.961324782647154,1.343248365724033,0.08438131659641941,-0.046003662049770355,1.0157136917114258,0.12193092703819275,8.00053564632957e-06,0.5735824634706287,0.8191478239484352,7.4498176764463605e-06
15.0,1.3262903125674423,-0.8264335455597137,2.4207824196808936,-1.9532165768560958,1.3413297964705302,0.08512060869966968,-0.04416929557919502,1.0178128480911255,0.12547022104263306,7.961272424985572e-06,0.5735814779677912,0.8191485140153,7.445024076777125e-06
16.0,1.3242410814260062,-0.8327406307397127,2.4188115524862575,-1.9451083710650376,1.339411227217027,0.08585990080291997,-0.04233187064528465,1.0198862552642822,0.12903371453285217,7.84589145422841e-06,0.57358110358563,0.8191487761634364,7.6077007029912516e-06
17.0,1.3221918502845702,-0.8390477159197116,2.4168406852916218,-1.9370001652739794,1.337492657963524,0.08659919290617026,-0.0404915027320385,1.0219331979751587,0.132621169090271,7.708009604048058e-06,0.5735815238475939,0.8191484818874688,7.919215066307455e-06
18.0,1.320142619143134,-0.8453548010997105,2.414869818096986,-1.928891959482921,1.335574088710021,0.08733848500942054,-0.03864869475364685,1.0239537954330444,0.13623245060443878,7.387274544082872e-06,0.5735823664797403,0.8191478918608925,8.293640131352095e-06
19.0,1.318093388001698,-0.8516618862797095,2.41289895090235,-1.9207837536918628,1.3336555194565178,0.08807777711267081,-0.03680337965488434,1.0259475708007812,0.13986743986606598,7.066268911247028e-06,0.5735839464024336,0.8191467855648474,8.846228538501491e-06
20.0,1.3160441568602619,-0.8579689714597084,2.4109280837077143,-1.9126755479008046,1.3317369502030147,0.0888170692159211,-0.034956060349941254,1.0279145240783691,0.14352619647979736,6.542549797551552e-06,0.5735860039352997,0.8191453448303214,9.46272925510937e-06
21.0,1.2994943524801135,-0.8513138280310448,2.4092014413484346,-1.9191065514711945,1.316252549099277,0.09485044261404725,-0.023721754550933838,1.0293247699737549,0.13980042934417725,7.873894841561932e-06,0.5735734511259382,0.8191541344920548,6.7864301249267256e-06
22.0,1.2912194502900392,-0.847986256316713,2.408338120168795,-1.9223220532563894,1.308510348547408,0.09786712931311033,-0.018092986196279526,1.029954433441162,0.13792021572589874,6.220928446564147e-06,0.573582220489799,0.8191479940890115,8.901705602446065e-06
23.0,1.2763456620694107,-0.8430178568482006,2.406727541563083,-1.9272040788760962,1.2946108793752207,0.1033753259102499,-0.007913344539701939,1.0310852527618408,0.13516798615455627,1.0483100067512922e-05,0.5735553239952064,0.8191668268427974,2.6760162513611474e-06
24.0,1.2689087679590965,-0.8405336571139445,2.405922252260227,-1.9296450916859496,1.2876611447891269,0.10612942420881967,-0.002813807688653469,1.0315911769866943,0.1337776631116867,1.0473929315229905e-05,0.5735546263276206,0.8191673153275008,2.75957936415552e-06
25.0,1.2614718738487822,-0.8380494573796883,2.4051169629573708,-1.932086104495803,1.2807114102030333,0.10888352250738946,0.002291747834533453,1.032057285308838,0.13237810134887695,9.103116414622489e-06,0.573562344616568,0.8191619111813702,4.976306289325788e-06
26.0,1.254034979738468,-0.8355652576454321,2.4043116736545147,-1.9345271173056564,1.2737616756169394,0.11163762080595924,0.007402961608022451,1.0324838161468506,0.13096904754638672,6.344400848130451e-06,0.5735786288988174,0.8191505089697982,9.209874233355743e-06
27.0,1.2387832230957068,-0.8368841398445249,2.4047986159833807,-1.9355068946748524,1.2595340346712738,0.11742181553205312,0.017594169825315475,1.0323127508163452,0.13186965882778168,1.3223443615792699e-05,0.5735409760367293,0.8191768726174514,-8.175555992203407e-07
28.0,1.231157344774326,-0.8375435809440712,2.405042087147814,-1.9359967833594502,1.2524202141984409,0.12031391289510007,0.022688498720526695,1.032172679901123,0.13230732083320618,1.404019856952886e-05,0.5735361641300188,0.8191802416036006,-2.0404317602179496e-06
29.0,1.2235314664529453,-0.8382030220436176,2.405285558312247,-1.9364866720440481,1.245306393725608,0.12320601025814702,0.027782060205936432,1.0319968461990356,0.1327367126941681,1.317912450024373e-05,0.5735406475235921,0.8191771026245044,-5.015898244044798e-07
30.0,1.2159055881315648,-0.838862463143164,2.4055290294766802,-1.9369765607286462,1.2381925732527752,0.12609810762119397,0.03287406265735626,1.0317847728729248,0.13315793871879578,1.079162683634283e-05,0.5735544521591774,0.8191674372678993,3.4451288393235936e-06
31.0,1.208279709810184,-0.8395219042427104,2.4057725006411133,-1.937466449413244,1.2310787527799423,0.1289902049842409,0.03796437010169029,1.03153657913208,0.133570596575737,6.927287005167705e-06,0.5735776058550719,0.8191512253031794,9.893255056762957e-06
32.0,1.1939952137173668,-0.8469780391036579,2.4084374811944373,-1.9345715201293465,1.217775020199191,0.13452541160451828,0.04710519313812256,1.0299696922302246,0.13798628747463226,8.650763800999692e-06,0.573569365185233,0.8191569954458835,7.631885843705805e-06
33.0,1.186852965670958,-0.8507061065341316,2.4097699714710994,-1.9331240554873976,1.2111231539088154,0.13729301491465695,0.05165741965174675,1.02913236618042,0.14017578959465027,7.201547035646528e-06,0.5735779771142335,0.8191509653370096,1.0253137530483487e-05
34.0,1.1867798111836114,-0.8392448138950354,2.4148312208928564,-1.949647975192984,1.2110540783935442,0.13731846689398816,0.04996402934193611,1.0248181819915771,0.13357380032539368,7.2087573157831546e-06,0.5735811776235477,0.8191487242960988,1.0396738386762737e-05
35.0,1.1867432339399382,-0.8335141675754874,2.4173618456037347,-1.9579099350457772,1.2110195406359083,0.13733119288365378,0.04910644143819809,1.0226351022720337,0.13031552731990814,7.235429596884884e-06,0.573582826370122,0.819147569814124,1.0417579596384966e-05
36.0,1.1867066566962647,-0.8277835212559392,2.419892470314613,-1.9661718948985705,1.2109850028782727,0.1373439188733194,0.048241764307022095,1.020435094833374,0.12708595395088196,7.220369249881699e-06,0.57358453246591,0.8191463751712282,1.0371460717930318e-05
37.0,1.1866700794525915,-0.8220528749363911,2.4224230950254912,-1.9744338547513636,1.210950465120637,0.13735664486298502,0.04737043008208275,1.0182185173034668,0.12388572096824646,7.2585290942706684e-06,0.5735861666158556,0.8191452308987467,1.0491933295025806e-05
38.0,1.186633502208918,-0.816322228616843,2.42495371973637,-1.982695814604157,1.2109159273630015,0.1373693708526506,0.0464920699596405,1.015985369682312,0.12071409821510315,7.264357804011392e-06,0.5735877725954431,0.8191441063473703,1.0611093732862591e-05
39.0,1.1865969249652448,-0.8105915822972949,2.4274843444472483,-1.99095777445695,1.2108813896053658,0.13738209684231623,0.0456070639193058,1.0137360095977783,0.1175713986158371,7.320597376744724e-06,0.573589541262031,0.8191428678737291,1.0621867508848733e-05
40.0,1.1865603477215714,-0.8048609359777468,2.4300149691581265,-1.9992197343097433,1.2108468518477302,0.13739482283198184,0.04471524804830551,1.0114703178405762,0.11445800960063934,7.35954901251783e-06,0.5735912014669349,0.8191417053428447,1.065697619504522e-05
41.0,1.1865237704778981,-0.7991302896581988,2.432545593869005,-2.0074816941625366,1.2108123140900944,0.13740754882164746,0.043816935271024704,1.0091896057128906,0.11137408018112183,7.3257648318425016e-06,0.5735929586588561,0.8191404748947675,1.0606016350704952e-05
42.0,1.1864871932342247,-0.7933996433386507,2.4350762185798835,-2.0157436540153295,1.2107777763324588,0.13742027481131305,0.04291234537959099,1.006893515586853,0.10831946134567261,7.326399438246198e-06,0.5735945385674698,0.819139368579986,1.0690054631283768e-05
43.0,1.1864506159905515,-0.7876689970191025,2.437606843290762,-2.024005613868123,1.2107432385748231,0.13743300080097867,0.042001474648714066,1.0045820474624634,0.10529401898384094,7.406462358296215e-06,0.5735963447561019,0.8191381038101904,1.0669074593812144e-05
44.0,1.1886835479708109,-0.794972407819678,2.435903903389713,-2.006618914797461,1.212500185826965,0.13444248946154172,0.04115140065550804,1.0064271688461304,0.10599344968795776,0.0004991701369035669,0.5766786503512484,0.8169709167532476,-7.897844775289635e-05
45.0,1.1898000139609406,-0.7986241132199657,2.4350524334391883,-1.9979255652621297,1.213378659453036,0.13294723379182327,0.040715835988521576,1.0073306560516357,0.10635172575712204,0.0007377405848817935,0.5782191487431488,0.8158811536181075,-0.00012221441756445734
46.0,1.19091647995107,-0.8022758186202534,2.434200963488664,-1.9892322157267988,1.2142571330791068,0.1314519781221048,0.0402730293571949,1.0082217454910278,0.10671612620353699,0.0009711658025932742,0.5797590312521654,0.8147873927925976,-0.00016451375554571882
47.0,1.1920329459411998,-0.8059275240205411,2.4333494935381395,-1.9805388661914678,1.2151356067051777,0.12995672245238632,0.03982331603765488,1.0090994834899902,0.10708601772785187,0.0011997510796524424,0.5812985290099562,0.8136894607163409,-0.0002056389031205558
48.0,1.1931494119313295,-0.8095792294208289,2.4324980235876152,-1.9718455166561368,1.2160140803312487,0.12846146678266784,0.039366718381643295,1.009965181350708,0.10746227949857712,0.0014232405282670856,0.582837182320354,0.8125876770533511,-0.0002457484647051153
49.0,1.1942658779214592,-0.8132309348211166,2.4316465536370906,-1.9631521671208056,1.2168925539573197,0.12696621111294937,0.03890325874090195,1.010817527770996,0.10784387588500977,0.0016419886198406517,0.5843755821733118,0.8114816089842726,-0.00028480391780127923
50.0,1.195382343911589,-0.8168826402214043,2.4307950836865664,-1.9544588175854747,1.2177710275833906,0.1254709554432309,0.038432564586400986,1.0116571187973022,0.10823175311088562,0.0018555372030284057,0.5859130756246805,0.8103717174952529,-0.00032292028360969284
51.0,1.1964988099017186,-0.820534345621692,2.4299436137360417,-1.9457654680501437,1.2186495012094616,0.12397569977351243,0.03795526176691055,1.012484073638916,0.10862530767917633,0.0020642675763268997,0.5874500113937652,0.8092577422496597,-0.0003598914026052144
52.0,1.1976152758918484,-0.8241860510219798,2.429092143785517,-1.9370721185148128,1.2195279748355325,0.12248044410379395,0.03747089207172394,1.013297200202942,0.10902450978755951,0.002268002869078594,0.5889865806677701,0.808139534479643,-0.0003959385054358948
53.0,1.1987317418819778,-0.8278377564222675,2.428240673834993,-1.9283787689794816,1.2204064484616035,0.12098518843407549,0.0369795560836792,1.0140976905822754,0.10942971706390381,0.0024667335614052873,0.5905223465700048,0.8070174023204694,-0.0004310207813939211
54.0,1.1998482078721076,-0.8314894618225552,2.427389203884468,-1.9196854194441506,1.2212849220876743,0.11948993276435702,0.036481648683547974,1.0148850679397583,0.10984092205762863,0.002660423481761011,0.5920572723276545,0.8058913650244751,-0.0004649836810727165
55.0,1.2009646738622373,-0.835141167222843,2.426537733933944,-1.9109920699088196,1.2221633957137452,0.11799467709463854,0.03597698360681534,1.0156590938568115,0.11025792360305786,0.0028492950656983564,0.5935916566830916,0.8047611935906251,-0.0004979201177764611
56.0,1.202081139852367,-0.8387928726231307,2.4256862639834194,-1.9022987203734887,1.2230418693398162,0.11649942142492006,0.03546551614999771,1.0164200067520142,0.11068078875541687,0.003033156427762816,0.5951252715673583,0.8036270468102167,-0.0005298481411040155
57.0,1.2031976058424967,-0.8424445780234184,2.424834794032895,-1.8936053708381575,1.2239203429658871,0.1150041657552016,0.034947268664836884,1.017167568206787,0.11110951751470566,0.00321189416138383,0.5966581040235568,0.8024889258876783,-0.0005607731726634027
58.0,1.2043140718326264,-0.8460962834237061,2.4239833240823705,-1.8849120213028265,1.224798816591958,0.11350891008548313,0.034422166645526886,1.0179015398025513,0.11154422163963318,0.0033856930120284255,0.5981902554616991,0.8013467453518072,-0.0005908193983878734
59.0,1.2054305378227559,-0.8497479888239939,2.423131854131846,-1.8762186717674956,1.225677290218029,0.11201365441576465,0.03389051929116249,1.0186220407485962,0.11198446154594421,0.0035546042565337767,0.5997218175605088,0.8002004262155082,-0.0006198508032012041
60.0,1.2065470038128856,-0.8533996942242816,2.4222803841813216,-1.8675253222321646,1.2265557638441,0.11051839874604619,0.03335244953632355,1.0193294286727905,0.11243107914924622,0.00371850416922178,0.6012522530543557,0.7990503622022154,-0.0006477563685939881
61.0,1.2076634698030153,-0.8570513996245693,2.421428914230797,-1.8588319726968334,1.227434237470171,0.10902314307632771,0.032807596027851105,1.020022988319397,0.11288335919380188,0.0038773655640645163,0.6027821509647614,0.7978961017178806,-0.0006748170032014868
62.0,1.208779935793145,-0.860703105024857,2.4205774442802728,-1.8501386231615025,1.2283127110962417,0.10752788740660923,0.03225615993142128,1.0207029581069946,0.11334158480167389,0.0040312171595172685,0.6043110131180354,0.7967380106891273,-0.0007007393226462378
63.0,1.2098964017832747,-0.8643548104251448,2.419725974329748,-1.8414452736261715,1.2291911847223127,0.10603263173689077,0.0316983126103878,1.021369457244873,0.11380594968795776,0.004180078312622279,0.6058390567258556,0.7955759156609611,-0.0007257486129922409
64.0,1.2110128677734044,-0.8680065158254325,2.418874504379224,-1.8327519240908405,1.2300696583483837,0.1045373760671723,0.03113391436636448,1.0220218896865845,0.11427581310272217,0.004324004986705872,0.6073663992937395,0.7944097165787629,-0.0007497966941190817
65.0,1.2121293337635342,-0.8716582212257202,2.4180230344286993,-1.8240585745555093,1.2309481319744546,0.10304212039745383,0.030562762171030045,1.022660732269287,0.11475168168544769,0.004462835435140293,0.6088927372346259,0.7932396360329921,-0.0007729612215516066
66.0,1.2132457997536636,-0.875309926626008,2.417171564478175,-1.8153652250201784,1.2318266056005256,0.10154686472773536,0.029985591769218445,1.0232858657836914,0.11523355543613434,0.004596787451255548,0.6104181092778009,0.7920656345377515,-0.0007949812272472761
67.0,1.2143622657437934,-0.8789616320262957,2.4163200945276504,-1.8066718754848474,1.2327050792265966,0.10005160905801688,0.029401959851384163,1.0238970518112183,0.11572118103504181,0.0047256923403163,0.6119427593823087,0.7908875149317213,-0.0008159636003048515
68.0,1.215478731733923,-0.8826133374265834,2.4154686245771257,-1.7979785259495165,1.2335835528526675,0.0985563533882984,0.028811654075980186,1.0244942903518677,0.11621500551700592,0.0048494517202730385,0.6134662855954979,0.7897055780953833,-0.000836170265020746
69.0,1.2165951977240528,-0.8862650428268711,2.4146171546266015,-1.7892851764141855,1.2344620264787385,0.09706109771857993,0.028215283527970314,1.0250775814056396,0.11671461164951324,0.004968329393873089,0.6149889173035106,0.7885196355279581,-0.0008553851446490059
70.0,1.2177116637141825,-0.8899167482271589,2.413765684676077,-1.7805918268788543,1.2353405001048092,0.09556584204886145,0.027612442150712013,1.0256469249725342,0.11722016334533691,0.005082131067289247,0.6165105874493997,0.7873297303256539,-0.0008736429156823984
71.0,1.2188281297043122,-0.8935684536274466,2.4129142147255527,-1.7718984773435233,1.2362189737308802,0.094070586379143,0.02700340934097767,1.026201844215393,0.11773140728473663,0.005191052382181649,0.6180312675987506,0.7861358734736233,-0.0008908890561029472
72.0,1.2199445956944417,-0.8972201590277343,2.412062744775028,-1.7632051278081924,1.2370974473569512,0.09257533070942453,0.026387959718704224,1.026742935180664,0.11824867129325867,0.0052948159590585795,0.619551004735513,0.7849380193410461,-0.0009073302220095539
73.0,1.2210610616845714,-0.900871864428022,2.411211274824504,-1.7545117782728612,1.2379759209830221,0.09108007503970605,0.02576649934053421,1.0272696018218994,0.11877195537090302,0.005393612960582427,0.6210695781234864,0.7837363312193435,-0.0009226026172591322
74.0,1.2221775276747011,-0.9045235698283098,2.410359804873979,-1.7458184287375302,1.238854394609093,0.08958481936998758,0.025138720870018005,1.0277822017669678,0.119300976395607,0.005487368242727138,0.6225871079495477,0.7825307046120444,-0.0009370934660456991
75.0,1.2232939936648308,-0.9081752752285975,2.409508334923455,-1.7371250792021993,1.239732868235164,0.0880895637002691,0.02450472116470337,1.02828049659729,0.11983627080917358,0.005576043777278299,0.6241035143650052,0.7813211934075335,-0.0009506972553978393
76.0,1.2244104596549605,-0.9118269806288852,2.4086568649729303,-1.7284317296668683,1.240611341861235,0.08659430803055063,0.023864710703492165,1.0287643671035767,0.12037750333547592,0.0056597137526326795,0.6256188083022683,0.7801077787056718,-0.0009632972493265668
77.0,1.2255269256450902,-0.915478686029173,2.4078053950224056,-1.7197383801315373,1.2414898154873057,0.08509905236083216,0.0232184249907732,1.0292335748672485,0.12092424184083939,0.0057384752257214535,0.6271331783817965,0.778890297650158,-0.0009750391161651037
78.0,1.22664339163522,-0.9191303914294607,2.4069539250718814,-1.7110450305962064,1.2423682891133767,0.0836037966911137,0.02256638929247856,1.0296887159347534,0.12147724628448486,0.0058120967135467435,0.6286461504097293,0.777669123498357,-0.000985628792875584
79.0,1.2277598576253494,-0.9227820968297484,2.406102455121357,-1.7023516810608752,1.2432467627394477,0.08210854102139523,0.021908368915319443,1.0301291942596436,0.12203601002693176,0.005880776479180445,0.6301581876035678,0.776443870626775,-0.0009954045912990881
80.0,1.2288763236154792,-0.9264338022300361,2.4052509851708326,-1.6936583315255442,1.2441252363655186,0.08061328535167675,0.021244123578071594,1.0305551290512085,0.1226005107164383,0.005944393303752611,0.631669072540758,0.7752147045238322,-0.0010044270885760699
81.0,1.2299927896056089,-0.9300855076303238,2.404399515220308,-1.684964981990213,1.2450037099915896,0.07911802968195827,0.020574089139699936,1.0309665203094482,0.12317128479480743,0.006002975103052263,0.6331786759509771,0.7739817204847527,-0.0010124062139923802
82.0,1.2311092555957386,-0.9337372130306116,2.4035480452697837,-1.676271632454882,1.2458821836176606,0.0776227740122398,0.01989831030368805,1.031363606452942,0.12374784052371979,0.006056558037718797,0.6346869888117651,0.7727449159773582,-0.0010193963584254524
83.0,1.2322257215858683,-0.9373889184308993,2.402696575319259,-1.6675782829195511,1.2467606572437315,0.07612751834252134,0.019216317683458328,1.031745433807373,0.12433046102523804,0.006104959045311887,0.6361941305434105,0.7715041840574416,-0.0010255335344602403
84.0,1.233342187575998,-0.941040623831187,2.4018451053687344,-1.6588849333842202,1.2476391308698025,0.07463226267280287,0.018528850749135017,1.032112717628479,0.12491888552904129,0.006148541997174979,0.6377000596823447,0.7702595451853497,-0.0010307100955696243
85.0,1.2344586535661277,-0.9446923292314748,2.40099363541821,-1.6501915838488892,1.2485176044958732,0.0731370070030844,0.017835529521107674,1.0324653387069702,0.1255132555961609,0.006187011131776486,0.6392046310681503,0.7690111112139015,-0.0010350574116776018
86.0,1.2355751195562572,-0.9483440346317625,2.4001421654676856,-1.6414982343135582,1.2493960781219442,0.07164175133336592,0.01713649183511734,1.032802939414978,0.12611345946788788,0.006220510148357518,0.6407081218686981,0.7677586400639506,-0.001038475870124882
87.0,1.236691585546387,-0.9519957400320502,2.3992906955171613,-1.632804884778227,1.2502745517480152,0.07014649566364745,0.01643151231110096,1.033125638961792,0.12671944499015808,0.006248959944209884,0.642210182560718,0.7665024123567991,-0.0010410408985211848
88.0,1.2378080515365166,-0.955647445432338,2.3984392255666367,-1.624111535242896,1.2511530253740861,0.06865123999392898,0.01572115533053875,1.033433198928833,0.12733176350593567,0.006272268943613548,0.6437108479663748,0.765242390308097,-0.0010425585163108338
89.0,1.2389245175266463,-0.9592991508326257,2.3975877556161125,-1.615418185707565,1.252031499000157,0.06715598432421051,0.015005098655819893,1.0337263345718384,0.12794969975948334,0.006290674733859283,0.6452102609724065,0.763978440754993,-0.0010433642132220075
90.0,1.240040983516776,-0.9629508562329134,2.396736285665588,-1.606724836172234,1.252909972626228,0.06566072865449205,0.014283348806202412,1.0340038537979126,0.12857383489608765,0.006304020393485634,0.6467082088748581,0.7627107338844875,-0.0010432248741364277
91.0,1.2411574495069058,-0.9666025616332011,2.3958848157150636,-1.598031486636903,1.253788446252299,0.06416547298477357,0.013556152582168579,1.0342668294906616,0.1292036771774292,0.006312329401129944,0.6482048045402716,0.761439163453724,-0.0010422223048805843
92.0,1.2422739154970355,-0.9702542670334888,2.395033345764539,-1.589338137101572,1.2546669198783698,0.0626702173150551,0.012823439203202724,1.034514307975769,0.1298391968011856,0.00631567546660145,0.6497002122279447,0.7601635771815514,-0.0010403849824653323
93.0,1.243390381487165,-0.9739059724337766,2.3941818758140143,-1.580644787566241,1.2555453935044407,0.06117496164533662,0.01208512857556343,1.034746527671814,0.13048088550567627,0.006313915821739082,0.6511939669770976,0.7588843622611948,-0.001037571706587015
94.0,1.2445068474772947,-0.9775576778340643,2.39333040586349,-1.57195143803091,1.2564238671305117,0.05967970597561814,0.011341474950313568,1.034963607788086,0.13112850487232208,0.006307125328026802,0.6526863342602368,0.757601280449851,-0.0010339732961672425
95.0,1.2456233134674244,-0.981209383234352,2.3924789359129655,-1.563258088495579,1.2573023407565826,0.05818445030589968,0.010592249222099781,1.0351654291152954,0.1317821890115738,0.006295255630086919,0.6541771808515431,0.7563144357723742,-0.0010295882645776052
96.0,1.246739779457554,-0.9848610886346398,2.3916274659624412,-1.554564738960248,1.2581808143826536,0.0566891946361812,0.009838100522756577,1.0353522300720215,0.13244153559207916,0.006278531520500638,0.6556665988639422,0.7550237362270816,-0.0010241629923271997
97.0,1.2478562454476838,-0.9885127940349275,2.3907759960119166,-1.545871389424917,1.2590592880087246,0.05519393896646273,0.009078238159418106,1.0355234146118164,0.13310682773590088,0.006256598469269806,0.6571544788099832,0.7537292680685626,-0.001018043418861808
98.0,1.2489727114378135,-0.9921644994352152,2.3899245260613924,-1.5371780398895858,1.2599377616347955,0.05369868329674425,0.008313307538628578,1.0356791019439697,0.1337781399488449,0.006229708673933655,0.6586409171994074,0.7524309343820041,-0.0010108934590642245
99.0,1.250089177427943,-0.995816204835503,2.3890730561108677,-1.5284846903542548,1.2608162352608665,0.05220342762702579,0.007542768493294716,1.0358192920684814,0.1344549059867859,0.006197730707696211,0.6601259162497771,0.7511287216551464,-0.0010031620868767668
100.0,1.2512056434180727,-0.9994679102357906,2.3882215861603435,-1.5197913408189239,1.2616947088869372,0.05070817195730733,0.006767386104911566,1.0359442234039307,0.1351379156112671,0.006160733362882883,0.6616091377934663,0.7498229159252039,-0.0009944375505706563
101.0,1.2523221094082024,-1.0031196156360784,2.387370116209819,-1.511097991283593,1.2625731825130082,0.04921291628758885,0.005986828822642565,1.0360535383224487,0.13582685589790344,0.006118725078432551,0.6630908848912438,0.748513239461701,-0.000984849283906306
102.0,1.2534385753983321,-1.0067713210363662,2.386518646259294,-1.502404641748262,1.2634516561390792,0.047717660617870375,0.005200964864343405,1.0361473560333252,0.13652174174785614,0.00607166945093044,0.664571019588311,0.7471998026442498,-0.0009745162008754674
103.0,1.2545550413884619,-1.0104230264366538,2.38566717630877,-1.493711292212931,1.2643301297651501,0.04622240494815191,0.004410190507769585,1.0362255573272705,0.1372224986553192,0.006019518659898314,0.6660495343205808,0.7458826016304961,-0.000963229652332824
104.0,1.2556715073785916,-1.0140747318369416,2.3848157063582454,-1.4850179426775998,1.265208603391221,0.04472714927843344,0.003614440094679594,1.0362880229949951,0.13792887330055237,0.005962507585808379,0.6675265446926195,0.7445615192452074,-0.0009511536626008192
105.0,1.2567879733687213,-1.0177264372372292,2.383964236407721,-1.4763245931422688,1.266087077017292,0.04323189360871496,0.0028134032618254423,1.0363346338272095,0.1386411488056183,0.005900336593292261,0.6690017717728947,0.7432367959210556,-0.0009383932100739502
106.0,1.2579044393588508,-1.021378142637517,2.3831127664571965,-1.4676312436069376,1.266965550643363,0.041736637938996485,0.0020078057423233986,1.0363657474517822,0.1393594890832901,0.005833231420448381,0.6704753306226593,0.7419083160130445,-0.0009246990427963072
107.0,1.2590209053489805,-1.0250298480378048,2.3822612965066723,-1.4589378940716067,1.267844024269434,0.04024138226927802,0.0011972635984420776,1.0363811254501343,0.14008380472660065,0.005761103414079558,0.6719470745692329,0.7405762015677565,-0.0009101300872818542
108.0,1.2601373713391102,-1.0286815534380924,2.3814098265561476,-1.4502445445362757,1.2687224978955047,0.03874612659955955,0.0003818059340119362,1.036380410194397,0.14081361889839172,0.005683964512402324,0.6734172855149885,0.7392401851575183,-0.0008948549180420536
109.0,1.26125383732924,-1.0323332588383802,2.380558356605623,-1.4415511950009448,1.2696009715215757,0.03725087092984107,-0.00043859321158379316,1.0363637208938599,0.14154952764511108,0.005601707344736873,0.6748857359809188,0.7379004622580827,-0.0008786601307497352
110.0,1.2623703033193696,-1.035984964238668,2.3797068866550988,-1.4328578454656138,1.2704794451476467,0.035755615260122595,-0.0012635992607101798,1.0363315343856812,0.14229153096675873,0.005514464536829685,0.6763522617867077,0.7365571709432881,-0.0008617359786504936
111.0,1.2634867693094993,-1.0396366696389556,2.378855416704574,-1.4241644959302826,1.2713579187737176,0.03426035959040412,-0.0020933300256729126,1.036283016204834,0.14303885400295258,0.005422277115476038,0.6778172914252276,0.7352099060667022,-0.0008440244320791723
112.0,1.264603235299629,-1.0432883750392434,2.37800394675405,-1.4154711463949516,1.2722363923997886,0.032765103920685656,-0.002927880734205246,1.0362187623977661,0.143792062997818,0.005325011031101396,0.6792805159830472,0.7338589396222286,-0.0008255906141572685
113.0,1.2657197012897585,-1.0469400804395312,2.3771524768035253,-1.4067777968596207,1.2731148660258595,0.031269848250967194,-0.003766874084249139,1.0361385345458984,0.14455148577690125,0.005222796916262315,0.6807417411911798,0.7325044397415453,-0.000806195569928265
114.0,1.2668361672798882,-1.0505917858398188,2.376301006853001,-1.3980844473242897,1.2739933396519305,0.02977459258124872,-0.004610550589859486,1.0360418558120728,0.14531640708446503,0.005115453991100629,0.6822012540747122,0.7311461298827854,-0.0007860195799683602
115.0,1.267952633270018,-1.0542434912401066,2.3754495369024764,-1.3893910977889585,1.2748718132780015,0.028279336911530256,-0.00545879453420639,1.0359294414520264,0.1460874080657959,0.00500315828280662,0.6836587872166217,0.72978424600175,-0.0007650858464237202
116.0,1.2690690992601477,-1.0578951966403944,2.374598066951952,-1.3806977482536276,1.2757502869040722,0.02678408124181178,-0.006311430595815182,1.035800814628601,0.14686429500579834,0.0048858501462268385,0.6851145201949744,0.7284186090868431,-0.0007433857326331532
117.0,1.2701855652502774,-1.061546902040682,2.3737465970014275,-1.3720043987182966,1.2766287605301432,0.025288825572093304,-0.007168902084231377,1.0356557369232178,0.14764657616615295,0.004763420505723031,0.6865684861712655,0.7270491755860978,-0.0007210417171589597
118.0,1.271302031240407,-1.0651986074409698,2.372895127050903,-1.3633110491829656,1.2775072341562141,0.023793569902374828,-0.008030428551137447,1.0354945659637451,0.14843496680259705,0.0046361950407577245,0.6880205028771739,0.7256761028624542,-0.0006978900671203705
119.0,1.2724184972305366,-1.0688503128412576,2.3720436571003787,-1.3546176996476347,1.278385707782285,0.022298314232656352,-0.008896268904209137,1.035317301750183,0.14922907948493958,0.004503817337826536,0.6894705371985344,0.7242994132455841,-0.0006737482130867786
120.0,1.2735349632206663,-1.0725020182415452,2.371192187149854,-1.3459243501123035,1.279264181408356,0.02080305856293789,-0.009766682982444763,1.0351238250732422,0.1500287652015686,0.004366504773189814,0.6909187805497954,0.722918910429953,-0.00064904731646976
121.0,1.274651429210796,-1.076153723641833,2.37034071719933,-1.3372310005769725,1.280142655034427,0.019307802893219414,-0.010641245171427727,1.0349137783050537,0.1508345901966095,0.004224119378963878,0.6923648877579629,0.7215349126988624,-0.0006235158543916276
122.0,1.2757678952009257,-1.0798054290421206,2.369489247248805,-1.3285376510416413,1.281021128660498,0.017812547223500938,-0.01152001228183508,1.0346875190734863,0.15164616703987122,0.004076740471796092,0.6938089386844598,0.7201473321935139,-0.0005972631193601986
123.0,1.2768843611910554,-1.0834571344424084,2.368637777298281,-1.3198443015063104,1.2818996022865687,0.016317291553782462,-0.012402988038957119,1.0344445705413818,0.15246324241161346,0.003924458858867465,0.6952513272143955,0.7187557759023088,-0.0005702949734593271
124.0,1.2780008271811851,-1.0871088398426962,2.3677863073477563,-1.3111509519709794,1.2827780759126397,0.014822035884064,-0.013290200382471085,1.0341852903366089,0.15328651666641235,0.003767018500393862,0.6966913022334965,0.7173609584380417,-0.0005424690465667153
125.0,1.2791172931713148,-1.0907605452429838,2.366934837397232,-1.3024576024356485,1.2836565495387107,0.013326780214345524,-0.014181273989379406,1.0339099168777466,0.1541154980659485,0.0036047288940012964,0.6981293073594647,0.7159624375727347,-0.0005139263591974104
126.0,1.2802337591614443,-1.0944122506432716,2.3660833674467074,-1.2937642529003175,1.2845350231647816,0.011831524544627076,-0.01507650874555111,1.0336174964904785,0.15494990348815918,0.0034374308704588656,0.6995655317964475,0.7145600155482188,-0.00048473817011138854
127.0,1.281350225151574,-1.0980639560435592,2.365231897496183,-1.2850709033649865,1.2854134967908526,0.0103362688749086,-0.015975918620824814,1.033308744430542,0.15578991174697876,0.003265076232246445,0.7009995372390732,0.7131541075794608,-0.00045487398852881784
128.0,1.2824666911417038,-1.101715661443847,2.3643804275456586,-1.2763775538296556,1.2862919704169236,0.008841013205190124,-0.01687902957201004,1.032983660697937,0.15663623809814453,0.0030877527576908237,0.7024312844266025,0.7117447411298269,-0.00042416475155607794
129.0,1.2835831571318335,-1.1053673668441348,2.363528957595134,-1.2676842042943244,1.2871704440429945,0.0073457575354716476,-0.01778602786362171,1.0326414108276367,0.15748776495456696,0.002905524462384471,0.7038611010123844,0.7103315804877729,-0.00039264611953523015
130.0,1.2846996231219632,-1.1090190722444224,2.3626774876446097,-1.2589908547589934,1.2880489176690655,0.0058505018657531715,-0.018697133287787437,1.0322829484939575,0.1583452820777893,0.0027181704326661653,0.7052886491074762,0.70891494762817,-0.00036058147390174587
131.0,1.2858160891120929,-1.1126707776447102,2.361826017694085,-1.2502975052236622,1.2889273912951362,0.0043552461960346955,-0.019611697643995285,1.0319077968597412,0.15920859575271606,0.002525988037214312,0.7067141195755271,0.7074946397108736,-0.0003276543981405917
132.0,1.2869325551022226,-1.116322483044998,2.360974547743561,-1.2416041556883313,1.2898058649212072,0.0028599905263162195,-0.020530076697468758,1.0315158367156982,0.16007740795612335,0.0023288435991074504,0.7081375646549911,0.7060705910229776,-0.000294116392069076
133.0,1.288049021092352,-1.1199741884452856,2.360123077793036,-1.2329108061530003,1.2906843385472782,0.0013647348565977435,-0.021452220156788826,1.0311071872711182,0.16095185279846191,0.002126643805510717,0.7095586483269356,0.7046431255981733,-0.0002598419007390225
134.0,1.2891654870824818,-1.1236258938455734,2.3592716078425116,-1.2242174566176693,1.2915628121733491,-0.00013052081312070474,-0.022378114983439445,1.030681848526001,0.16183222830295563,0.0019194112942159673,0.7109774869278471,0.7032121147820547,-0.00022486839934501255
135.0,1.2902819530726115,-1.1272775992458612,2.3584201378919873,-1.2155241070823384,1.29244128579942,-0.0016257764828391807,-0.023307669907808304,1.030239462852478,0.16271813213825226,0.0017072806747843935,0.7123942074691965,0.7017774166855074,-0.00018917518034237995
136.0,1.2913984190627412,-1.1309293046461488,2.3575686679414627,-1.2068307575470072,1.293319759425491,-0.0031210321525576568,-0.024240441620349884,1.029780387878418,0.16360977292060852,0.0014902569520621508,0.7138085575515494,0.700339274195637,-0.00015270730751946183
137.0,1.292514885052871,-1.1345810100464366,2.3567171979909385,-1.1981374080116762,1.294198233051562,-0.004616287822276133,-0.02517698146402836,1.0293045043945312,0.16450725495815277,0.0012681927974636641,0.7152206241986694,0.6988975869460206,-0.0001156240625373954
138.0,1.2936313510430006,-1.1382327154467244,2.355865728040414,-1.1894440584763453,1.2950767066776327,-0.006111543491994581,-0.026116954162716866,1.0288114547729492,0.16541016101837158,0.0010412176787732341,0.7166305106777447,0.6974522356178364,-7.786643717669708e-05
139.0,1.2947478170331301,-1.141884420847012,2.3550142580898896,-1.1807507089410143,1.2959551803037037,-0.007606799161713057,-0.027060454711318016,1.02830171585083,0.16631869971752167,0.000809211591142466,0.7180380092731692,0.6960034201483384,-3.946442120097643e-05
140.0,1.2958642830232598,-1.1455361262472998,2.354162788139365,-1.1720573594056831,1.2968336539297747,-0.009102054831431533,-0.028007056564092636,1.0277752876281738,0.1672329157590866,0.0005723102861478193,0.7194431323344377,0.6945511153239192,-2.2167583139707266e-07
141.0,1.2969807490133896,-1.1491878316475874,2.3533113181888408,-1.1633640098703522,1.2977121275558456,-0.010597310501150009,-0.028957102447748184,1.0272315740585327,0.1681526154279709,0.00033047291005235336,0.7208460037526467,0.6930951796788327,3.9591178020934414e-05
142.0,1.2980972150035193,-1.1528395370478752,2.352459848238316,-1.1546706603350212,1.2985906011819166,-0.012092566170868485,-0.029910501092672348,1.0266706943511963,0.16907799243927002,8.370579404553305e-05,0.722246585423762,0.6916356384912208,8.003685271371362e-05
143.0,1.299165265619382,-1.1564550418642552,2.347976941282751,-1.1372383405721864,1.3001491067755946,-0.014071590129699454,-0.03013833798468113,1.0275835990905762,0.16907909512519836,0.00038393949451901273,0.7253556525176308,0.6883741913493966,5.133469635483707e-05
144.0,1.2996992909273133,-1.1582627942724453,2.3457354878049683,-1.1285221806907693,1.3009283595724337,-0.015061102109114937,-0.030258597806096077,1.0280205011367798,0.1690971702337265,0.0005286554076042401,0.7269055725139014,0.686737218851044,3.7635493407994964e-05
145.0,1.3002333162352446,-1.1600705466806354,2.3434940343271857,-1.1198060208093519,1.3017076123692726,-0.01605061408853042,-0.03038286231458187,1.0284441709518433,0.1691267341375351,0.0006696711153548006,0.7284524171562897,0.6850960712821037,2.4363555726190787e-05
146.0,1.300767341543176,-1.1618782990888252,2.341252580849403,-1.1110898609279345,1.3024868651661117,-0.0170401260679459,-0.030511265620589256,1.0288547277450562,0.16916821897029877,0.0008070295942411321,0.7299960744347146,0.6834508613482261,1.1640806383394468e-05
147.0,1.3013013668511073,-1.1636860514970153,2.3390111273716205,-1.102373701046517,1.3032661179629506,-0.018029638047361386,-0.03064366616308689,1.0292519330978394,0.1692211627960205,0.0009408755695231517,0.7315368936244239,0.6818012085784166,-7.081671306383022e-07
148.0,1.3018353921590387,-1.1654938039052054,2.336769673893838,-1.0936575411650997,1.3040453707597897,-0.01901915002677687,-0.030780253931879997,1.0296361446380615,0.16928620636463165,0.0010708854753114592,0.7330742188216269,0.6801478094810506,-1.2707815928102037e-05
149.0,1.30236941746697,-1.1673015563133953,2.3345282204160553,-1.0849413812836826,1.3048246235566288,-0.020008662006192356,-0.03092077001929283,1.0300066471099854,0.16936279833316803,0.001197336347322366,0.7346085389652803,0.6784901327828615,-2.4109387678411382e-05
150.0,1.3029034427749013,-1.1691093087215854,2.3322867669382727,-1.0762252214022652,1.3056038763534676,-0.020998173985607837,-0.031065214425325394,1.0303642749786377,0.16945123672485352,0.0013202836715355253,0.736139746963003,0.676828285874951,-3.509769953969679e-05
151.0,1.3034374680828327,-1.1709170611297754,2.33004531346049,-1.0675090615208478,1.3063831291503067,-0.021987685965023318,-0.03121386654675007,1.0307081937789917,0.1695512980222702,0.0014393992488650055,0.7376677611675667,0.6751623509733587,-4.573794261204898e-05
152.0,1.303971493390764,-1.1727248135379653,2.3278038599827076,-1.0587929016394304,1.3071623819471456,-0.022977197944438803,-0.031366437673568726,1.0310389995574951,0.16966359317302704,0.0015549590152858855,0.7391924960273193,0.6734924148010473,-5.590005741492536e-05
153.0,1.3045055186986954,-1.1745325659461554,2.325562406504925,-1.050076741758013,1.3079416347439847,-0.023966709923854287,-0.03152310103178024,1.0313562154769897,0.1697874516248703,0.0016668938934434393,0.7407141824778463,0.6718182172391027,-6.577687738405801e-05
154.0,1.3050395440066267,-1.1763403183543453,2.3233209530271424,-1.0413605818765959,1.3087208875408238,-0.024956221903269772,-0.03168362006545067,1.0316601991653442,0.16992376744747162,0.0017752003221761375,0.7422323189647723,0.6701403044931042,-7.511246463682971e-05
155.0,1.305573569314558,-1.1781480707625354,2.3210794995493598,-1.0326444219951785,1.3095001403376627,-0.025945733882685257,-0.03184821084141731,1.03195059299469,0.17007148265838623,0.0018798499683153158,0.7437474909335157,0.6684580232230185,-8.416038798242321e-05
156.0,1.3061075946224894,-1.1799558231707254,2.318838046071577,-1.023928262113761,1.3102793931345018,-0.026935245862100738,-0.03201669827103615,1.0322273969650269,0.17023105919361115,0.001980935593184714,0.7452593733940358,0.6667717253020566,-9.273738980613857e-05
157.0,1.3066416199304207,-1.1817635755789153,2.3165965925937946,-1.0152121022323437,1.3110586459313407,-0.02792475784151622,-0.03218896687030792,1.0324909687042236,0.17040292918682098,0.0020782880240996903,0.746767813086575,0.6650815768662589,-0.0001008457904958522
158.0,1.307175645238352,-1.1835713279871054,2.314355139116012,-1.0064959423509263,1.3118378987281798,-0.028914269820931704,-0.03236526623368263,1.0327407121658325,0.1705864518880844,0.002172110211496124,0.7482731195616041,0.6633872237805973,-0.00010864366565773535
159.0,1.3077096705462834,-1.1853790803952955,2.3121136856382294,-0.997779782469509,1.3126171515250187,-0.02990378180034719,-0.03254571929574013,1.0329769849777222,0.1707819551229477,0.0022621938705457744,0.7497751632902611,0.6616888041142478,-0.00011619729340698444
160.0,1.3082436958542147,-1.1871868328034854,2.309872232160447,-0.9890636225880918,1.3133964043218578,-0.030893293779762673,-0.03272977098822594,1.0331997871398926,0.17098969221115112,0.0023486622071956726,0.7512736944211067,0.6599865943247586,-0.0001231596716229764
161.0,1.308777721162146,-1.1889945852116754,2.307630778682664,-0.9803474627066744,1.3141756571186969,-0.03188280575917815,-0.03291763365268707,1.0334086418151855,0.17120912671089172,0.0024316621259641105,0.7527691381739979,0.6582801035763605,-0.00012987523899865767
162.0,1.3093117464700774,-1.1908023376198655,2.3053893252048816,-0.971631302825257,1.3149549099155358,-0.032872317738593636,-0.03310948982834816,1.0336041450500488,0.17144058644771576,0.002510943466754151,0.7542611215506617,0.6565697503847143,-0.00013623435232606703
163.0,1.309845771778009,-1.1926100900280554,2.303147871727099,-0.9629151429438397,1.3157341627123749,-0.03386182971800912,-0.033305030316114426,1.0337861776351929,0.17168429493904114,0.0025865431661255853,0.7557495747859513,0.6548556099025886,-0.0001420718562593585
164.0,1.3103797970859403,-1.1944178424362455,2.3009064182493164,-0.9541989830624223,1.3165134155092137,-0.034851341697424605,-0.03350449725985527,1.0339540243148804,0.17193977534770966,0.0026586851490401466,0.7572349776037431,0.6531371205754339,-0.00014769281559613598
165.0,1.3109138223938717,-1.1962255948444356,2.298664964771534,-0.9454828231810051,1.3172926683060528,-0.03584085367684009,-0.033707793802022934,1.034108281135559,0.1722075343132019,0.0027271173614983875,0.7587168262829729,0.6514148577886785,-0.00015296452409429155
166.0,1.311447847701803,-1.1980333472526254,2.296423511293751,-0.9367666632995877,1.318071921102892,-0.036830365656255575,-0.03391477093100548,1.034248948097229,0.17248739302158356,0.0027918984608217958,0.7601951813632586,0.6496887459753085,-0.000157759620798002
167.0,1.3119818730097343,-1.1998410996608155,2.2941820578159686,-0.9280505034181703,1.3188511738997308,-0.03781987763567105,-0.03412572294473648,1.034375548362732,0.1727791279554367,0.002853138385743193,0.7616704100880706,0.6479583471321095,-0.00016241750738418755
168.0,1.3125158983176657,-1.2016488520690056,2.291940604338186,-0.919334343536753,1.31963042669657,-0.03880938961508654,-0.03434014320373535,1.034488320350647,0.17308329045772552,0.0029107856274352187,0.7631419098913719,0.6462243611445805,-0.00016660630039117284
169.0,1.313049923625597,-1.2034566044771955,2.2896991508604034,-0.9106181836553356,1.3204096794934088,-0.03979890159450202,-0.03455839678645134,1.0345876216888428,0.1733994036912918,0.002964742663812542,0.7646099610879198,0.6444864534463001,-0.00017038273779608847
170.0,1.3135839489335284,-1.2052643568853856,2.287457697382621,-0.9019020237739184,1.321188932290248,-0.040788413573917506,-0.03478045389056206,1.0346728563308716,0.17372773587703705,0.003015130290709504,0.7660747775736205,0.642744361221024,-0.0001739926317232797
171.0,1.3141179742414597,-1.2070721092935757,2.2852162439048382,-0.893185863892501,1.3219681850870868,-0.04177792555333299,-0.03500618785619736,1.0347440242767334,0.17406818270683289,0.00306196695476542,0.7675359904466784,0.6409985150779796,-0.00017718699008160228
172.0,1.314651999549391,-1.2088798617017655,2.2829747904270556,-0.8844697040110836,1.322747437883926,-0.04276743753274847,-0.03523549064993858,1.0348014831542969,0.17442096769809723,0.0031051252567504883,0.76899369505942,0.6392487956632856,-0.00017999732955643828
173.0,1.3151860248573224,-1.2106876141099556,2.280733336949273,-0.8757535441296662,1.323526690680765,-0.04375694951216395,-0.035468604415655136,1.034844994544983,0.17478567361831665,0.0031446914937809274,0.7704479487775964,0.6374951260891147,-0.00018262646794524535
174.0,1.3157200501652537,-1.2124953665181457,2.2784918834714905,-0.8670373842482489,1.3243059434776039,-0.04474646149157944,-0.03570538014173508,1.0348745584487915,0.17516270279884338,0.0031806587014561677,0.7718985999666496,0.6357376822039905,-0.00018494769291165552
175.0,1.316254075473185,-1.2143031189263356,2.276250429993708,-0.8583212243668317,1.325085196274443,-0.045735973470994916,-0.03594542667269707,1.0348902940750122,0.17555218935012817,0.0032130623666730604,0.773345654357639,0.6339764508661432,-0.00018671784001703657
176.0,1.3167881007811164,-1.2161108713345257,2.2740089765159253,-0.8496050644854143,1.3258644490712819,-0.04672548545041041,-0.0361894927918911,1.0348917245864868,0.17595325410366058,0.0032418092564821866,0.7747893476993823,0.6322111370638662,-0.00018851186612912782
177.0,1.3173221260890478,-1.2179186237427155,2.2717675230381427,-0.8408889046039969,1.326643701868121,-0.047714997429825885,-0.03643708676099777,1.0348790884017944,0.17636702954769135,0.003267036407060211,0.7762294208505213,0.6304420485946208,-0.00018984993346101843
178.0,1.317856151396979,-1.2197263761509056,2.26952606956036,-0.8321727447225795,1.3274229546649599,-0.04870450940924137,-0.03668825328350067,1.0348525047302246,0.17679280042648315,0.0032885811571931574,0.7776660875102398,0.6286689153369095,-0.00019094397683668525
179.0,1.3183901767049104,-1.2215341285590957,2.2672846160825775,-0.8234565848411622,1.328202207461799,-0.049694021388656855,-0.03694293648004532,1.0348118543624878,0.17723116278648376,0.00330663287151293,0.7790988983237236,0.6268922842528845,-0.00019171336339563928
180.0,1.3189242020128418,-1.2233418809672856,2.265043162604795,-0.814740424959745,1.328981460258638,-0.05068353336807233,-0.037201184779405594,1.0347568988800049,0.17768143117427826,0.0033211164676208538,0.7805282880163734,0.6251116099066458,-0.00019222788330742295
181.0,1.3194582273207731,-1.2251496333754757,2.2628017091270123,-0.8060242650783276,1.329760713055477,-0.05167304534748782,-0.037462979555130005,1.0346882343292236,0.17814448475837708,0.003331837123480769,0.7819538314545801,0.6233274158099109,-0.00019244381787477744
182.0,1.3199922526287045,-1.2269573857836658,2.2605602556492297,-0.7973081051969102,1.330539965852316,-0.05266255732690331,-0.03772832453250885,1.0346052646636963,0.1786196231842041,0.003339066586270408,0.7833758800411954,0.6215392539214132,-0.00019245474310372536
183.0,1.3205262779366358,-1.2287651381918556,2.258318802171447,-0.7885919453154928,1.331319218649155,-0.053652069306318786,-0.037996936589479446,1.0345078706741333,0.17910683155059814,0.003342805998161097,0.7847943708011286,0.6197471938737392,-0.00019207432264649067
184.0,1.3210603032445671,-1.2305728906000457,2.2560773486936645,-0.7798757854340755,1.332098471445994,-0.05464158128573427,-0.038269173353910446,1.0343965291976929,0.17960654199123383,0.003342890298318263,0.7862090715133382,0.6179515225756519,-0.00019157510780856124
185.0,1.3215943285524985,-1.2323806430082358,2.2538358952158815,-0.7711596255526583,1.3328777242428331,-0.055631093265149756,-0.03854505717754364,1.034271240234375,0.1801186501979828,0.003339361829851771,0.7876201122857422,0.616152068059523,-0.00019081807273902654
186.0,1.3221283538604298,-1.2341883954164257,2.251594441738099,-0.7624434656712409,1.333656977039672,-0.05662060524456524,-0.03882408142089844,1.0341312885284424,0.18064290285110474,0.0033323231408182693,0.7890274934206195,0.6143488213095016,-0.00018974847933422517
187.0,1.3226623791683612,-1.2359961478246158,2.2493529882603163,-0.7537273057898235,1.3344362298365111,-0.05761011722398072,-0.03910661116242409,1.0339776277542114,0.1811797022819519,0.0033216730896145456,0.7904310958453717,0.6125419280981425,-0.00018849504187211664
188.0,1.3231964044762925,-1.2378039002328058,2.2471115347825337,-0.7450111459084062,1.33521548263335,-0.0585996292033962,-0.039392631500959396,1.0338090658187866,0.18172846734523773,0.003307569452116681,0.791831114521129,0.6107311283130938,-0.00018700257140609082
189.0,1.3237304297842238,-1.2396116526409957,2.244870081304751,-0.7362949860269888,1.335994735430189,-0.05958914118281169,-0.03968192636966705,1.0336264371871948,0.1822899580001831,0.003289803241321801,0.793227364484261,0.6089166536862806,-0.00018517961270897071
190.0,1.3242644550921552,-1.2414194050491858,2.2426286278269685,-0.7275788261455716,1.3367739882270282,-0.06057865316222717,-0.039974652230739594,1.033429741859436,0.1828637272119522,0.003268482795421618,0.7946197803956929,0.6070985818146651,-0.00018325593937493906
191.0,1.3247984804000865,-1.2432271574573759,2.240387174349186,-0.7188626662641542,1.337553241023867,-0.06156816514164266,-0.04027070105075836,1.033218502998352,0.18344983458518982,0.0032436630069843245,0.7960085208290911,0.6052766975834875,-0.00018105305011854208
192.0,1.3253325057080179,-1.2450349098655658,2.2381457208714033,-0.7101465063827368,1.3383324938207062,-0.06255767712105814,-0.04057012125849724,1.0329928398132324,0.18404847383499146,0.003215177023379138,0.7973934982134718,0.6034511079834551,-0.00017865366128094385
193.0,1.3258665310159492,-1.2468426622737558,2.2359042673936207,-0.7014303465013195,1.339111746617545,-0.06354718910047362,-0.04087256267666817,1.0327528715133667,0.1846594512462616,0.0031833368034496815,0.7987747218143726,0.6016217908246838,-0.00017596041566930493
194.0,1.3264005563238805,-1.2486504146819457,2.233662813915838,-0.6927141866199021,1.3398909994143842,-0.06453670107988911,-0.04117836430668831,1.0324984788894653,0.18528293073177338,0.0031478836595716683,0.8001519889103276,0.5997890091531676,-0.00017311953803029038
195.0,1.3269345816318119,-1.2504581670901358,2.2314213604380555,-0.6839980267384849,1.340670252211223,-0.06552621305930459,-0.041487596929073334,1.0322299003601074,0.18591874837875366,0.003108743861494027,0.801525547734194,0.5979524254637786,-0.00017006759843601408
196.0,1.3274686069397432,-1.2522659194983259,2.229179906960273,-0.6752818668570675,1.3414495050080621,-0.06651572503872008,-0.04180000349879265,1.0319468975067139,0.18656721711158752,0.0030661720703577112,0.8028952542694116,0.596112222184084,-0.00016680301313062374
197.0,1.3280026322476746,-1.2540736719065158,2.2269384534824903,-0.6665657069756501,1.3422287578049013,-0.06750523701813556,-0.04211556166410446,1.0316494703292847,0.18722820281982422,0.0030200764145004557,0.8042610279737877,0.5942685010602958,-0.0001633050696913115
198.0,1.328536657555606,-1.2558814243147058,2.2246970000047077,-0.6578495470942328,1.3430080106017401,-0.06849474899755104,-0.04243452101945877,1.0313371419906616,0.18790124356746674,0.0029703325484208005,0.8056230811005213,0.5924209675697727,-0.0001597070730363973
199.0,1.3290706828635372,-1.257689176722896,2.222455546526925,-0.6491333872128154,1.3437872633985792,-0.06948426097696653,-0.04275646433234215,1.0310108661651611,0.18858690559864044,0.0029171687313873456,0.8069812207337024,0.5905698732740688,-0.00015585501745099043
200.0,1.3296047081714686,-1.2594969291310858,2.2202140930491425,-0.640417227331398,1.3445665161954181,-0.070473772956382,-0.043081674724817276,1.030669927597046,0.18928515911102295,0.0028604311848321007,0.8083354020588547,0.5887152729813515,-0.00015188903635144656
201.0,1.3301387334794,-1.2613046815392759,2.21797263957136,-0.6317010674499808,1.3453457689922572,-0.0714632849357975,-0.04340985417366028,1.0303144454956055,0.1899956613779068,0.002800174473337361,0.8096858506981643,0.5868568483042925,-0.00014764979293473772
202.0,1.3306727587873313,-1.263112433947466,2.2157311860935773,-0.6229849075685634,1.346125021789096,-0.07245279691521297,-0.04374121502041817,1.029944658279419,0.19071856141090393,0.002736439981881908,0.8110322707447006,0.5849949975697976,-0.0001432662995026021
203.0,1.3312067840952626,-1.2649201863556558,2.2134897326157947,-0.6142687476871461,1.3469042745859352,-0.07344230889462845,-0.04407573491334915,1.0295602083206177,0.19145435094833374,0.002669113499926084,0.8123746751841786,0.5831296971520242,-0.00013875126467934295
204.0,1.331740809403194,-1.266727938763846,2.211248279138012,-0.6055525878057287,1.3476835273827743,-0.07443182087404394,-0.04441329836845398,1.0291612148284912,0.19220204651355743,0.00259835917013341,0.8137133118716838,0.5812605927121108,-0.00013406119636183927
205.0,1.3322748347111255,-1.268535691172036,2.2090068256602295,-0.5968364279243114,1.3484627801796132,-0.07542133285345942,-0.044753819704055786,1.028747797012329,0.1929628700017929,0.00252406847924435,0.8150478252604735,0.5793881729378407,-0.00012913649943222826
206.0,1.3328088600190569,-1.2703434435802259,2.206765372182447,-0.5881202680428941,1.3492420329764523,-0.07641084483287491,-0.04509754851460457,1.0283197164535522,0.19373565912246704,0.00244625849604251,0.8163785084926006,0.57751201828069,-0.00012422613004995858
207.0,1.3333428853269882,-1.272151195988416,2.2045239187046644,-0.5794041081614767,1.3500212857732912,-0.07740035681229039,-0.045444294810295105,1.0278772115707397,0.1945214569568634,0.00236480149740999,0.8177051510374276,0.5756324169881282,-0.00011913497128721045
208.0,1.3338769106349195,-1.273958948396606,2.2022824652268818,-0.5706879482800594,1.3508005385701303,-0.07838986879170587,-0.045793887227773666,1.0274200439453125,0.19531945884227753,0.002280030454544132,0.819027737587152,0.573749382197597,-0.00011380629774798518
209.0,1.3344109359428509,-1.275766700804796,2.200041011749099,-0.561971788398642,1.3515797913669694,-0.07937938077112135,-0.04614639654755592,1.0269482135772705,0.19613008201122284,0.0021918024238949414,0.8203464019391359,0.571862715235506,-0.0001084025968031673
210.0,1.3349449612507822,-1.277574453212986,2.1977995582713166,-0.5532556285172247,1.3523590441638083,-0.08036889275053684,-0.046502094715833664,1.0264616012573242,0.19695335626602173,0.0020999045501405556,0.8216610219331902,0.5699725825526369,-0.00010283415434451304
211.0,1.3354789865587136,-1.279382205621176,2.195558104793534,-0.5445394686358074,1.3531382969606474,-0.08135840472995233,-0.04686060547828674,1.0259604454040527,0.19778883457183838,0.0020046730408131382,0.8229715642894154,0.5680790228631388,-9.715911327601159e-05
212.0,1.336013011866645,-1.281189958029366,2.1933166513157514,-0.53582330875439,1.3539175497574862,-0.08234791670936781,-0.04722190648317337,1.0254446268081665,0.19863677024841309,0.001906001521242196,0.8242781706806103,0.5661818225101449,-9.141508928134076e-05
213.0,1.3365470371745762,-1.282997710437556,2.191075197837969,-0.5271071488729727,1.3546968025543253,-0.08333742868878329,-0.047586213797330856,1.024914264678955,0.1994975358247757,0.0018036759960742322,0.8255806380813853,0.564281268044582,-8.551042282498087e-05
214.0,1.3370810624825076,-1.2848054628457461,2.188833744360186,-0.5183909889915553,1.3554760553511642,-0.08432694066819876,-0.04795337840914726,1.0243691205978394,0.2003706991672516,0.0016980109928754154,0.8268789903094305,0.5623773162400937,-7.951172638290241e-05
215.0,1.337615087790439,-1.286613215253936,2.1865922908824036,-0.509674829110138,1.3562553081480033,-0.08531645264761425,-0.04832351207733154,1.0238091945648193,0.20125626027584076,0.001588854555288614,0.8281734684920187,0.5604696032973606,-7.353095043400152e-05
216.0,1.3381491130983703,-1.288420967662126,2.184350837404621,-0.5009586692287207,1.3570345609448424,-0.08630596462702973,-0.048696279525756836,1.0232347249984741,0.2021545022726059,0.0014761587150551913,0.8294636075238635,0.5585588064174938,-6.724887187459097e-05
217.0,1.3386831384063016,-1.2902287200703162,2.1821093839268384,-0.4922425093473033,1.3578138137416813,-0.08729547660644522,-0.04907194897532463,1.0226458311080933,0.20306527614593506,0.0013600397321163115,0.8307496743556045,0.5566445231264694,-6.1018764446870576e-05
218.0,1.339217163714233,-1.292036472478506,2.179867930449056,-0.4835263494658859,1.3585930665385204,-0.08828498858586072,-0.04945027455687523,1.022041916847229,0.20398849248886108,0.0012404549679127653,0.8320316612977469,0.554726755160429,-5.457806598617269e-05
219.0,1.3397511890221643,-1.2938442248866961,2.177626476971273,-0.47481018958446863,1.3593723193353593,-0.08927450056527618,-0.04983142018318176,1.02142333984375,0.2049245536327362,0.001117452373335738,0.8333093948442128,0.5528057538155985,-4.809296335018554e-05
220.0,1.3402852143300956,-1.295651977294886,2.1753850234934906,-0.46609402970305125,1.3601515721321984,-0.09026401254469167,-0.05021524429321289,1.0207899808883667,0.20587295293807983,0.0009910155035542851,0.8345830606325723,0.5508812313543501,-4.165279032848599e-05
221.0,1.340819239638027,-1.297459729703076,2.173143570015708,-0.457377869821634,1.3609308249290373,-0.09125352452410715,-0.050601884722709656,1.020141839981079,0.2068338245153427,0.0008610745758508262,0.8358525752025513,0.5489533038904807,-3.500804974752662e-05
222.0,1.3413532649459583,-1.2992674821112662,2.1709021165379254,-0.4486617099402166,1.3617100777258764,-0.09224303650352264,-0.05099111422896385,1.0194790363311768,0.2078075259923935,0.0007277397446073153,0.8371178025494688,0.547022169797298,-2.8281951166993417e-05
223.0,1.3418872902538896,-1.301075234519456,2.168660663060143,-0.4399455500587992,1.3624893305227155,-0.09323254848293813,-0.05138316750526428,1.0188014507293701,0.20879365503787994,0.0005909397413006199,0.8383789403650723,0.5450875183628532,-2.1623758282507263e-05
224.0,1.342421315561821,-1.3028829869276461,2.1664192095823602,-0.43122939017738193,1.3632685833195544,-0.0942220604623536,-0.05177777633070946,1.01810884475708,0.20979243516921997,0.0004506619557763504,0.8396358289885227,0.5431495847046353,-1.4756019924715185e-05
225.0,1.3429553408697523,-1.3046907393358362,2.1641777561045776,-0.42251323029596455,1.3640478361163935,-0.09521157244176909,-0.05217503011226654,1.017401933670044,0.2108038067817688,0.0003069762220077699,0.8408884278124487,0.5412084235057386,-7.946103835080208e-06
226.0,1.3434893661776837,-1.306498491744026,2.161936302626795,-0.4137970704145473,1.3648270889132323,-0.09620108442118457,-0.05257493630051613,1.016680121421814,0.21182750165462494,0.00015988870661334096,0.8421368765023222,0.5392638089741244,-1.1104290691219453e-06
227.0,1.344023391485615,-1.3083062441522162,2.1596948491490124,-0.4050809105331299,1.3656063417100714,-0.09719059640060006,-0.05297717824578285,1.015943169593811,0.2128635197877884,9.424373973277237e-06,0.8433810914728671,0.53731586094401,5.934137235126756e-06
228.0,1.361338452644897,-1.3042941537210087,2.164717618123409,-0.41555817155908303,1.3812351537471392,-0.08959570231019794,-0.0647628977894783,1.0135217905044556,0.207527294754982,7.022716116776277e-06,0.8433942662061444,0.5372951810948499,7.316635515024785e-06
229.0,1.369995983224538,-1.3022881085054048,2.167229002610607,-0.4207968020720596,1.3890495597656731,-0.08579825526499688,-0.07063350081443787,1.012224793434143,0.20488756895065308,9.290746042861336e-06,0.8433883855799778,0.5373044118066432,5.9664148389913386e-06
230.0,1.362134038999521,-1.3007412985691933,2.158530419664194,-0.4036397448752636,1.3833541237443614,-0.09176240827685826,-0.06443145126104355,1.0149410963058472,0.2053556591272354,-0.0001643513688852139,0.845876476516573,0.5333786231457701,0.00045148162474589173
231.0,1.3582030668870124,-1.2999678936010877,2.154181128190987,-0.3950612162768656,1.3805064057337053,-0.09474448478278896,-0.061320021748542786,1.016263723373413,0.2056160271167755,-0.0002406029243354531,0.8471093080591307,0.5314182361790039,0.0006485107633650376
232.0,1.3542720947745037,-1.299194488632982,2.14983183671778,-0.38648268767846755,1.3776586877230494,-0.09772656128871965,-0.058201633393764496,1.0175632238388062,0.2058938890695572,-0.0003096029594551143,0.8483346744706659,0.5294596284361123,0.0008283073406371744
233.0,1.3503411226619952,-1.2984210836648762,2.1454825452445734,-0.3779041590800696,1.3748109697123936,-0.10070863779465035,-0.05507657304406166,1.0188391208648682,0.2061893492937088,-0.00037135530681234877,0.8495525735538827,0.5275028956174996,0.0009909482146981366
234.0,1.3464101505494865,-1.2976476786967706,2.141133253771367,-0.36932563048167155,1.3719632517017377,-0.10369071430058105,-0.05194525793194771,1.0200915336608887,0.20650246739387512,-0.000426133290347433,0.8507629319515038,0.5255482472194712,0.0011366055785262657
235.0,1.342479178436978,-1.296874273728665,2.13678396229816,-0.3607471018832735,1.3691155336910819,-0.10667279080651174,-0.04880743846297264,1.0213208198547363,0.20683349668979645,-0.0004735320506279383,0.851965768582992,0.5235957449453893,0.0012652293355369945
236.0,1.3385482063244694,-1.296100868760559,2.1324346708249533,-0.3521685732848755,1.366267815680426,-0.10965486731244244,-0.045663584023714066,1.0225266218185425,0.20718219876289368,-0.0005138511314250184,0.8531610034020761,0.5216456102904585,0.0013767700143629486
237.0,1.3346172342119609,-1.2953274637924534,2.128085379351747,-0.3435900446864775,1.36342009766977,-0.11263694381837314,-0.04251386970281601,1.0237090587615967,0.20754875242710114,-0.0005470742907865608,0.8543486528511204,0.5196979075474015,0.001471384398633813
238.0,1.3306862620994522,-1.2945540588243478,2.12373608787854,-0.3350115160880795,1.360572379659114,-0.11561902032430382,-0.039358362555503845,1.0248680114746094,0.20793290436267853,-0.000573015902421238,0.8555288312761786,0.5177525384275786,0.001549018976650572
239.0,1.3267552899869437,-1.293780653856242,2.1193867964053332,-0.32643298748968147,1.3577246616484582,-0.11860109683023452,-0.03619731590151787,1.0260038375854492,0.20833510160446167,-0.0005918725538587022,0.8567012420501959,0.515810081450571,0.0016097920632432649
240.0,1.322824317874435,-1.2930072488881363,2.1150375049321264,-0.3178544588912835,1.3548769436378023,-0.12158317333616522,-0.033030565828084946,1.0271167755126953,0.20875529944896698,-0.0006036168726996716,0.8578659923155777,0.5138704501496884,0.0016538857387549458
241.0,1.3188933457619265,-1.2922338439200307,2.11068821345892,-0.30927593029288547,1.3520292256271464,-0.12456524984209591,-0.029858801513910294,1.0282059907913208,0.2091933637857437,-0.000608072080926284,0.8590231238118552,0.5119336654022335,0.0016808428541698782
242.0,1.314962373649418,-1.2914604389519249,2.106338921985713,-0.30069740169448744,1.3491815076164904,-0.12754732634802662,-0.02668178267776966,1.0292726755142212,0.20964965224266052,-0.0006053987008241987,0.860172409834354,0.5100001943970502,0.001691321123944701
243.0,1.3110314015369093,-1.2906870339838192,2.1019896305125063,-0.2921188730960894,1.3463337896058345,-0.1305294028539573,-0.02350025624036789,1.03031587600708,0.210123673081398,-0.0005957533748898286,0.8613140780878762,0.508069744471987,0.0016848494644797864
244.0,1.3071004294244009,-1.2899136290157136,2.0976403390393,-0.2835403444976914,1.3434860715951786,-0.133511479359888,-0.020313680171966553,1.0313360691070557,0.21061599254608154,-0.0005787257939119747,0.8624480436086625,0.5061425449188458,0.0016617385836187515
245.0,1.3031694573118922,-1.289140224047608,2.093291047566093,-0.2749618158992934,1.3406383535845228,-0.13649355586581868,-0.017122415825724602,1.0323331356048584,0.2111261785030365,-0.0005544723065511308,0.8635741525341203,0.50421894511151,0.0016220437950727389
246.0,1.2992384851993837,-1.2883668190795021,2.0889417560928862,-0.26638328730089544,1.337790635573867,-0.13947563237174937,-0.013926627114415169,1.0333070755004883,0.21165475249290466,-0.0005230692543457349,0.8646925972841341,0.5022987028157301,0.0015658065679307904
247.0,1.295307513086875,-1.2875934141113965,2.0845924646196794,-0.2578047587024974,1.334942917563211,-0.14245770887768008,-0.010726753622293472,1.034258246421814,0.212201327085495,-0.00048449973909434985,0.8658031547557427,0.5003822872306591,0.0014930173544081442
248.0,1.2913765409743665,-1.2868200091432909,2.080243173146473,-0.2492262301040994,1.332095199552555,-0.14543978538361077,-0.007522699423134327,1.035187005996704,0.21276672184467316,-0.00043891636001528193,0.8669056260960826,0.4984701319481432,0.0014036919137850475
249.0,1.2874455688618578,-1.286046604175185,2.075893881673266,-0.24064770150570136,1.329247481541899,-0.14842186188954148,-0.00431471923366189,1.0360924005508423,0.21334972977638245,-0.00038608361942377926,0.8680005684170881,0.49656135514169814,0.001297978000988718
250.0,1.2835145967493493,-1.2852731992070794,2.0715445902000593,-0.23206917290730336,1.3263997635312432,-0.15140393839547217,-0.0011029720772057772,1.0369752645492554,0.2139512151479721,-0.00032614848812120893,0.8690874743142162,0.4946569245703168,0.0011758366961825695
251.0,1.2795836246368406,-1.2844997942389738,2.067195298726853,-0.22349064430890533,1.3235520455205874,-0.15438601490140286,0.002112448448315263,1.0378351211547852,0.2145707607269287,-0.0002589374230343995,0.8701665674646923,0.4927565340179468,0.001037304558094381
252.0,1.2756526525243321,-1.283726389270868,2.062846007253646,-0.21491211571050733,1.3207043275099315,-0.15736809140733354,0.00533137284219265,1.0386728048324585,0.2152092158794403,-0.0001846861247371874,0.8712376608586448,0.49086059650966674,0.0008826022697257712
253.0,1.2717216804118234,-1.2829529843027623,2.0584967157804392,-0.20633358711210933,1.3178566094992756,-0.16035016791326426,0.008553675375878811,1.039487361907959,0.21586589515209198,-0.00010314793892347495,0.872300766104996,0.48896917749309393,0.0007115299482585734
254.0,1.267790708299315,-1.2821795793346566,2.0541474243072324,-0.19775505851371133,1.3150088914886195,-0.16333224441919494,0.011779258027672768,1.040279507637024,0.21654103696346283,-1.4408083848711824e-05,0.8733559710540078,0.48708220312597905,0.0005244184025087912
255.0,1.2638597361868062,-1.2814061743665508,2.049798132834026,-0.1891765299153133,1.3121611734779637,-0.16631432092512566,0.015007645823061466,1.0410490036010742,0.2172340750694275,8.136154219220388e-05,0.874403261067848,0.4851997808310322,0.0003210852390523235
256.0,1.2599287640742978,-1.2806327693984452,2.045448841360819,-0.18059800131691528,1.3093134554673078,-0.16929639743105634,0.018238818272948265,1.0417964458465576,0.2179463505744934,0.00018422124678929333,0.8754424022233529,0.4833224142418557,0.0001017023187176325
257.0,1.2560149521687007,-1.2789822691334884,2.0457823932359247,-0.18146550074690612,1.2923235376454167,-0.17972243587777328,0.015810584649443626,1.0422749519348145,0.21721693873405457,-0.006625359607525265,0.8749591130802856,0.4841356999851953,-0.003908842242403595
258.0,1.2540580462159021,-1.27815701900101,2.0459491691734772,-0.18189925046190153,1.2838285787344712,-0.18493545510113174,0.0145981814712286,1.0424911975860596,0.21687579154968262,-0.010025602734986948,0.8746801982700927,0.48456072545579226,-0.005911124237230971
259.0,1.2521011402631035,-1.2773317688685317,2.04611594511103,-0.18233300017689696,1.2753336198235257,-0.19014847432449022,0.013387350365519524,1.0426925420761108,0.2165505588054657,-0.013422746095307192,0.874376333927867,0.4849982151503758,-0.007911248641915034
260.0,1.2501442343103049,-1.2765065187360534,2.0462827210485823,-0.1827667498918924,1.2668386609125801,-0.1953614935478487,0.012177752330899239,1.0428786277770996,0.21624121069908142,-0.016816772123792942,0.874047531554056,0.48544816150466097,-0.00990914987991335
261.0,1.2481873283575065,-1.2756812686035752,2.046449496986135,-0.1832004996068878,1.2583437020016346,-0.20057451277120716,0.010969987139105797,1.043049693107605,0.21594753861427307,-0.02020711679423043,0.8736938885643929,0.4859104224380965,-0.011904742001617135
262.0,1.2462304224047078,-1.2748560184710969,2.046616272923688,-0.18363424932188321,1.249848743090689,-0.20578753199456562,0.009763953275978565,1.0432051420211792,0.21566948294639587,-0.023594061223642878,0.8733154251337298,0.48638496780649393,-0.013897898774404525
263.0,1.2442735164519092,-1.2740307683386185,2.0467830488612404,-0.18406799903687865,1.2413537841797435,-0.2110005512179241,0.008559631183743477,1.0433459281921387,0.21540740132331848,-0.026977325748431147,0.8729120647126933,0.4868719576017489,-0.015888614650956766
264.0,1.2423166104991108,-1.2732055182061401,2.046949824798793,-0.18450174875187408,1.232858825268798,-0.2162135704412826,0.007357507012784481,1.0434712171554565,0.21516092121601105,-0.03035664355082914,0.8724840033462149,0.4873710772029658,-0.017876554570466212
265.0,1.2403597045463122,-1.2723802680736618,2.047116600736346,-0.1849354984668695,1.2243638663578524,-0.22142658966464104,0.006157367490231991,1.0435813665390015,0.21493041515350342,-0.03373220879075606,0.8720310189751259,0.4878827217193428,-0.019861769383079077
266.0,1.2384027985935135,-1.2715550179411834,2.0472833766738985,-0.1853692481818649,1.215868907446907,-0.2266396088879995,0.004959688521921635,1.0436762571334839,0.2147153615951538,-0.03710356570594183,0.8715533759495038,0.4884064641548144,-0.021844085119771907
267.0,1.236445892640715,-1.270729767808705,2.047450152611451,-0.18580299789686033,1.2073739485359614,-0.23185262811135798,0.0037642158567905426,1.0437560081481934,0.2145162969827652,-0.04047072795993291,0.8710509251265635,0.4889425754644315,-0.023823599911849482
268.0,1.2344889866879165,-1.2699045176762267,2.0476169285490036,-0.18623674761185577,1.1988789896250158,-0.23706564733471647,0.002571488730609417,1.0438207387924194,0.2143326699733734,-0.04383357192599812,0.8705237228802469,0.4894909867424387,-0.025799995597619467
269.0,1.2325320807351179,-1.2690792675437483,2.047783704486556,-0.18667049732685118,1.1903840307140703,-0.24227866655807492,0.0013815416023135185,1.0438703298568726,0.21416506171226501,-0.04719184485351185,0.8699718134146267,0.49005165735916895,-0.02777313023264987
270.0,1.2305751747823193,-1.26825401741127,2.047950480424109,-0.18710424704184658,1.1818890718031247,-0.24749168578143338,0.00019423477351665497,1.0439045429229736,0.2140129655599594,-0.05054562681509548,0.8693952050605013,0.4906245741250597,-0.029742970468360594
271.0,1.2286182688295209,-1.2674287672787918,2.0481172563616616,-0.18753799675684202,1.1733941128921792,-0.25270470500479186,-0.0009899232536554337,1.0439239740371704,0.21387676894664764,-0.0538945911277589,0.8687938800080617,0.49120980753657734,-0.03170949522757947
272.0,1.2266613628767222,-1.2666035171463135,2.048284032299214,-0.18797174647183745,1.1648991539812337,-0.25791772422815035,-0.0021712016314268112,1.0439279079437256,0.2137560248374939,-0.05723866202625436,0.8681679881457874,0.4918071176575487,-0.033672525146090135
273.0,1.2247044569239236,-1.2657782670138351,2.048450808236767,-0.18840549618683286,1.1564041950702881,-0.2631307434515088,-0.0033491263166069984,1.0439168214797974,0.2136511206626892,-0.06057773610688821,0.8675174225697075,0.49241671414064364,-0.035631994907770304
274.0,1.222747550971125,-1.2649530168813568,2.0486175841743197,-0.18883924590182827,1.1479092361593424,-0.26834376267486726,-0.004523927345871925,1.0438905954360962,0.21356171369552612,-0.06391172798298116,0.8668422769449496,0.49303845423160936,-0.03758777162894521
275.0,1.2207906450183266,-1.2641277667488784,2.0487843601118723,-0.1892729956168237,1.1394142772483968,-0.27355678189822574,-0.005694909021258354,1.043849229812622,0.2134879231452942,-0.06724037135101399,0.866142600769819,0.49367230515411203,-0.039539634749158864
276.0,1.218833739065528,-1.2633025166164,2.048951136049425,-0.18970674533181914,1.1309193183374513,-0.2787698011215842,-0.006862439215183258,1.043792486190796,0.21342995762825012,-0.07056372580301516,0.8654183021825987,0.494318421035134,-0.04148760626400652
277.0,1.2168768331127293,-1.2624772664839217,2.0491179119869773,-0.19014049504681454,1.1224243594265058,-0.2839828203449427,-0.008026529103517532,1.0437209606170654,0.2133873701095581,-0.0738815313067414,0.8646695238667016,0.49497657466805184,-0.043431835763470435
278.0,1.2149199271599307,-1.2616520163514433,2.0492846879245303,-0.19057424476180995,1.1139294005155602,-0.28919583956830114,-0.009186469949781895,1.0436341762542725,0.21336035430431366,-0.0771935515780713,0.8638962715992867,0.49564684194266967,-0.0453717487416247
279.0,1.2129630212071323,-1.260826766218965,2.049451463862083,-0.1910079944768054,1.1054344416046147,-0.2944088587916596,-0.010342596098780632,1.043532371520996,0.21334904432296753,-0.08050013882047304,0.8630984858123906,0.4963292640948148,-0.047307431142925946
280.0,1.2110061152543337,-1.2600015160864866,2.0496182397996354,-0.19144174419180082,1.0969394826936691,-0.2996218780150181,-0.01149472314864397,1.0434155464172363,0.2133529931306839,-0.0838006144528551,0.8622763756790336,0.4970235787994458,-0.04923891835271412
281.0,1.209049209301535,-1.2591762659540082,2.0497850157371884,-0.19187549390679623,1.0884445237827236,-0.30483489723837653,-0.012642208486795425,1.043283462524414,0.21337252855300903,-0.08709499977973362,0.8614297828181708,0.4977301013891173,-0.05116577428697864
282.0,1.2070923033487366,-1.25835101582153,2.049951791674741,-0.19230924362179164,1.079949564871778,-0.310047916461735,-0.01378560159355402,1.0431360006332397,0.21340733766555786,-0.0903831084227012,0.8605589804854269,0.498448347872319,-0.05308841042156638
283.0,1.205135397395938,-1.2575257656890517,2.0501185676122935,-0.19274299333678707,1.0714546059608325,-0.3152609356850935,-0.014924203045666218,1.0429736375808716,0.21345795691013336,-0.093664951656155,0.8596637319365245,0.4991787928665064,-0.055006159441966206
284.0,1.2031784914431394,-1.2567005155565734,2.050285343549846,-0.1931767430517825,1.062959647049887,-0.320473954908452,-0.016058318316936493,1.0427963733673096,0.21352356672286987,-0.0969405490413923,0.8587441613323982,0.49992119881316793,-0.05691915588160479
285.0,1.2012215854903407,-1.255875265424095,2.0504521194873986,-0.19361049276677791,1.0544646881389415,-0.32568697413181047,-0.017187681049108505,1.042603850364685,0.21360473334789276,-0.10020943704617147,0.8578003884073896,0.5006754376488056,-0.05882744691211502
286.0,1.1992646795375423,-1.2550500152916166,2.0506188954249516,-0.19404424248177332,1.045969729227996,-0.3308999933551689,-0.01831222139298916,1.0423963069915771,0.2137012779712677,-0.10347168048910808,0.8568323176574126,0.5014416742813982,-0.060730865698217174
287.0,1.1973077735847437,-1.2542247651591383,2.050785671362504,-0.19447799219676876,1.0374747703170504,-0.3361130125785274,-0.019431810826063156,1.0421736240386963,0.2138129323720932,-0.10672715312644886,0.8558401082521178,0.5022196851501084,-0.06262916046262211
288.0,1.2023013844219381,-1.2525675642815735,2.041772681921428,-0.17704714316424028,1.0507409556102012,-0.33069222023308736,-0.01902080327272415,1.044241189956665,0.21378949284553528,-0.10234376028582531,0.8595682098120647,0.4968533509322718,-0.06168464216004312
289.0,1.2047981898405353,-1.251738963842791,2.03726618720089,-0.16833171864797605,1.0573740482567764,-0.3279818240603674,-0.018828190863132477,1.045237421989441,0.2137964963912964,-0.10017017514169554,0.8614125816759064,0.4941569268299237,-0.061181956560224605
290.0,1.2072949952591325,-1.2509103634040084,2.0327596924803517,-0.1596162941317118,1.0640071409033518,-0.3252714278876474,-0.018643707036972046,1.046209454536438,0.2138165533542633,-0.09800873244294686,0.8632437740681953,0.491451944367625,-0.060658563078153635
291.0,1.2097918006777297,-1.250081762965226,2.0282531977598137,-0.15090086961544757,1.0706402335499272,-0.3225610317149274,-0.0184678602963686,1.0471562147140503,0.21384955942630768,-0.09585959411882086,0.8650618132136186,0.48873835239292224,-0.060115059969969756
292.0,1.212288606096327,-1.2492531625264436,2.0237467030392757,-0.14218544509918332,1.0772733261965026,-0.3198506355422074,-0.018300088122487068,1.0480782985687256,0.21389617025852203,-0.09372281503132886,0.866866481063241,0.48601668474430576,-0.05955098741239116
293.0,1.2147854115149241,-1.248424562087661,2.0192402083187377,-0.1334700205829191,1.083906418843078,-0.31714023936948743,-0.01814023219048977,1.0489758253097534,0.21395623683929443,-0.0915984306359728,0.8686577705976024,0.4832870627573952,-0.05896626202125643
294.0,1.2172822169335216,-1.2475959616488788,2.0147337135981997,-0.12475459606665486,1.0905395114896534,-0.3144298431967674,-0.017988398671150208,1.0498483180999756,0.21403037011623383,-0.08948639530917406,0.8704357360068101,0.48054947208467946,-0.05836111218944231
295.0,1.2197790223521188,-1.2467673612100962,2.0102272188776618,-0.11603917155039062,1.0971726041362286,-0.3117194470240474,-0.017844369634985924,1.0506963729858398,0.21411889791488647,-0.08738707847619967,0.8722001377499317,0.47780439878949926,-0.05773538535248487
296.0,1.222275827770716,-1.245938760771314,2.0057207241571238,-0.10732374703412638,1.103805696782804,-0.3090090508513274,-0.017708079889416695,1.0515196323394775,0.21422190964221954,-0.08530030840283519,0.8739510734468674,0.47505181101440536,-0.057089013473548646
297.0,1.2247726331893132,-1.2451101603325314,2.0012142294365853,-0.09860832251786214,1.1104387894293795,-0.3062986546786074,-0.017579365521669388,1.0523180961608887,0.21433956921100616,-0.08322629454469808,0.8756884097706074,0.4722920282630527,-0.05642191886984957
298.0,1.2272694386079104,-1.244281559893749,1.9967077347160476,-0.0898928980015979,1.1170718820759549,-0.30358825850588744,-0.017457740381360054,1.053092122077942,0.21447238326072693,-0.08116483534234008,0.8774120690859243,0.4695253269808812,-0.055734171292886686
299.0,1.2297662440265076,-1.2434529594549666,1.9922012399955094,-0.08117747348533368,1.1237049747225303,-0.30087786233316743,-0.017343804240226746,1.0538419485092163,0.21462035179138184,-0.07911646747449422,0.8791219908835411,0.46675184288520194,-0.05502569293142997
300.0,1.2322630494451048,-1.242624359016184,1.9876947452749714,-0.07246204896906942,1.1303380673691055,-0.2981674661604474,-0.017237115651369095,1.054566740989685,0.21478387713432312,-0.07708083641362079,0.8808182190287314,0.46397163839379896,-0.05429667071749708
301.0,1.234759854863702,-1.2417957585774015,1.9831882505544334,-0.06374662445280521,1.1369711600156809,-0.2954570699877274,-0.01713702455163002,1.0552674531936646,0.21496346592903137,-0.07505808923766381,0.8825005652704889,0.46118520361050314,-0.053546647962288335
302.0,1.2372566602822992,-1.2409671581386192,1.9786817558338952,-0.05503119993654096,1.1436042526622563,-0.2927466738150074,-0.017044048756361008,1.0559437274932861,0.21515896916389465,-0.07304839902367066,0.8841690817458111,0.4583924872984314,-0.05277588344315119
303.0,1.2397534657008964,-1.2401385576998367,1.9741752611133572,-0.046315775420276706,1.1502373453088317,-0.29003627764228745,-0.01695806160569191,1.0565954446792603,0.215370774269104,-0.07105188721485435,0.885823653230034,0.4555937851360649,-0.05198449429202225
304.0,1.2422502711194936,-1.2393099572610542,1.9696687663928192,-0.03760035090401248,1.1568704379554071,-0.28732588146956745,-0.01687842234969139,1.0572230815887451,0.21559889614582062,-0.06906836698040832,0.8874642580714284,0.4527893291488392,-0.05117201126917973
305.0,1.2447470765380908,-1.238481356822272,1.9651622716722812,-0.028884926387748255,1.1635035306019823,-0.28461548529684744,-0.016805589199066162,1.0578265190124512,0.21584443747997284,-0.06709826073209489,0.8890907912555496,0.44997932588498746,-0.050338798032936276
306.0,1.247243881956688,-1.2376527563834894,1.960655776951743,-0.020169501871484002,1.1701366232485577,-0.2819050891241275,-0.016739223152399063,1.0584056377410889,0.21610689163208008,-0.06514142444125466,0.8907031710836792,0.44716406706040046,-0.04948487620722047
307.0,1.2497406873752852,-1.2368241559447068,1.956149282231205,-0.011454077355219777,1.1767697158951331,-0.2791946929514075,-0.016679003834724426,1.0589609146118164,0.2163866013288498,-0.06319791791134025,0.892301496232489,0.4443434993712168,-0.04860985043665897
308.0,1.2522374927938826,-1.2359955555059245,1.951642787510667,-0.0027386528389555242,1.1834028085417085,-0.27648429677868747,-0.016624853014945984,1.0594919919967651,0.216684028506279,-0.0612676926739838,0.8938856408352394,0.44151795710141534,-0.04771398641878931
309.0,1.2547342982124798,-1.235166955067142,1.9471362927901288,0.005976771677308701,1.190035901188284,-0.27377390060596746,-0.016577135771512985,1.0599992275238037,0.21699900925159454,-0.05935110435309294,0.8954555299334416,0.43868763506096203,-0.04679742694110053
310.0,1.257231103631077,-1.2343383546283597,1.9426297980695908,0.014692196193572954,1.1966689938348594,-0.27106350443324745,-0.016535205766558647,1.0604828596115112,0.21733270585536957,-0.05744802140051402,0.897010961724847,0.43585311025417794,-0.0458598480633177
311.0,1.2597279090496742,-1.2335097541895772,1.9381233033490528,0.02340762070983718,1.2033020864814346,-0.2683531082605275,-0.01649896800518036,1.060942530632019,0.21768450736999512,-0.05555850416015157,0.8985521556036823,0.4330140282729003,-0.04490130949469361
312.0,1.2622247144682714,-1.2326811537507947,1.9336168086285146,0.032123045226101404,1.20993517912801,-0.2656427120878075,-0.016468217596411705,1.0613784790039062,0.21805469691753387,-0.053682504065185266,0.9000789833083171,0.4301707583261003,-0.04392187661183468
313.0,1.2647215198868687,-1.2318525533120124,1.9291103139079766,0.04083846974236566,1.2165682717745854,-0.2629323159150875,-0.016443192958831787,1.0617913007736206,0.21844378113746643,-0.051820473197531775,0.9015912667124689,0.42732372345222647,-0.04292157639596654
314.0,1.2672183253054659,-1.2310239528732299,1.9246038191874386,0.04955389425862991,1.2232013644211608,-0.26022191974236747,-0.01642368920147419,1.0621801614761353,0.2188519835472107,-0.04997218633134389,0.9030891491465589,0.42447276352117747,-0.04190038562715492
315.0,1.269715130724063,-1.2301953524344473,1.9200973244669006,0.05826931877489416,1.2298344570677362,-0.25751152356964746,-0.01640944555401802,1.062545895576477,0.21927988529205322,-0.048137714146634945,0.9045723895953508,0.42161850447424476,-0.0408581588351095
316.0,1.2722119361426603,-1.229366751995665,1.9155908297463624,0.06698474329115833,1.2364675497143114,-0.2548011273969275,-0.016400383785367012,1.0628883838653564,0.21972712874412537,-0.046317207543622244,0.9060410352124328,0.4187609291000494,-0.0397950129514662
317.0,1.2747087415612575,-1.2285381515568825,1.9110843350258244,0.07570016780742261,1.2431006423608868,-0.2520907312242075,-0.016396569088101387,1.063207983970642,0.22019444406032562,-0.04451073065104074,0.9074950045862348,0.41590029472853446,-0.03871119156856847
318.0,1.2772055469798547,-1.2277095511181,1.9065778403052864,0.08441559232368684,1.2497337350074622,-0.2493803350514875,-0.016397586092352867,1.0635040998458862,0.22068123519420624,-0.04271822498113896,0.9089343714204712,0.41303658573889923,-0.03760638969759003
319.0,1.2797023523984519,-1.2268809506793177,1.9020713455847482,0.09313101683995106,1.2563668276540376,-0.2466699388787675,-0.016403144225478172,1.0637776851654053,0.22118879854679108,-0.040939618655274956,0.9103588871502595,0.4101704778239909,-0.03648045137523402
320.0,1.282199157817049,-1.2260523502405352,1.8975648508642102,0.10184644135621534,1.262999920300613,-0.2439595427060475,-0.016413800418376923,1.064028024673462,0.22171691060066223,-0.03917542210766817,0.9117686487267689,0.407301771393998,-0.03533390044927444
321.0,1.2846959632356463,-1.2252237498017526,1.8930583561436722,0.11056186587247951,1.2696330129471882,-0.24124914653332752,-0.016428761184215546,1.0642560720443726,0.2222657948732376,-0.03742526831509478,0.9131635033757415,0.4044309950653913,-0.034166293689874824
322.0,1.2871927686542435,-1.2243951493629703,1.8885518614231342,0.1192772903887438,1.2762661055937636,-0.2385387503606075,-0.016448166221380234,1.0644617080688477,0.2228354513645172,-0.035689432208812474,0.9145435601255406,0.4015579713143283,-0.032977821872213556
323.0,1.289689574072841,-1.2235665489241878,1.884045366702596,0.12799271490500802,1.282899198240339,-0.2358283541878875,-0.016472095623612404,1.064644455909729,0.22342658042907715,-0.03396792389256069,0.915908670549275,0.3986831289850884,-0.031768695625539856
324.0,1.292186379491438,-1.2227379484854055,1.879538871982058,0.13670813942127225,1.2895322908869145,-0.23311795801516752,-0.016500134021043777,1.064805269241333,0.2240390181541443,-0.03226086292447654,0.9172587461415357,0.3958068073524805,-0.030538510174245553
325.0,1.2946831849100353,-1.221909348046623,1.87503237726152,0.14542356393753653,1.2961653835334899,-0.2304075618424475,-0.016532357782125473,1.0649439096450806,0.22467347979545593,-0.030568199743717838,0.9185937731622612,0.3929291290904208,-0.02928761827448578
326.0,1.2971799903286325,-1.2210807476078405,1.8705258825409818,0.15413898845380075,1.3027984761800653,-0.22769716566972753,-0.016568368300795555,1.0650606155395508,0.22532951831817627,-0.02889000470966764,0.91991377752516,0.3900501565615184,-0.028015797572096858
327.0,1.2996767957472297,-1.2202521471690582,1.8660193878204439,0.16285441297006498,1.3094315688266405,-0.22498676949700752,-0.0166084636002779,1.0651556253433228,0.22600769996643066,-0.02722636264327959,0.9212187021497856,0.3871701070854603,-0.026723326254688304
328.0,1.302173601165827,-1.2194235467302756,1.8615128930999059,0.1715698374863292,1.3160646614732159,-0.2222763733242875,-0.016652440652251244,1.0652289390563965,0.22670847177505493,-0.02557743673153632,0.922508378234986,0.3842894901536019,-0.025410127390174786
329.0,1.3046704065844241,-1.2185949462914931,1.8570063983793679,0.18028526200259343,1.3226977541197913,-0.21956597715156756,-0.016700003296136856,1.0652803182601929,0.22743184864521027,-0.0239430735472544,0.9237828996327414,0.3814082083308363,-0.024076174802005804
330.0,1.3071672120030213,-1.2177663458527108,1.8524999036588297,0.1890006865188577,1.3293308467663667,-0.21685558097884755,-0.01675081066787243,1.0653104782104492,0.22817808389663696,-0.022323364887560586,0.9250421602091372,0.3785266299157822,-0.02272134811823661
331.0,1.3096640174216185,-1.2169377454139283,1.8479934089382917,0.19771611103512193,1.3359639394129421,-0.21414518480612754,-0.016805266961455345,1.065319299697876,0.22894686460494995,-0.020718426956311625,0.926286191616421,0.37564475874757997,-0.021346035479113543
332.0,1.3121608228402157,-1.2161091449751458,1.8434869142177537,0.20643153555138616,1.3425970320595173,-0.21143478863340753,-0.016863057389855385,1.0653070211410522,0.22973930835723877,-0.01912841569019363,0.9275149049686168,0.37276292749714957,-0.01995005408503356
333.0,1.314657628258813,-1.2152805445363635,1.8389804194972155,0.21514696006765038,1.3492301247060927,-0.20872439246068755,-0.016923801973462105,1.0652742385864258,0.23055504262447357,-0.017553240857405464,0.9287281592349668,0.3698816173262175,-0.01853319032368223
334.0,1.3171544336774101,-1.214451944097581,1.8344739247766775,0.22386238458391466,1.3558632173526681,-0.20601399628796754,-0.016988001763820648,1.0652202367782593,0.2313944399356842,-0.015992965323319522,0.9299261465774005,0.36700042303017816,-0.017096095096375725
335.0,1.3196512390960073,-1.2136233436587984,1.8299674300561395,0.2325778091001789,1.3624963099992435,-0.20330360011524756,-0.017055079340934753,1.0651459693908691,0.23225776851177216,-0.014447747052358705,0.9311085786719119,0.3641202006990128,-0.015638311021135123
336.0,1.3221480445146045,-1.2127947432200161,1.8254609353356015,0.24129323361644311,1.369129402645819,-0.20059320394252755,-0.017125079408288002,1.0650511980056763,0.23314517736434937,-0.012917423678050868,0.932275578430619,0.36124075085025725,-0.014160012447693715
337.0,1.3246448499332018,-1.2119661427812336,1.8209544406150633,0.25000865813270734,1.3757624952923941,-0.19788280776980754,-0.0171978622674942,1.0649359226226807,0.23405668139457703,-0.011402231615168306,0.9334271073652242,0.35836226775606705,-0.012661334791920519
338.0,1.3271416553517992,-1.2111375423424513,1.8164479458945253,0.25872408264897157,1.3823955879389696,-0.19517241159708756,-0.01727309450507164,1.0648009777069092,0.23499266803264618,-0.009902097044742531,0.9345629989004401,0.35548531114484944,-0.011141953176253761
339.0,1.3296384607703964,-1.2103089419036688,1.8119414511739873,0.26743950716523585,1.389028680585545,-0.19246201542436756,-0.01735123060643673,1.0646460056304932,0.23595333099365234,-0.008417259802656714,0.9356832862097381,0.35260988580864566,-0.009602399448770138
340.0,1.3321352661889936,-1.2094803414648863,1.807434956453449,0.27615493168150007,1.3956617732321204,-0.18975161925164757,-0.017431747168302536,1.06447172164917,0.23693889379501343,-0.006947558379161878,0.9367879738441873,0.3497361025317132,-0.008042516981467253
341.0,1.3346320716075908,-1.208651741026104,1.802928461732911,0.2848703561977643,1.4022948658786958,-0.18704122307892757,-0.01751447282731533,1.0642774105072021,0.2379494309425354,-0.005493106985154638,0.9378769911237812,0.34686425992076975,-0.006462235361625545
342.0,1.337128877026188,-1.2078231405873214,1.7984219670123731,0.2935857807140286,1.408927958525271,-0.18433082690620758,-0.017599646002054214,1.0640640258789062,0.23898524045944214,-0.004053990876473439,0.9389503089177258,0.3439945435436848,-0.004861743869512305
343.0,1.3396256824447852,-1.206994540148539,1.7939154722918351,0.30230120523029275,1.4155610511718464,-0.18162043073348758,-0.017687013372778893,1.0638316869735718,0.24004653096199036,-0.00263035748039175,0.9400079039731748,0.34112712773584736,-0.003241050782502585
344.0,1.3421224878633824,-1.2061659397097566,1.789408977571297,0.3110166297465571,1.4221941438184218,-0.17891003456076757,-0.017776381224393845,1.0635803937911987,0.24113336205482483,-0.0012220209435916886,0.9410496632074327,0.338262439019342,-0.0016001220818728076
345.0,1.3446192932819796,-1.205337339270974,1.784902482850759,0.31973205426282125,1.4288272364649972,-0.17619963838804759,-0.01786789298057556,1.0633102655410767,0.24224603176116943,0.00017076692896333398,0.9420756904744081,0.33540029897573653,6.085071682092235e-05
346.0,1.3389743492499773,-1.2003447520822348,1.77466226209105,0.33700475262111734,1.4281706459890864,-0.18262416819751023,-0.011821359395980835,1.0646792650222778,0.2425842583179474,0.00014816580295821485,0.9440046557518833,0.3299317502957883,0.0004776111605328904
347.0,1.3361518772339762,-1.197848458487865,1.7695421517111956,0.34564110180026536,1.4278423507511309,-0.18583643310224154,-0.008796028792858124,1.0653362274169922,0.2427719682455063,0.00013765864263672454,0.9449563380349206,0.32719575737439005,0.0006607676826184297
348.0,1.333329405217975,-1.1953521648934953,1.7644220413313412,0.35427745097941343,1.4275140555131756,-0.18904869800697285,-0.005769447889178991,1.0659749507904053,0.24297216534614563,0.0001277356777507014,0.9458993854958433,0.3244590146955427,0.0008270338446827257
349.0,1.3305069332019739,-1.1928558712991255,1.7593019309514868,0.36291380015856145,1.42718576027522,-0.1922609629117042,-0.002741534262895584,1.0665959119796753,0.2431846410036087,0.00011829124780883108,0.9468338536362582,0.3217214413380573,0.0009766262623787092
350.0,1.3276844611859726,-1.190359577704756,1.7541818205716322,0.37155014933770947,1.4268574650372647,-0.1954732278164355,0.0002874806523323059,1.0671982765197754,0.24340984225273132,0.00010944858754471263,0.9477597764285078,0.31898301436395166,0.0011093928423240066
351.0,1.3248619891699716,-1.1878632841103862,1.7490617101917778,0.3801864985168575,1.4265291697993092,-0.1986854927211668,0.003317486494779587,1.0677828788757324,0.24364739656448364,0.0001013083392015701,0.9486770601143053,0.31624408927775294,0.0012252944069126009
352.0,1.3220395171539703,-1.1853669905160165,1.7439415998119234,0.38882284769600556,1.426200874561354,-0.20189775762589812,0.00634851586073637,1.0683495998382568,0.24389740824699402,9.360526467687267e-05,0.9495856805570758,0.3135048205472427,0.0013243914265800615
353.0,1.3192170451379692,-1.1828706969216467,1.7388214894320688,0.3974591968751536,1.4258725793233984,-0.20511002253062946,0.00938032940030098,1.068898320198059,0.2441597282886505,8.654993461094796e-05,0.9504857751383137,0.31076487088180305,0.0014066963581327873
354.0,1.316394573121968,-1.1803744033272772,1.7337013790522144,0.40609554605430165,1.425544284085443,-0.20832228743536077,0.01241291407495737,1.0694292783737183,0.24443462491035461,8.01434295683581e-05,0.9513771610957018,0.30802487493431246,0.0014721902781144127
355.0,1.313572101105967,-1.1778781097329074,1.72858126867236,0.41473189523344967,1.4252159888474876,-0.21153455234009208,0.015446122735738754,1.0699424743652344,0.24472206830978394,7.423869180008453e-05,0.952259979541787,0.3052844785541185,0.0015208568742523527
356.0,1.3107496290899656,-1.1753818161385376,1.7234611582925055,0.4233682444125977,1.4248876936095323,-0.21474681724482342,0.018479863181710243,1.070438265800476,0.2450220286846161,6.89831042432966e-05,0.9531341559119672,0.3025439893772416,0.001552600082644468
357.0,1.3079271570739646,-1.172885522544168,1.718341047912651,0.43200459359174576,1.4245593983715767,-0.21795908214955473,0.021514248102903366,1.0709164142608643,0.24533462524414062,6.421739373119074e-05,0.9539996037550434,0.2998037593422494,0.0015677358198467192
358.0,1.3051046850579633,-1.1703892289497984,1.7132209375327967,0.4406409427708938,1.4242311031336214,-0.22117134705428604,0.024549070745706558,1.0713770389556885,0.24565939605236053,6.013349035766059e-05,0.9548565094440041,0.2970632768156243,0.0015659897635938761
359.0,1.3022822130419622,-1.1678929353554286,1.7081008271529423,0.44927729195004185,1.423902807895666,-0.22438361195901735,0.027584265917539597,1.0718203783035278,0.24599716067314148,5.6693229074180815e-05,0.9557046443044614,0.2943233509339285,0.001547493387490474
360.0,1.299459741025961,-1.1653966417610588,1.7029807167730877,0.45791364112918986,1.4235745126577106,-0.2275958768637487,0.0306197889149189,1.0722459554672241,0.24634739756584167,5.381568711414314e-05,0.9565441557583724,0.2915835872546678,0.0015122275204987492
361.0,1.29663726900996,-1.162900348166689,1.6978606063932333,0.4665499903083379,1.423246217419755,-0.23080814176848,0.033655617386102676,1.0726548433303833,0.246709942817688,5.162479514374561e-05,0.9573750126449561,0.2888441626390786,0.0014602079579234017
362.0,1.2938147969939586,-1.1604040545723195,1.692740496013379,0.4751863394874859,1.4229179221817998,-0.2340204066732113,0.036691270768642426,1.073046088218689,0.24708548188209534,5.0057506169888344e-05,0.9581971499113817,0.2861053720108657,0.001391223373692436
363.0,1.2909923249779576,-1.1579077609779498,1.6876203856335243,0.48382268866663397,1.4225896269438443,-0.23723267157794264,0.0397271029651165,1.0734206438064575,0.24747326970100403,4.904228314203811e-05,0.9590105971599276,0.2833671956673578,0.0013055839424322227
364.0,1.2881698529619563,-1.15541146738358,1.68250027525367,0.492459037845782,1.422261331705889,-0.24044493648267395,0.04276277869939804,1.0737779140472412,0.2478736788034439,4.8716847868347674e-05,0.9598154024592549,0.2806295482234319,0.0012031178494946587
365.0,1.2853473809459552,-1.1529151737892103,1.6773801648738156,0.5010953870249301,1.4219330364679335,-0.24365720138740526,0.04579838737845421,1.0741183757781982,0.2482866644859314,4.8890142789674095e-05,0.9606114705202654,0.27789283072087295,0.001083950454372581
366.0,1.282524908929954,-1.1504188801948407,1.672260054493961,0.5097317362040781,1.4216047412299782,-0.24686946629213657,0.04883374646306038,1.0744420289993286,0.2487124800682068,4.9707040523266034e-05,0.9613987987395514,0.2751571345280202,0.0009479608043512114
367.0,1.279702436913953,-1.147922586600471,1.6671399441141066,0.5183680853832261,1.4212764459920226,-0.25008173119686794,0.051868945360183716,1.0747486352920532,0.24915069341659546,5.129361895450802e-05,0.9621774650779807,0.27242226528804936,0.0007952612170930774
368.0,1.2768799648979516,-1.1454262930061012,1.6620198337342522,0.5270044345623741,1.4209481507540673,-0.2532939961015992,0.05490393564105034,1.0750389099121094,0.24960169196128845,5.350069171508715e-05,0.9629473608739088,0.2696886826797039,0.0006259058525296476
369.0,1.2740574928819506,-1.1429299994117317,1.6568997233543978,0.5356407837415222,1.4206198555161118,-0.25650626100633056,0.057938408106565475,1.0753122568130493,0.2500651478767395,5.636519083348265e-05,0.9637085621618809,0.2669561961157788,0.00043976611886394296
370.0,1.2712350208659493,-1.140433705817362,1.6517796129745432,0.5442771329206703,1.4202915602781565,-0.25971852591106187,0.06097238510847092,1.0755690336227417,0.2505412697792053,5.996658850205701e-05,0.9644610357825861,0.26422500030725266,0.00023679911711676084
371.0,1.2684125488499483,-1.1379374122229922,1.6466595025946889,0.5529134820998183,1.419963265040201,-0.2629307908157932,0.06400587409734726,1.0758094787597656,0.2510306239128113,6.411103594229678e-05,0.965204680485112,0.26149554558029137,1.7351473670032542e-05
372.0,1.2805936765902524,-1.1328691427038482,1.6364621170380567,0.5692141113901928,1.4289655372312873,-0.2537340002520543,0.05461161956191063,1.076862096786499,0.2514979839324951,0.0001684643704622595,0.9668823853883708,0.2552222780022895,-0.00011513805571407645
373.0,1.2866842404604046,-1.1303350079442764,1.6313634242597406,0.5773644260353801,1.4334666733268304,-0.24913560497018483,0.04990383982658386,1.0773415565490723,0.25175535678863525,0.0002005841821309984,0.9677041523112118,0.2520885106613914,-0.00012711469902175633
374.0,1.2927748043305567,-1.1278008731847045,1.6262647314814245,0.5855147406805673,1.4379678094223733,-0.24453720968831535,0.04518952593207359,1.0777899026870728,0.2520286738872528,0.0002193968125947684,0.9685144314880996,0.24895730015160994,-0.00010278882793085962
375.0,1.2988653682007087,-1.1252667384251325,1.6211660387031084,0.5936650553257546,1.4424689455179165,-0.2399388144064459,0.04046885296702385,1.0782073736190796,0.25231772661209106,0.00022489919684369307,0.9693132703554788,0.24582866297883701,-4.232204127858786e-05
