beomjoonlee/lg_sgu_vision/robot_ws/src/trajectory_player/trajectory_player/trajectory.csv
time,shoulder_pan_joint,shoulder_lift_joint,elbow_joint,wrist_1_joint,wrist_2_joint,wrist_3_joint,target-POS_X,target-POS_Y,target-POS_Z,target-ROT_X,target-ROT_Y,target-ROT_Z,target-ROT_W
0.0,-0.22915630784602398,-0.8494177969912303,2.248778429845001,-0.9528351472215273,1.3634355552331587,-0.09825222478162388,-0.5608380873163137,-0.05701570898305295,-0.06698034728503532,0.59636084768011,-0.5963601618049711,-0.3799394454876335,0.3799398827824721
1.0,-0.22570065034004738,-0.8498890877766485,2.248339054594121,-0.952220706539031,1.366553900278628,-0.096734077442824,-0.5609570992394175,-0.05859132575215429,-0.06671681239022291,0.5963645269232783,-0.5963621567047424,-0.3799354569469117,0.3799349650039915
2.0,-0.22397282158705908,-0.8501247331693575,2.2481193669686808,-0.9519134861977828,1.3681130728013629,-0.09597500377342406,-0.56101466942767,-0.05937971269334592,-0.06658474937138632,0.5963659133955564,-0.5963629021950799,-0.3799339610300616,0.37993311448379036
3.0,-0.22224499283407081,-0.8503603785620666,2.247899679343241,-0.9516062658565346,1.3696722453240975,-0.09521593010402414,-0.5610709474390954,-0.06016848246107534,-0.06645248939997686,0.5963669976274216,-0.5963634802019997,-0.37993279581674155,0.3799316705475974
4.0,-0.22051716408108252,-0.8505960239547757,2.247679991717801,-0.9512990455152864,1.3712314178468321,-0.0944568564346242,-0.5611259320321803,-0.06095763289262094,-0.06632003254765906,0.596367779513942,-0.5963638910928313,-0.37993196015608255,0.3799306339454413
5.0,-0.21878933532809422,-0.8508316693474848,2.247460304092361,-0.9509918251740384,1.3727905903695667,-0.09369778276522427,-0.5611796219689869,-0.06174716182182471,-0.06618737888640144,0.5963682589507651,-0.5963641352349986,-0.3799314528958129,0.379930005424581
6.0,-0.21706150657510592,-0.8510673147401939,2.2472406164669207,-0.9506846048327902,1.3743497628923014,-0.09293870909582433,-0.5612320160151621,-0.06253706707909754,-0.06605452848847491,0.5963684358341187,-0.596364212996019,-0.37993127288226597,0.3799297857295034
7.0,-0.21533367782211763,-0.851302960132903,2.2470209288414806,-0.950377384491542,1.3759089354150362,-0.09217963542642439,-0.5612831129399477,-0.0633273464914248,-0.06592148142645371,0.5963683100608106,-0.5963641247435026,-0.3799314189603855,0.3799299756019219
8.0,-0.21360584906912933,-0.851538605525612,2.2468012412160405,-0.9500701641502939,1.3774681079377709,-0.09142056175702445,-0.5613329115161885,-0.0641179978823723,-0.06578823777321388,0.5963678815282278,-0.5963638708451509,-0.3799318899737329,0.3799305757807723
9.0,-0.21187802031614106,-0.8517742509183212,2.2465815535906004,-0.9497629438090457,1.3790272804605055,-0.09066148808762453,-0.5613814105203412,-0.06490901907209148,-0.06565479760193402,0.5963671501343384,-0.5963634516687562,-0.37993268476449293,0.3799315870022115
10.0,-0.21015019156315276,-0.8520098963110302,2.2463618659651607,-0.9494557234677975,1.3805864529832401,-0.0899024144182246,-0.5614286087324842,-0.0657004078773256,-0.06552116098609448,0.5963661157776897,-0.5963628675822011,-0.3799338021734808,0.379933009999615
11.0,-0.20842236281016446,-0.8522455417037392,2.2461421783397206,-0.9491485031265493,1.382145625505975,-0.08914334074882466,-0.5614745049363268,-0.066492162111415,-0.06538732799947697,0.596364778357409,-0.5963621189534578,-0.3799352410401483,0.3799348455035741
12.0,-0.20669453405717617,-0.8524811870964484,2.2459224907142805,-0.9488412827853012,1.3837047980287096,-0.08838426707942472,-0.5615190979192167,-0.06728427958430314,-0.06525329871616428,0.596363137773204,-0.5963612061505859,-0.3799370002025902,0.37993709424189404
13.0,-0.20496670530418787,-0.8527168324891574,2.2457028030888404,-0.948534062444053,1.3852639705514442,-0.08762519341002478,-0.5615623864721503,-0.0680767581025424,-0.06511907321054089,0.5963611939253627,-0.5963601295417333,-0.3799390784975503,0.379939756939591
14.0,-0.20777155007311562,-0.8524742844473766,2.2439899467828983,-0.9450605921245842,1.3829536380256353,-0.08928715029785585,-0.5623978649627843,-0.06657896668056694,-0.06511418672384031,0.5967127822671039,-0.5966755315581352,-0.3794542482520747,0.37937664530426984
15.0,-0.2091739724575795,-0.8523530104264863,2.2431335186299273,-0.9433238569648498,1.381798471762731,-0.09011812874177139,-0.5628138309659712,-0.06582853729549042,-0.06511094920422031,0.5968874160208735,-0.5968333858700618,-0.37921105067080774,0.3790966910379788
16.0,-0.21057639484204335,-0.8522317364055958,2.242277090476956,-0.9415871218051154,1.3806433054998264,-0.09094910718568691,-0.5632286122721913,-0.06507708804107301,-0.06510718179091696,0.5970612755901267,-0.5969913415016587,-0.378967335349381,0.3788178059449299
17.0,-0.21197881722650724,-0.8521104623847054,2.2414206623239847,-0.9398503866453809,1.379488139236922,-0.09178008562960245,-0.5636422069844903,-0.06432462085587187,-0.0651028842028796,0.5972343605465777,-0.5971493977903037,-0.37872310521497704,0.37853999112052067
18.0,-0.2133812396109711,-0.8519891883638151,2.2405642341710137,-0.9381136514856465,1.3783329729740175,-0.09261106407351798,-0.5640546132096824,-0.06357113768124746,-0.06509805615992169,0.5974066704631816,-0.597307554072965,-0.3784783631971901,0.3782632476530643
19.0,-0.21478366199543497,-0.8518679143429246,2.2397078060180426,-0.9363769163259121,1.3771778067111131,-0.09344204251743352,-0.5644658290583503,-0.06281664046135509,-0.06509269738272207,0.5975782049141368,-0.5974658096862046,-0.37823311222800926,0.37798757662378296
20.0,-0.21618608437989886,-0.8517466403220343,2.2388513778650716,-0.9346401811661776,1.3760226404482085,-0.09427302096134904,-0.5648758526448481,-0.06206113114313527,-0.0650868075928265,0.5977489634748842,-0.5976241639661778,-0.3779873552418024,0.37771297910680307
21.0,-0.21758850676436273,-0.8516253663011439,2.2379949497121006,-0.9329034460064433,1.3748674741853042,-0.09510399940526458,-0.5652846820873005,-0.06130461167630552,-0.06508038651264995,0.5979189457221078,-0.5977826162486368,-0.37774109517529914,0.3774394561691496
22.0,-0.2189909291488266,-0.8515040922802535,2.237138521559129,-0.9311667108467089,1.3737123079223998,-0.0959349778491801,-0.5656923155076073,-0.06054708401335054,-0.06507343386547756,0.5980881512337374,-0.5979411658689303,-0.37749433496757573,0.37716700887074167
23.0,-0.22039335153329048,-0.8513828182593631,2.236282093406158,-0.9294299756869744,1.3725571416594953,-0.09676595629309565,-0.5660987510314424,-0.05978855010951364,-0.06506594937546663,0.5982565795889468,-0.5980998121620059,-0.3772470775600372,0.37689563826438593
24.0,-0.22179577391775435,-0.8512615442384727,2.235425665253187,-0.92769324052724,1.371401975396591,-0.09759693473701117,-0.5665039867882566,-0.059029011922787734,-0.06505793276764812,0.598424230368156,-0.5982585544624109,-0.3769993258964021,0.3766253453957725
25.0,-0.2231981963022182,-0.8511402702175823,2.234569237100216,-0.9259565053675056,1.3702468091336863,-0.09842791318092671,-0.5669080209112789,-0.058268471413906155,-0.0650493837679282,0.5985911031530313,-0.5984173921042948,-0.3767510829226861,0.3763561313034703
26.0,-0.22460061868668207,-0.851018996196692,2.233712808947245,-0.9242197702077712,1.369091642870782,-0.09925889162484224,-0.5673108515375176,-0.05750693054633384,-0.06504030210309036,0.5987571975264867,-0.5985763244214095,-0.37650235158718487,0.3760879970189199
27.0,-0.22600304107114597,-0.8508977221758015,2.232856380794274,-0.9224830350480367,1.3679364766078774,-0.10008987006875777,-0.5677124768077615,-0.056744391286258376,-0.06503068750079649,0.5989225130726837,-0.5987353507471117,-0.37625313484045797,0.37582094356643064
28.0,-0.22740546345560983,-0.8507764481549112,2.2319999526413024,-0.9207462998883024,1.366781310344973,-0.1009208485126733,-0.5681128948665821,-0.05598085560258082,-0.0650205396895886,0.5990870493770326,-0.5988944704143635,-0.3760034356353134,0.37555497196317456
29.0,-0.22880788584007372,-0.8506551741340208,2.2311435244883313,-0.919009564728568,1.3656261440820687,-0.10175182695658884,-0.5685121038623339,-0.055216325466907364,-0.06500985839889077,0.5992508060261927,-0.5990536827557348,-0.3757532569267893,0.37529008321918145
30.0,-0.23021030822453759,-0.8505339001131303,2.2302870963353603,-0.9172728295688335,1.3644709778191642,-0.10258280540050436,-0.568910101947156,-0.05445080285353975,-0.06499864335901051,0.5994137826080737,-0.599212987103404,-0.37550260167213884,0.3750262783373341
31.0,-0.23161273060900145,-0.85041262609224,2.229430668182389,-0.9155360944090991,1.3633158115562598,-0.1034137838444199,-0.5693068872769743,-0.05368428973946659,-0.06498689430114024,0.599575978711836,-0.5993723827891597,-0.3752514728308143,0.37476355831336355
32.0,-0.2330151529934653,-0.8502913520713495,2.228574240029418,-0.9137993592493647,1.3621606452933552,-0.10424476228833543,-0.5697024580115011,-0.05291678810435474,-0.06497461095735929,0.5997373939278907,-0.5995318691444023,-0.3749998733644485,0.3745019241358435
33.0,-0.2344175753779292,-0.8501700780504592,2.227717811876447,-0.9120626240896302,1.3610054790304509,-0.10507574073225097,-0.5700968123142384,-0.05214829993053988,-0.06496179306063526,0.5998980278479015,-0.599691445500145,-0.37474780623684084,0.37424137678618635
34.0,-0.23581999776239307,-0.8500488040295688,2.2268613837234756,-0.9103258889298959,1.3598503127675463,-0.10590671917616651,-0.5704899483524768,-0.05137882720301817,-0.06494844034482572,0.6000578800647848,-0.5998511111870157,-0.3744952744139389,0.37398191723863805
35.0,-0.23722242014685696,-0.8499275300086784,2.2260049555705046,-0.9085891537701615,1.358695146504642,-0.10673769762008203,-0.5708818642972979,-0.05060837190943726,-0.0649345525446797,0.6002169501727103,-0.6000108655352588,-0.37424228086382255,0.3737235464602728
36.0,-0.23862484253132082,-0.849806255987788,2.2251485274175336,-0.906852418610427,1.3575399802417374,-0.10756867606399756,-0.5712725583235759,-0.04983693604008726,-0.06492012939583928,0.6003752377671016,-0.6001707078747353,-0.37398882855668814,0.3734662654109894
37.0,-0.2400272649157847,-0.8496849819668977,2.2242920992645625,-0.9051156834506926,1.356384813978833,-0.1083996545079131,-0.5716620286099776,-0.049064521587891895,-0.0649051706348413,0.6005327424446374,-0.6003306375349254,-0.37373492046483114,0.37321007504350556
38.0,-0.24142968730024855,-0.8495637079460072,2.2234356711115915,-0.9033789482909582,1.3552296477159287,-0.10923063295182864,-0.5720502733389647,-0.04829113054840007,-0.06488967599911925,0.6006894638032515,-0.6004906538449302,-0.37348055956263,0.37295497630335406
39.0,-0.24283210968471244,-0.8494424339251169,2.2225792429586204,-0.9016422131312237,1.3540744814530241,-0.11006161139574416,-0.5724372906967936,-0.04751676491977661,-0.06487364522700415,0.600845401442134,-0.6006507561334715,-0.37322574882652915,0.3727009701288773
40.0,-0.2442345320691763,-0.8493211599042264,2.2217228148056494,-0.8999054779714893,1.3529193151901198,-0.1108925898396597,-0.5728230788735174,-0.046741426702793784,-0.06485707805772664,0.6010005549617315,-0.6008109437288955,-0.3729704912350232,0.3724480574512235
41.0,-0.24563695445364017,-0.8491998858833361,2.220866386652678,-0.898168742811755,1.3517641489272152,-0.11172356828357523,-0.5732076360629866,-0.0459651179008223,-0.06483997423141827,0.6011549239637484,-0.6009712159591726,-0.37271478976864003,0.37219623919434186
42.0,-0.24703937683810406,-0.8490786118624457,2.220009958499707,-0.8964320076520205,1.3506089826643108,-0.11255454672749077,-0.5735909604628493,-0.04518784051982292,-0.06482233348911387,0.6013085080511469,-0.6011315721518994,-0.3724586474099239,0.3719455162749776
43.0,-0.24844179922256793,-0.8489573378415552,2.219153530346736,-0.8946952724922861,1.3494538164014063,-0.11338552517140629,-0.5739730502745541,-0.04440959656833714,-0.06480415557275207,0.6014613068281479,-0.6012920116342999,-0.3722020671434194,0.3716958896026683
44.0,-0.2498442216070318,-0.8488360638206649,2.2182971021937647,-0.8929585373325517,1.348298650138502,-0.11421650361532183,-0.5743539037033495,-0.043630388057478944,-0.0647854402251771,0.6016133199002318,-0.6014525337332277,-0.37194505195565486,0.3714473600797389
45.0,-0.25124664399149566,-0.8487147897997744,2.2174406740407937,-0.8912218021728172,1.3471434838755973,-0.11504748205923736,-0.5747335189582847,-0.04285021700092584,-0.06476618719014104,0.6017645468741392,-0.6016131377751666,-0.3716876048351251,0.37119992860129764
46.0,-0.2526490663759595,-0.8485935157788841,2.2165842458878227,-0.8894850670130828,1.345988317612693,-0.1158784605031529,-0.5751118942522119,-0.04206908541491017,-0.06474639621230469,0.601914987357871,-0.6017738230862322,-0.37142972877227576,0.37095359605523137
47.0,-0.25405148876042344,-0.8484722417579937,2.215727817734851,-0.8877483318533484,1.3448331513497886,-0.11670943894706842,-0.5754890278017852,-0.04128699531821054,-0.06472606703723957,0.6020646409606899,-0.6019345889921742,-0.37117142675948606,0.3707083633222016
48.0,-0.2554539111448873,-0.8483509677371033,2.21487138958188,-0.886011596693614,1.343677985086884,-0.11754041739098396,-0.5758649178274633,-0.040503948732143184,-0.06470519941142949,0.6022135072931202,-0.6020954348183769,-0.37091270179105174,0.3704642312756399
49.0,-0.25685633352935117,-0.8482296937162129,2.214014961428909,-0.8842748615338796,1.3425228188239797,-0.11837139583489949,-0.5762395625535092,-0.039719947680552876,-0.06468379308227132,0.6023615859669497,-0.6022563598898609,-0.3706535568631703,0.37022120078174386
50.0,-0.25825875591381503,-0.8481084196953226,2.213158533275938,-0.8825381263741452,1.3413676525610752,-0.11920237427881503,-0.5766129602079914,-0.038934994189804804,-0.06466184779807779,0.602508876595228,-0.6024173635312847,-0.3703939949739218,0.36997927269947284
51.0,-0.2596611782982789,-0.8479871456744321,2.212302105122967,-0.8808013912144108,1.3402124862981708,-0.12003335272273055,-0.5769851090227847,-0.038149090288775604,-0.06463936330807801,0.6026553787922699,-0.602578445066946,-0.3701340191232542,0.36973844788054366
52.0,-0.2610636006827428,-0.8478658716535418,2.211445676969996,-0.8790646560546763,1.3390573200352662,-0.12086433116664609,-0.5773560072335706,-0.0373622380088448,-0.06461633936241931,0.6028010921736547,-0.6027396038207838,-0.3698736323129662,0.36949872716942683
53.0,-0.2624660230672067,-0.8477445976326513,2.2105892488170245,-0.8773279208949419,1.3379021537723619,-0.12169530961056163,-0.5777256530798388,-0.03657443938388633,-0.06459277571216934,0.6029460163562261,-0.6029008391163786,-0.36961283754668994,0.3692601114033419
54.0,-0.26386844545167054,-0.847623323611761,2.2097328206640534,-0.8755911857352076,1.3367469875094575,-0.12252628805447716,-0.5780940448048864,-0.03578569645025987,-0.06456867210931719,0.6030901509580944,-0.6030621502769551,-0.3693516378298747,0.369022601412254
55.0,-0.2652708678361344,-0.8475020495908706,2.2088763925110824,-0.8738544505754731,1.335591821246553,-0.12335726649839268,-0.5784611806558202,-0.034996011246802114,-0.06454402830677422,0.6032334955986363,-0.603223536625383,-0.3690900361697705,0.36878619801886947
56.0,-0.26667329022059827,-0.8473807755699801,2.2080199643581113,-0.8721177154157387,1.3344366549836486,-0.12418824494230822,-0.5788270588835569,-0.03420538581481843,-0.06451884405837723,-0.603376049898495,0.6033849974841788,0.36882803557541133,-0.3685509020386318
57.0,-0.26807571260506213,-0.8472595015490898,2.2071635362051403,-0.8703809802560043,1.333281488720744,-0.12501922338622376,-0.5791916777428229,-0.03341382219807412,-0.06449311911888835,-0.6035178134795827,0.6035465321755072,0.3685656390575981,-0.3683167142797181
58.0,-0.269478134989526,-0.8471382275281995,2.2063071080521692,-0.8686442450962698,1.3321263224578397,-0.12585020183013929,-0.5795550354921559,-0.03262132244278609,-0.06446685324399752,-0.6036587859650785,0.6037081400211819,0.368302849628882,-0.36808363554303475
59.0,-0.27088055737398986,-0.847016953507309,2.2054506798991977,-0.8669075099365354,1.3309711561949351,-0.1266811802740548,-0.5799171303939051,-0.03182788859761404,-0.06444004619032388,-0.6037989669794317,0.6038698203426681,0.3680396703035485,-0.3678516666222139
60.0,-0.2722829797584538,-0.8468956794864186,2.2045942517462267,-0.865170774776801,1.3298159899320308,-0.12751215871797034,-0.5802779607142317,-0.0310335227136523,-0.06441269771541697,-0.6039383561483602,0.6040315724610836,0.36777610409759914,-0.367620808303609
61.0,-0.27368540214291764,-0.8467744054655282,2.2037378235932557,-0.8634340396170666,1.3286608236691262,-0.1283431371618859,-0.5806375247231088,-0.030238226844421207,-0.06438480757775886,-0.6040769530988533,0.6041933956972001,0.36751215402873644,-0.367391061366292
62.0,-0.2750878245273815,-0.8466531314446378,2.2028813954402846,-0.8616973044573322,1.3275056574062218,-0.12917411560580142,-0.5809958206943239,-0.02944200304585833,-0.06435637553676479,-0.6042147574591702,0.6043552893714448,0.36724782311634624,-0.36716242658204895
63.0,-0.27772450212485067,-0.8467999228194488,2.201992212993173,-0.8582161481907044,1.3255549569514344,-0.1311284202800743,-0.5812354096504178,-0.02804472367537565,-0.06420747249399059,-0.6046261758648253,0.6047141873317455,0.36666922671263114,-0.36647185059803
64.0,-0.2790428409235852,-0.8468733185068544,2.2015476217696173,-0.8564755700573905,1.3245796067240407,-0.13210557261721073,-0.5813537742613519,-0.027345704855862095,-0.06413234492021931,-0.6048306512533802,0.6048936691350271,0.36637895971520335,-0.36612837942828447
65.0,-0.2803611797223198,-0.8469467141942599,2.2011030305460615,-0.8547349919240766,1.323604256496647,-0.13308272495434714,-0.5814711855711115,-0.026646434956448032,-0.06405676632060833,-0.605034303610185,0.605073172237883,0.36608805127279576,-0.36578612112573433
66.0,-0.28167951852105433,-0.8470201098816654,2.2006584393225057,-0.8529944137907628,1.3226289062692533,-0.13405987729148358,-0.5815876435398631,-0.02594691523238018,-0.06398073645321434,-0.6052371325699376,0.605252696203203,0.3657965047025073,-0.36544507691950345
67.0,-0.28299785731978894,-0.8470935055690709,2.20021384809895,-0.8512538356574488,1.3216535560418599,-0.13503702962862002,-0.5817031481297535,-0.025247146937329143,-0.06390425507709258,0.6054391377684362,-0.6054322405936955,-0.3655043233238521,0.36510524803059635
68.0,-0.2843161961185235,-0.8471669012564765,2.1997692568753937,-0.849513257524135,1.3206782058144662,-0.13601418196575646,-0.5818176993049035,-0.024547131323384784,-0.06382732195229747,0.6056403188425795,-0.6056118049718902,-0.3652115104587418,0.364766635671894
69.0,-0.28563453491725804,-0.847240296943882,2.199324665651838,-0.8477726793908211,1.3197028555870725,-0.1369913343028929,-0.5819312970313962,-0.023846869641052707,-0.06374993683988445,0.6058406754303679,-0.6057913889001384,-0.364918069431465,0.3644292410481485
70.0,-0.28695287371599265,-0.8473136926312875,2.198880074428282,-0.8460321012575072,1.3187275053596788,-0.13796848664002934,-0.5820439412772712,-0.023146363139249133,-0.06367209950191155,0.6060402071709022,-0.6059709919406142,-0.3646240035686697,0.3640930653559783
71.0,-0.2882712125147272,-0.847387088318693,2.1984354832047264,-0.8442915231241933,1.317752155132285,-0.13894563897716575,-0.5821556320125141,-0.022445613065297545,-0.0635938097014413,0.6062389137043867,-0.6061506136553144,-0.3643293161993436,0.363758109783864
72.0,-0.28958955131346176,-0.8474604840060986,2.1979908919811706,-0.8425509449908795,1.3167768049048914,-0.1399227913143022,-0.5822663692090483,-0.021744620664924025,-0.06351506720254127,0.6064367946721269,-0.6063302536060609,-0.3640340106547953,0.3634243755121432
73.0,-0.2909078901121963,-0.8475338796935041,2.197546300757615,-0.8408103668575655,1.3158014546774977,-0.14089994365143862,-0.582376152840725,-0.021043387182253855,-0.0634358717702871,0.6066338497165322,-0.6065099113544997,-0.3637380902686342,0.3630918637130051
74.0,-0.2922262289109309,-0.8476072753809096,2.197101709534059,-0.8390697887242516,1.314826104450104,-0.14187709598857506,-0.5824849828833158,-0.0203419138598066,-0.06335622317076278,0.6068300784811155,-0.6066895864621044,-0.36344155837675335,0.3627605755504875
75.0,-0.29354456770966547,-0.8476806710683151,2.1966571183105033,-0.8373292105909378,1.3138507542227102,-0.1428542483257115,-0.5825928593145036,-0.019640201938493154,-0.06327612117106289,0.6070254806104937,-0.6068692784901739,-0.3631444183173085,0.3624305121804706
76.0,-0.2948629065084,-0.8477540667557207,2.1962125270869475,-0.8355886324576239,1.3128754039953165,-0.14383140066284794,-0.5826997821138727,-0.018938252657610805,-0.06319556553929395,0.6072200557503881,-0.6070489869998361,-0.36284667343070054,0.3621016747506738
77.0,-0.29618124530713463,-0.8478274624431262,2.1957679358633917,-0.83384805432431,1.311900053767923,-0.14480855299998435,-0.5828057512629008,-0.018236067254839845,-0.06311455604457601,0.6074138035476252,-0.6072287115520473,-0.36254832705955514,0.3617740644006496
78.0,-0.2974995841058692,-0.8479008581305317,2.195323344639836,-0.8321074761909961,1.3109247035405294,-0.1457857053371208,-0.5829107667449501,-0.017533646966239932,-0.06303309245704385,0.6076067236501367,-0.6074084517075932,-0.3622493825487044,0.3614476822617809
79.0,-0.29881792290460374,-0.8479742538179372,2.19487875341628,-0.8303668980576823,1.3099493533131357,-0.14676285767425723,-0.5830148285452581,-0.01683099302624544,-0.06295117454784915,0.6077988157069608,-0.6075882070270897,-0.36194984324516777,0.36112252945727513
80.0,-0.3001362617033383,-0.8480476495053427,2.1944341621927244,-0.8286263199243683,1.308974003085742,-0.14774001001139367,-0.5831179366509281,-0.016128106667662307,-0.06286880208916153,0.6079900793682417,-0.6077679770709854,-0.3616497124981324,0.36079860710216094
81.0,-0.3014546005020729,-0.8481210451927483,2.193989570969168,-0.8268857417910545,1.3079986528583483,-0.1487171623485301,-0.5832200910509222,-0.015424989121664172,-0.06278597485417034,0.6081805142852307,-0.6079477613995597,-0.3613489936589347,0.360475916303283
82.0,-0.30277293930080745,-0.8481944408801538,2.1935449797456124,-0.8251451636577406,1.3070233026309546,-0.14969431468566655,-0.5833212917360494,-0.01472164161778854,-0.0627026926170858,0.6083701201102868,-0.6081275595729261,-0.3610476900810404,0.36015445815929825
83.0,-0.304091278099542,-0.8482678365675593,2.1931003885220566,-0.8234045855244267,1.3060479524035609,-0.15067146702280299,-0.5834215386989596,-0.014018065383932896,-0.06261895515314139,0.6085588964968763,-0.6083073711510316,-0.360745805120026,0.3598342337606714
84.0,-0.3054096168982766,-0.8483412322549648,2.192655797298501,-0.8216640073911128,1.3050726021761672,-0.1516486193599394,-0.5835208319341326,-0.013314261646351452,-0.062534762238594,0.6087468430995747,-0.6084871956936587,-0.36044334213355966,0.35951524418967096
85.0,-0.30672795569701117,-0.8484146279423704,2.192211206074945,-0.8199234292577989,1.3040972519487735,-0.15262577169707583,-0.5836191714378705,-0.01261023162965121,-0.062450113650726724,0.6089339595740655,-0.6086670327604252,-0.3601403044813817,0.3591974905203649
86.0,-0.3080462944957457,-0.8484880236297759,2.1917666148513892,-0.8181828511244851,1.3031219017213798,-0.15360292403421227,-0.5837165572082867,-0.011905976556788461,-0.062365009167849594,0.609120245577142,-0.608846881910786,-0.3598366955252856,0.35888097381861656
87.0,-0.3093646332944803,-0.8485614193171814,2.1913220236278335,-0.8164422729911711,1.302146551493986,-0.1545800763713487,-0.5838129892453001,-0.011201497649065266,-0.062279448569301614,0.6093057007667075,-0.6090267427040336,-0.3595325186290985,0.35856569514208064
88.0,-0.3106829720932149,-0.8486348150045869,2.1908774324042777,-0.8147016948578573,1.3011712012665926,-0.15555722870848515,-0.5839084675506224,-0.0104967961261259,-0.06219343163545158,0.6094903248017747,-0.6092066146992987,-0.35922777715866283,0.35825165554019883
89.0,-0.31200131089194943,-0.8487082106919925,2.190432841180722,-0.8129611167245434,1.3001958510391989,-0.1565343810456216,-0.5840029921277524,-0.009791873205953525,-0.06210695814770032,0.609674117342468,-0.6093864974555518,-0.3589224744818162,0.3579388560541968
90.0,-0.313319649690684,-0.848781606379398,2.189988249957166,-0.8112205385912294,1.2992205008118052,-0.15751153338275803,-0.5840965629819641,-0.009086730104866513,-0.06202002788848183,0.6098570780500228,-0.6095663905316037,-0.3586166139683728,0.35762729771707896
91.0,-0.3146379884894186,-0.8488550020668035,2.1895436587336103,-0.8094799604579156,1.2982451505844115,-0.15848868571989444,-0.5841891801203,-0.008381368037515172,-0.061932640641264435,0.610039206586785,-0.6097462934861061,-0.3583101989901034,0.3573169815536252
92.0,-0.31595632728815315,-0.848928397754209,2.1890990675100546,-0.8077393823246017,1.2972698003570178,-0.15946583805703088,-0.5842808435515602,-0.0076757882168784295,-0.06184479619055281,0.6102205026162145,-0.6099262058775526,-0.3580032329207173,0.3570079085803874
93.0,-0.3172746660868877,-0.8490017934416145,2.188654476286499,-0.8059988041912878,1.296294450129624,-0.16044299039416732,-0.584371553286295,-0.006969991854260327,-0.061756494321889455,0.6104009658028824,-0.6101061272642808,-0.3576957191358425,0.3567000798056851
94.0,-0.31859300488562226,-0.8490751891290201,2.1882098850629426,-0.8042582260579739,1.2953190999022304,-0.16142014273130376,-0.5844613093367945,-0.006263980159286859,-0.06166773482185584,0.6105805958124729,-0.610286057204471,-0.3573876610130063,0.35639349622960176
95.0,-0.3199113436843568,-0.8491485848164256,2.187765293839387,-0.8025176479246601,1.2943437496748367,-0.1623972950684402,-0.5845501117170796,-0.005557754339903007,-0.06157851747807365,0.6107593923117847,-0.6104659952561491,-0.3570790619316157,0.35608815884398104
96.0,-0.3212296824830914,-0.8492219805038311,2.187320702615831,-0.8007770697913462,1.293368399447443,-0.1633744474055766,-0.5846379604428942,-0.004851315602368789,-0.06148884207920722,0.610937354968729,-0.6106459409771863,-0.3567699252729393,0.3557840686324236
97.0,-0.32254802128182597,-0.8492953761912366,2.1868761113922752,-0.7990364916580323,1.2923930492200493,-0.16435159974271307,-0.5847248555316942,-0.00414466515125695,-0.06139870841496408,0.6111144834523328,-0.6108258939253004,-0.35646025442008733,0.3554812265702828
98.0,-0.3238663600805605,-0.8493687718786422,2.1864315201687194,-0.7972959135247184,1.2914176989926556,-0.16532875207984948,-0.5848107970026403,-0.0034378041894489787,-0.06130811627609642,0.6112907774327367,-0.6110058536580567,-0.3561500527579924,0.35517963362466176
99.0,-0.32518469887929513,-0.8494421675660477,2.1859869289451637,-0.7955553353914046,1.290442348765262,-0.16630590441698592,-0.5848957848765874,-0.0027307339181326202,-0.06121706545440345,0.6114662365811976,-0.6111858197328689,-0.35583932367339,0.3548792907544092
100.0,-0.3265030376780297,-0.8495155632534532,2.185542337721608,-0.7938147572580906,1.2894669985378684,-0.16728305675412236,-0.584979819176076,-0.002023455536798797,-0.061125555742731805,0.6116408605700874,-0.6113657917069997,-0.3555280705547998,0.3545801989101162
101.0,-0.32782137647676424,-0.8495889589408587,2.185097746498052,-0.7920741791247767,1.2884916483104747,-0.1682602090912588,-0.5850628999253233,-0.0013159702432380817,-0.06103358693497729,0.6118146490728947,-0.6115457691375624,-0.35521629679250605,0.35428235903411304
102.0,-0.3291397152754988,-0.8496623546282643,2.1846531552744963,-0.7903336009914629,1.287516298083081,-0.16923736142839524,-0.5851450271502135,-0.0006082792335381492,-0.0609411588260871,0.6119876017642244,-0.6117257515815209,-0.35490400577853815,0.35398577206046533
103.0,-0.3304580540742334,-0.8497357503156698,2.1842085640509405,-0.788593022858149,1.2865409478556873,-0.17021451376553165,-0.5852262008782894,9.961629791939001e-05,-0.060848271212059914,0.6121597183197988,-0.6119057385956915,-0.3545912009066515,0.35369043891497076
104.0,-0.33177639287296795,-0.8498091460030753,2.1837639728273848,-0.7868524447248351,1.2855655976282936,-0.1711916661026681,-0.585306421138742,0.0008077151584614693,-0.0607549238899484,0.6123309984164571,-0.6120857297367431,-0.3542778855723082,0.3533963605151558
105.0,-0.3330947316717025,-0.8498825416904808,2.183319381603829,-0.7851118665915212,1.2845902474008999,-0.17216881843980453,-0.5853856879624029,0.001516016157127327,-0.06066111665786058,0.6125014417321574,-0.612265724561198,-0.3539640631726579,0.35310353777027287
106.0,-0.3344130704704371,-0.8499559373778864,2.1828747903802728,-0.7833712884582074,1.2836148971735062,-0.17314597077694097,-0.5854640013817342,0.0022245181046705387,-0.06056684931495958,0.612671047945975,-0.6124457226254335,-0.35364973710651837,0.35281197158129635
107.0,-0.33573140926917167,-0.8500293330652919,2.182430199156717,-0.7816307103248934,1.2826395469461125,-0.1741231231140774,-0.5855413614308185,0.002933219813561818,-0.0604721216614684,0.6128398167381056,-0.612625723485683,-0.3533349107743554,0.3525216628409196
108.0,-0.3370497480679062,-0.8501027287526974,2.181985607933161,-0.7798901321915795,1.2816641967187188,-0.17510027545121384,-0.5856177681453514,0.0036421200979925095,-0.06037693349866792,0.6130077477898623,-0.6128057266980352,-0.35301958757826474,0.35223261243355225
109.0,-0.33836808686664077,-0.8501761244401029,2.1815410167096054,-0.7781495540582657,1.280688846491325,-0.17607742778835028,-0.5856932215626317,0.004351217773876589,-0.06028128462890028,0.6131748407836797,-0.6129857318184372,-0.3527037709219524,0.35194482123531695
110.0,-0.3396864256653754,-0.8502495201275084,2.1810964254860497,-0.7764089759249517,1.2797134962639316,-0.1770545801254867,-0.5857677217215516,0.005060511658853749,-0.06018517485556935,0.6133410954031111,-0.6131657384026934,-0.35238746421071454,0.3516582901140456
111.0,-0.34100476446410993,-0.850322915814914,2.180651834262494,-0.7746683977916379,1.278738146036538,-0.17803173246262313,-0.5858412686625876,0.0057700005722919005,-0.06008860398314299,0.6135065113328311,-0.6133457460064676,-0.35207067085141874,0.35137301992927744
112.0,-0.3423231032628445,-0.8503963115023195,2.180207243038938,-0.772927819658324,1.2777627958091442,-0.17900888479975957,-0.5859138624277918,0.00647968333528971,-0.05999157181715379,0.6136710882586354,-0.6135257541852843,-0.351753394252485,0.3510890115322553
113.0,-0.3436414420615791,-0.850469707189725,2.1797626518153823,-0.7711872415250101,1.2767874455817505,-0.179986037136896,-0.5859855030607823,0.007189558770679272,-0.05989407816420082,0.6138348258674404,-0.6137057624945282,-0.35143563782386533,0.35080626576592305
114.0,-0.34495978086031365,-0.8505431028771305,2.1793180605918265,-0.7694466633916962,1.2758120953543568,-0.18096318947403245,-0.5860561906067349,0.007899625703028788,-0.0597961228319503,0.6139977238472853,-0.6138857704894463,-0.35111740497702576,0.35052478346492244
115.0,-0.3462781196590482,-0.8506164985645361,2.1788734693682708,-0.7677060852583824,1.274836745126963,-0.18194034181116886,-0.5861259251123707,0.00860988295864485,-0.05969770562913835,0.614159781887331,-0.6140657777251478,-0.3507986991249255,0.3502445654555905
116.0,-0.34759645845778275,-0.8506898942519416,2.178428878144715,-0.7659655071250685,1.2738613948995694,-0.18291749414830533,-0.5861947066259516,0.009320329365574857,-0.05959882636557078,0.6143209996778609,-0.614245783756606,-0.3504795236819985,0.3499656125559566
117.0,-0.34891479725651736,-0.8507632899393471,2.177984286921159,-0.7642249289917545,1.2728860446721757,-0.18389464648544174,-0.5862625351972673,0.01003096375360965,-0.059499484852126146,0.6144813769102817,-0.614425788138659,-0.35015988206413357,0.3496879255757399
118.0,-0.3502331360552519,-0.8508366856267526,2.1775396956976034,-0.7624843508584407,1.271910694444782,-0.18487179882257818,-0.5863294108776275,0.010741784954285767,-0.059399680900755536,0.6146409132771241,-0.6146057904260094,-0.3498397776886558,0.3494115053163462
119.0,-0.35155147485398647,-0.8509100813141582,2.177095104474047,-0.7607437727251268,1.2709353442173883,-0.18584895115971461,-0.5863953337198518,0.011452791800887959,-0.05929941432448449,0.6147996084720421,-0.6147857901732268,-0.34951921397430624,0.3491363525708663
120.0,-0.3528698136527211,-0.8509834770015637,2.1766505132504914,-0.759003194591813,1.2699599939899948,-0.18682610349685105,-0.5864603037782619,0.012163983128451053,-0.05919868493741542,-0.6149574621898143,0.6149657869347482,0.3491981943412227,-0.3488624681240716
121.0,-0.35418815245145563,-0.8510568726889692,2.1762059220269356,-0.757262616458499,1.2689846437626011,-0.1878032558339875,-0.5865243211086707,0.012875357773762705,-0.0590974925547274,-0.615114474126344,0.6151457802648783,0.3488767222109204,-0.34858985275241366
122.0,-0.3555064912501902,-0.8511302683763747,2.17576133080338,-0.7555220383251852,1.2680092935352074,-0.1887804081711239,-0.586587385768374,0.013586914575365374,-0.05899583699267825,-0.61527064397866,0.6153257697177914,0.3485548010062732,-0.34831850722401997
123.0,-0.35682483004892473,-0.8512036640637803,2.175316739579824,-0.7537814601918713,1.2670339433078137,-0.18975756050826034,-0.5866494978161413,0.01429865237355878,-0.05889371806860586,-0.6154259714449164,0.6155057548475311,0.3482324341514934,-0.34804843229869264
124.0,-0.35814316884765934,-0.8512770597511858,2.1748721483562683,-0.7520408820585573,1.26605859308042,-0.19073471284539678,-0.5867106573122054,0.015010570010401706,-0.058791135600929495,-0.6155804562243934,0.6156857352080124,0.34790962507211215,-0.3477796287279049
125.0,-0.3594615076463939,-0.8513504554385913,2.1744275571327125,-0.7503003039252435,1.2650832428530263,-0.19171186518253322,-0.5867708643182536,0.015722666329714315,-0.05868808940915133,-0.6157340980174972,0.6158657103530217,0.347586377194961,-0.34751209725479953
126.0,-0.35901690214244325,-0.8512512284516818,2.173349497645691,-0.7468184139888995,1.2659597699905862,-0.1919647565398847,-0.5869813852195723,0.015620514365352861,-0.05863125056822429,-0.6160826426993901,0.6163887579570393,0.3467738842590721,-0.3467779543520461
127.0,-0.3587945993904679,-0.851201614958227,2.1728104679021802,-0.7450774690207274,1.266398033559366,-0.19209120221856046,-0.58708653645651,0.015569333366541925,-0.058602317510392375,-0.6162569656515191,0.6166496044712891,0.34636750991896437,-0.3464104006289664
128.0,-0.3585722966384926,-0.8511520014647722,2.1722714381586696,-0.7433365240525553,1.266836297128146,-0.19221764789723622,-0.587191615100563,0.015518082506011808,-0.05857304190739955,-0.6164313220535571,0.6169099991283109,0.34596105056920845,-0.34604252579106615
129.0,-0.3583499938865173,-0.8511023879713174,2.1717324084151586,-0.7415955790843833,1.267274560696926,-0.19234409357591195,-0.5872966213142947,0.01546676189568673,-0.05854342366954233,-0.61660571168712,0.6171699416795137,0.3455545063886579,-0.34567433013837906
130.0,-0.35812769113454196,-0.8510527744778627,2.171193378671648,-0.7398546341162113,1.2677128242657059,-0.1924705392545877,-0.5874015552605601,0.01541537164740869,-0.05851346270750409,-0.6167801343336448,0.6174294318766671,0.3451478775561728,-0.3453058139711762
131.0,-0.35790538838256664,-0.8510031609844079,2.1706543489281374,-0.7381136891480392,1.2681510878344857,-0.19259698493326344,-0.5875064171025075,0.015363911872937794,-0.058483158932355304,-0.6169545897743897,0.617688469471902,0.3447411642506196,-0.34493697758996616
132.0,-0.3576830856305913,-0.8509535474909531,2.1701153191846263,-0.7363727441798672,1.2685893514032658,-0.1927234306119392,-0.5876112070035765,0.015312382683951692,-0.058452512255553604,-0.6171290777904347,0.6179470542177105,0.3443343666508722,-0.3445678212954952
133.0,-0.357460782878616,-0.8509039339974983,2.1695762894411157,-0.7346317992116952,1.2690276149720456,-0.19284987629061495,-0.5877159251274968,0.015260784192044121,-0.05842152258894589,-0.6173035981626811,0.6182051858669461,0.3439274849358089,-0.34419834538874616
134.0,-0.35723848012664067,-0.8508543205040435,2.1690372596976046,-0.7328908542435232,1.2694658785408257,-0.19297632196929068,-0.5878205716382905,0.015209116508726134,-0.05839018984476608,-0.6174781506718527,0.6184628641728241,0.34352051928431576,-0.343828550170939
135.0,-0.35701617737466534,-0.8508047070105887,2.168498229954094,-0.7311499092753511,1.2699041421096056,-0.19310276764796644,-0.5879251467002681,0.015157379745424113,-0.05835851393563821,-0.6176527350984953,0.6187200888889218,0.34311346987528335,-0.34345843594352987
136.0,-0.35679387462269,-0.850755093517134,2.1679592002105834,-0.729408964307179,1.2703424056783854,-0.19322921332664217,-0.5880296504780317,0.015105574013480332,-0.058326494774574966,-0.6178273512229773,0.6189768597691789,0.34270633688760915,-0.34308800300821185
137.0,-0.3565715718707147,-0.8507054800236792,2.1674201704670724,-0.727668019339007,1.2707806692471655,-0.19335565900531793,-0.5881340831364716,0.015053699424152382,-0.05829413227497909,-0.6180019988254897,0.6192331765678977,0.3422991205001964,-0.3427172516669137
138.0,-0.3563492691187394,-0.8506558665302244,2.1668811407235617,-0.725927074370835,1.2712189328159453,-0.19348210468399368,-0.5882384448407668,0.015001756088611895,-0.058261426350643256,-0.6181766776860468,0.6194890390397431,0.3418918208919527,-0.3423461822218001
139.0,-0.35612696636676405,-0.8506062530367696,2.166342110980051,-0.7241861294026629,1.2716571963847252,-0.1936085503626694,-0.5883427357563857,0.01494974411794525,-0.05822837691575108,-0.6183513875844864,0.6197444469397438,0.34148443824179225,-0.34197479497527156
140.0,-0.35590466361478873,-0.8505566395433148,2.16580308123654,-0.7224451844344909,1.2720954599535053,-0.19373499604134517,-0.5884469560490849,0.014897663623152795,-0.0581949838848767,-0.6185261283004692,0.6199994000232908,0.3410769727286346,-0.3416030902299642
141.0,-0.3556823608628134,-0.8505070260498601,2.1652640514930295,-0.7207042394663189,1.272533723522285,-0.19386144172002093,-0.5885511058849068,0.014845514715147588,-0.05816124717298612,-0.6187008996134808,0.6202538980461397,0.3406694245314035,-0.34123106828874905
142.0,-0.3554600581108381,-0.8504574125564053,2.164725021749519,-0.7189632944981469,1.272971987091065,-0.19398788739869666,-0.5886551854301824,0.01479329750475609,-0.05812716669543684,-0.61887570130283,0.6205079407644093,0.34026179382902844,-0.3408587294547325
143.0,-0.35523775535886276,-0.8504077990629505,2.164185992006008,-0.7172223495299748,1.273410250659845,-0.19411433307737241,-0.5887591948515292,0.014741012102717522,-0.05809274236797912,-0.61905053314765,0.6207615279345828,0.3398540808004444,-0.34048607403125514
144.0,-0.3550154526068874,-0.8503581855694957,2.163646962262497,-0.7154814045618028,1.2738485142286249,-0.19424077875604817,-0.5888631343158501,0.014688658619682366,-0.05805797410675488,-0.6192253949268993,0.621014659313508,0.3394462856245899,-0.340113102321893
145.0,-0.35479314985491206,-0.8503085720760409,2.1631079325189866,-0.7137404595936307,1.2742867777974047,-0.1943672244347239,-0.5889670039903346,0.014636237166213395,-0.05802286182830039,-0.6194002864193608,0.6212673346583968,0.33903840848040917,-0.33973981463045577
146.0,-0.35457084710293674,-0.8502589585825862,2.1625689027754755,-0.7119995146254587,1.2747250413661848,-0.19449367011339966,-0.5890708040424573,0.014583747852784554,-0.057987405449544345,-0.6195752074036426,0.6215195537268267,0.3386304495468509,-0.3393662112609872
147.0,-0.3543485443509614,-0.8502093450891314,2.162029873031965,-0.7102585696572866,1.2751633049349647,-0.1946201157920754,-0.5891745346399768,0.014531190789780057,-0.05795160488780988,-0.6197501576581783,0.6217713162767401,0.3382224090028676,-0.33899229251776564
148.0,-0.3541262415989861,-0.8501597315956766,2.161490843288454,-0.7085176246891146,1.2756015685037447,-0.19474656147075114,-0.5892781959509372,0.014478566087495003,-0.05791546006081451,-0.6199251369612268,0.6220226220664442,0.3378142870274167,-0.3386180587053022
149.0,-0.35390393884701077,-0.8501101181022218,2.1609518135449433,-0.7067766797209426,1.2760398320725246,-0.1948730071494269,-0.5893817881436655,0.014425873856133913,-0.05787897088667022,-0.6201001450908739,0.6222734708546133,0.33740608379945947,-0.33824351012834225
150.0,-0.35368163609503545,-0.8500605046087671,2.1604127838014326,-0.7050357347527706,1.2764780956413044,-0.19499945282810263,-0.5894853113867725,0.014373114205811086,-0.05784213728388414,-0.6202751818250305,0.6225238624002863,0.33699779949796155,-0.33786864709186365
151.0,-0.3534593333430601,-0.8500108911153124,2.1598737540579216,-0.7032947897845985,1.2769163592100845,-0.1951258985067784,-0.5895887658491524,0.014320287246549816,-0.05780495917135905,-0.6204502469414346,0.6227737964628691,0.33658943430189253,-0.33749346990107765
152.0,-0.3532370305910848,-0.8499612776218576,2.159334724314411,-0.7015538448164265,1.2773546227788644,-0.19525234418545412,-0.589692151699981,0.014267393088281781,-0.057767436468393975,-0.6206253402176508,0.623023272802134,0.33618098839022525,-0.3371179788614282
153.0,-0.3530147278391095,-0.8499116641284028,2.1587956945709004,-0.6998128998482545,1.2777928863476442,-0.19537878986412988,-0.589795469108717,0.01421443184084697,-0.05772956909468367,-0.6208004614310705,0.6232722911782194,0.3357724619419368,-0.3367421742785917
154.0,-0.35279242508713415,-0.849862050634948,2.1582566648273893,-0.6980719548800824,1.2782311499164243,-0.19550523554280563,-0.5898987182451004,0.014161403613993267,-0.05769135697031988,-0.6209756103589128,0.6235208513516314,0.33536385513600797,-0.33636605645847695
155.0,-0.35257012233515883,-0.8498124371414932,2.1577176350838787,-0.6963310099119104,1.2786694134852041,-0.19563168122148136,-0.5900018992791514,0.01410830851737532,-0.05765280001579211,-0.6211507867782239,0.6237689530832429,0.3349551681514221,-0.33598962570722474
156.0,-0.3523478195831835,-0.8497628236480385,2.157178605340368,-0.6945900649437383,1.279107677053984,-0.19575812690015712,-0.5901050123811717,0.014055146660555157,-0.05761389815198673,-0.6213259904658781,0.6240165961342946,0.33454640116716683,-0.3356128823312077
157.0,-0.3521255168312082,-0.8497132101545837,2.156639575596857,-0.6928491199755663,1.279545940622764,-0.19588457257883288,-0.5902080577217438,0.014001918153001138,-0.05757465130018821,-0.6215012211985773,0.6242637802663951,0.3341375543622327,-0.33523582663703
158.0,-0.35190321407923286,-0.8496635966611289,2.1561005458533464,-0.6911081750073943,1.279984204191544,-0.1960110182575086,-0.590311035471728,0.013948623104087333,-0.05753505938207975,-0.6216764787528525,0.6245105052415204,0.3337286279156129,-0.33485845893152755
159.0,-0.35168091132725754,-0.8496139831676741,2.155561516109836,-0.6893672300392223,1.2804224677603238,-0.19613746393618436,-0.5904139458022655,0.0138952616230936,-0.05749512231974302,-0.6218517629050625,0.624756770822015,0.33331962200630394,-0.33448077952176697
160.0,-0.3514586085752822,-0.8495643696742193,2.1550224863663248,-0.6876262850710502,1.2808607313291038,-0.19626390961486012,-0.5905167888847752,0.013841833819205056,-0.057454840035659024,-0.6220270734313952,0.6250025767705922,0.3329105368133052,-0.33410278871504606
161.0,-0.3512363058233069,-0.8495147561807646,2.154483456622814,-0.6858853401028782,1.2812989948978837,-0.19639035529353585,-0.5906195648909547,0.013788339801511201,-0.05741421245270852,-0.6222024101078677,0.6252479228503339,0.3325013725156183,-0.33372448681889333
162.0,-0.35101400307133157,-0.8494651426873098,2.1539444268793035,-0.6841443951347062,1.2817372584666638,-0.1965168009722116,-0.590722273992779,0.013734779679005984,-0.057373239494172085,-0.6223777727103267,0.625492808824691,0.33209212929224785,-0.33334587414106764
163.0,-0.35079170031935625,-0.849415529193855,2.1534053971357925,-0.6824034501665341,1.2821755220354436,-0.19664324665088734,-0.5908249163625016,0.013681153560587429,-0.05733192108373072,-0.6225531610144479,0.6257372344574835,0.33168280732220096,-0.3329669509895583
164.0,-0.3505693975673809,-0.8493659157004002,2.152866367392282,-0.680662505198362,1.2826137856042235,-0.1967696923295631,-0.5909274921726506,0.013627461555056399,-0.05729025714546619,-0.6227285747957377,0.6259811995129013,0.33127340678448647,-0.33258771767258444
165.0,-0.3503470948154056,-0.8493163022069454,2.152327337648771,-0.67892156023019,1.2830520491730035,-0.19689613800823885,-0.5910300015960328,0.013573703771117399,-0.057248247603861525,-0.622904013829532,0.626224703755504,0.3308639278581161,-0.332208174498595
166.0,-0.3501247920634303,-0.8492666887134906,2.15178830790526,-0.677180615262018,1.2834903127417834,-0.19702258368691458,-0.5911324448057287,0.01351988031737687,-0.05720589238380152,-0.6230794778909977,0.6264677469502208,0.3304543707221029,-0.3318283217762687
167.0,-0.34990248931145496,-0.8492170752200359,2.1512492781617496,-0.675439670293846,1.2839285763105632,-0.19714902936559034,-0.5912348219750959,0.013465991302343867,-0.05716319141057266,-0.623254966755132,0.6267103288623518,0.33004473555546243,-0.33144815981451325
168.0,-0.34968018655947963,-0.8491674617265811,2.1507102484182385,-0.6736987253256739,1.2843668398793433,-0.1972754750442661,-0.591337133277766,0.013412036834429052,-0.0571201446098641,-0.6234304801967634,0.6269524492575671,0.3296350225372121,-0.33106768892246563
169.0,-0.3494578838075043,-0.8491178482331263,2.150171218674728,-0.6719577803575019,1.2848051034481232,-0.19740192072294183,-0.5914393788876453,0.013358017021944061,-0.05707675190776758,-0.6236060179905513,0.6271941079019082,0.3292252318463704,-0.3306869094094919
170.0,-0.349235581055529,-0.8490682347396715,2.1496321889312173,-0.6702168353893299,1.285243367016903,-0.19752836640161758,-0.5915415589789137,0.013303931973101767,-0.05703301323077828,-0.6237815799109867,0.6274353045617871,0.3288153636619579,-0.3303058215851865
171.0,-0.34901327830355366,-0.8490186212462167,2.1490931591877063,-0.6684758904211578,1.285681630585683,-0.1976548120802933,-0.5916436737260249,0.01324978179601534,-0.05698892850579483,-0.623957165732393,0.6276760390039875,0.32840541816299657,-0.32992442575937225
172.0,-0.34879097555157834,-0.848969007752762,2.1485541294441957,-0.6667349454529857,1.286119894154463,-0.19778125775896907,-0.5917457233037051,0.013195566598697705,-0.05694449766011974,-0.6241327752289245,0.627916310995664,0.327995395528509,-0.32954272224210024
173.0,-0.348568672799603,-0.8489193942593072,2.148015099700685,-0.6649940004848137,1.2865581577232428,-0.19790770343764483,-0.5918477078869533,0.013141286489061616,-0.05689972062146009,-0.624308408174569,0.6281561203043442,0.32758529593752017,-0.3291607113436497
174.0,-0.3483463700476277,-0.8488697807658524,2.147476069957174,-0.6632530555166417,1.2869964212920229,-0.19803414911632056,-0.5919496276510408,0.013086941574919091,-0.056854597317927455,-0.6244840643431462,0.6283954666979261,0.3271751195690553,-0.32877839337452736
175.0,-0.3481240672956524,-0.8488201672723976,2.1469370402136634,-0.6615121105484697,1.2874346848608027,-0.19816059479499631,-0.5920514827715092,0.013032531963980389,-0.056809127678038994,-0.6246597435083087,0.6286343499446815,0.32676486660214044,-0.32839576864546743
176.0,-0.34790176454367705,-0.8487705537789428,2.1463980104701528,-0.6597711655802976,1.2878729484295826,-0.19828704047367207,-0.5921532734241721,0.012978057763854495,-0.05676331163071702,-0.6248354454435423,0.6288727698132539,0.3263545372158026,-0.3280128374674314
177.0,-0.3476794617917017,-0.8487209402854881,2.1458589807266417,-0.6580302206121256,1.2883112119983626,-0.1984134861523478,-0.5922549997851139,0.012923519082048281,-0.05671714910529006,-0.6250111699221665,0.6291107260726598,0.3259441315890701,-0.32762960015160786
178.0,-0.3474571590397264,-0.8486713267920333,2.145319950983131,-0.6562892756439536,1.2887494755671425,-0.19853993183102356,-0.5923566620306872,0.012868916025965583,-0.05667064003149286,-0.6251869167173341,0.629348218492289,0.3255336499009706,-0.3272460570094123
179.0,-0.3472348562877511,-0.8486217132985785,2.1447809212396205,-0.6545483306757816,1.2891877391359226,-0.1986663775096993,-0.5924582603375159,0.012814248702907642,-0.05662378433946678,-0.6253626856020319,0.6295852468419042,0.3251230923305334,-0.3268622083524864
180.0,-0.34701255353577576,-0.8485720998051237,2.1442418914961094,-0.6528073857076095,1.2896260027047024,-0.19879282318837505,-0.5925597948824927,0.012759517220072514,-0.05657658195976058,-0.625538476349081,0.6298218108916418,0.3247124590567873,-0.32647805449269873
181.0,-0.34679025078380044,-0.8485224863116689,2.143702861752599,-0.6510664407394374,1.2900642662734823,-0.1989192688670508,-0.5926612658427776,0.012704721684553737,-0.05652903282333032,-0.625714288731137,0.6300579104120119,0.3243017502587614,-0.32609359574214347
182.0,-0.3465679480318251,-0.8484728728182142,2.1431638320090878,-0.6493254957712654,1.2905025298422623,-0.19904571454572653,-0.5927626733957998,0.012649862203341338,-0.056481136861539875,-0.62589012252069,0.6302935451738989,0.3238909661154854,-0.3257088324131409
183.0,-0.3463456452798498,-0.8484232593247594,2.142624802265577,-0.6475845508030934,1.2909407934110422,-0.1991721602244023,-0.592864017719255,0.01259493888332,-0.05643289400616163,-0.6260659774900657,0.6305287149485612,0.32348010680598793,-0.3253237648182369
184.0,-0.3461233425278744,-0.8483736458313046,2.1420857725220666,-0.6458436058349213,1.291379056979822,-0.19929860590307805,-0.5929652989911068,0.012539951831269831,-0.05638430418937627,-0.6262418534114241,0.6307634195076318,0.32306917250929823,-0.3249383932702027
185.0,-0.3459010397758991,-0.8483240323378498,2.1415467427785555,-0.6441026608667493,1.291817320548602,-0.19942505158175378,-0.5930665173895855,0.012484901153865411,-0.05633536734377406,-0.6264177500567618,0.6309976586231186,0.3226581634044453,-0.3245527180820348
186.0,-0.34567873702392377,-0.848274418844395,2.141007713035045,-0.6423617158985773,1.292255584117382,-0.19955149726042953,-0.5931676730931856,0.01242978695767484,-0.05628608340235418,-0.6265936671979108,0.6312314320674045,0.322247079670457,-0.3241667395669546
187.0,-0.34545643427194844,-0.8482248053509402,2.1404686832915343,-0.6406207709304053,1.2926938476861618,-0.19967794293910526,-0.5932687662806693,0.012374609349160348,-0.05623645229852596,-0.626769604606539,0.6314647396132473,0.321835921486361,-0.32378045803840844
188.0,-0.3452341315199731,-0.8481751918574855,2.1399296535480232,-0.6388798259622332,1.2931321112549419,-0.19980438861778102,-0.5933697971310627,0.0123193684346776,-0.05618647396610846,-0.6269455620541508,0.6316975810337807,0.3214246890311846,-0.3233938738100665
189.0,-0.3450118287679978,-0.8481255783640307,2.1393906238045126,-0.6371388809940611,1.2935703748237217,-0.19993083429645678,-0.5934707658236559,0.012264064320474206,-0.05613614833933202,-0.6271215393120876,0.6319299561025142,0.32101338248395345,-0.3230069871958239
190.0,-0.3447895260160225,-0.8480759648705759,2.138851594061002,-0.6353979360258891,1.2940086383925016,-0.2000572799751325,-0.5935716725380037,0.012208697112691003,-0.05608547535283757,-0.6272975361515272,0.6321618645933333,0.3206020020236931,-0.3226197985097995
191.0,-0.34456722326404715,-0.8480263513771211,2.138312564317491,-0.6336569910577171,1.2944469019612816,-0.20018372565380826,-0.5936725174539248,0.01215326691736043,-0.056034454941676914,-0.6274735523434849,0.632393306280499,0.3201905478294277,-0.3222323080663358
192.0,-0.34434492051207183,-0.8479767378836663,2.1377735345739803,-0.6319160460895451,1.2948851655300615,-0.20031017133248402,-0.5937733007514996,0.012097773840406442,-0.05598308704131447,-0.6276495876588133,0.6326242809386498,0.3197790200801799,-0.32184451617999904
193.0,-0.3441226177600965,-0.8479271243902116,2.1372345048304697,-0.630175101121373,1.2953234290988416,-0.20043661701115975,-0.5938740226110715,0.01204221798764413,-0.05593137158762623,-0.6278256418682031,0.6328547883428005,0.31936741895497145,-0.32145642316557865
194.0,-0.3439003150081212,-0.8478775108967568,2.1366954750869587,-0.628434156153201,1.2957616926676214,-0.2005630626898355,-0.5939746832132465,0.011986599464779566,-0.05587930851690051,-0.6280017147421825,0.6330848282683429,0.31895574463282256,-0.3210680293380874
195.0,-0.34367801225614586,-0.847827897403302,2.136156445343448,-0.626693211185029,1.2961999562364013,-0.20068950836851124,-0.594075282738891,0.011930918377408528,-0.05582689776583871,-0.6281778060511183,0.6333144004910459,0.31854399729275146,-0.32067933501276047
196.0,-0.34345570950417054,-0.8477782839098472,2.1356174155999375,-0.624952266216857,1.2966382198051813,-0.200815954047187,-0.5941758213691327,0.011875174831017346,-0.055774139271555695,-0.6283539155652157,0.6335435047870562,0.31813217711377545,-0.3202903405050559
197.0,-0.3432334067521952,-0.8477286704163924,2.1350783858564264,-0.6232113212486848,1.2970764833739612,-0.20094239972586275,-0.5942762992853602,0.011819368930981377,-0.05572103297157931,-0.6285300430545188,0.6337721409328975,0.31772028427490945,-0.31990104613065423
198.0,-0.3430111040002199,-0.8476790569229377,2.134539356112916,-0.6214703762805128,1.297514746942741,-0.20106884540453848,-0.5943767166692205,0.01176350078256496,-0.05566757880385215,-0.6287061882889111,0.6340003087054723,0.31730831895516637,-0.3195114522054578
199.0,-0.34278880124824457,-0.8476294434294829,2.1340003263694047,-0.6197294313123408,1.2979530105115211,-0.20119529108321424,-0.5944770737026219,0.011707570490921535,-0.05561377670673029,-0.6288823510381147,0.6342280078820608,0.31689628133355774,-0.31912155904559114
200.0,-0.34256649849626924,-0.8475798299360281,2.133461296625894,-0.6179884863441688,1.298391274080301,-0.20132173676188997,-0.5945773705677297,0.011651578161092179,-0.05555962661898536,-0.6290585310716926,0.6344552382403216,0.3164841715890919,-0.31873136696740045
201.0,-0.3423441957442939,-0.8475302164425733,2.1329222668823835,-0.6162475413759967,1.2988295376490808,-0.20144818244056573,-0.594677607446969,0.01159552389800598,-0.05550512847980367,-0.6292347281590461,0.6346819995582921,0.3160719899007755,-0.318340876287453
202.0,-0.3421218929923186,-0.8474806029491186,2.1323832371388725,-0.6145065964078247,1.299267801217861,-0.20157462811924148,-0.5947777845230221,0.011539407806479668,-0.05545028222878656,-0.6294109420694181,0.6349082916143888,0.31565973644761297,-0.3179500873225379
203.0,-0.3418995902403433,-0.8474309894556639,2.131844207395362,-0.6127656514396527,1.2997060647866407,-0.2017010737979172,-0.5948779019788277,0.011483229991216442,-0.055395087805952294,-0.6295871725718913,0.6351341141874068,0.31524741140860535,-0.31755900038966445
204.0,-0.34167728748836795,-0.8473813759622091,2.1313051776518512,-0.6110247064714807,1.3001443283554206,-0.20182751947659297,-0.5949779599975829,0.011426990556806429,-0.055339545151734414,-0.6297634194353896,0.6353594670565214,0.31483501496275174,-0.31716761580606345
205.0,-0.34145498473639263,-0.8473317624687543,2.13076614790834,-0.6092837615033087,1.3005825919242007,-0.20195396515526873,-0.59507795876274,0.011370689607725836,-0.055283654206983404,-0.6299396824286772,0.6355843500012867,0.3144225472890483,-0.31677593388918557
206.0,-0.3412326819844173,-0.8472821489752995,2.1302271181648296,-0.6075428165351365,1.3010208554929805,-0.20208041083394446,-0.5951778984580068,0.011314327248336324,-0.055227414912966614,-0.6301159613203602,0.6358087628016369,0.3140100085664875,-0.31638395495670213
207.0,-0.341010379232442,-0.8472325354818447,2.129688088421319,-0.6058018715669645,1.3014591190617606,-0.20220685651262021,-0.595277779267347,0.011257903582885124,-0.05517082721136869,-0.6302922558788863,0.6360327052378869,0.3135973989740598,-0.3159916793265043
208.0,-0.34078807648046666,-0.84718292198839,2.129149058677808,-0.6040609265987925,1.3018973826305404,-0.20233330219129597,-0.5953776013749789,0.01120141871550445,-0.05511389104429199,-0.6304685658725446,0.6362561770907309,0.3131847186907522,-0.3155991073167032
209.0,-0.34056577372849134,-0.8471333084949352,2.1286100289342973,-0.6023199816306204,1.3023356461993203,-0.2024597478699717,-0.5954773649653737,0.011144872750210545,-0.05505660635425726,-0.630644891069467,0.6364791781412446,0.31277196789554745,-0.31520623924562907
210.0,-0.340343470976516,-0.8470836950014804,2.1280709991907867,-0.6005790366624484,1.3027739097681004,-0.20258619354864746,-0.5955770702232581,0.011088265790904175,-0.05499897308420289,-0.6308212312376269,0.636701708170884,0.31235914676742643,-0.314813075431832
211.0,-0.3401211682245407,-0.8470340815080256,2.1275319694472756,-0.5988380916942764,1.3032121733368802,-0.2027126392273232,-0.5956767173336108,0.011031597941369724,-0.05494099117748665,-0.6309975861448414,0.6369237669614861,0.31194625548536525,-0.31441961619408104
212.0,-0.33989886547256537,-0.8469844680145708,2.126992939703765,-0.5970971467261044,1.30365043690566,-0.20283908490599895,-0.5957763064816622,0.010974869305274451,-0.054882660577885406,-0.6311739555587697,0.6371453542952701,0.31153329422833664,-0.3140258618513636
213.0,-0.33967656272059005,-0.846934854521116,2.126453909960254,-0.5953562017579324,1.3040887004744401,-0.2029655305846747,-0.5958758378528967,0.01091807998616894,-0.05482398122959509,-0.6313503392469149,0.6373664699548354,0.3111202631753099,-0.31363181272288637
214.0,-0.3394542599686147,-0.8468852410276613,2.1259148802167434,-0.5936152567897602,1.30452696404322,-0.20309197626335043,-0.5959753116330482,0.01086123008748576,-0.05476495307723211,-0.631526736976623,0.6375871137231638,0.3107071625052496,-0.3132374691280739
215.0,-0.3392319572166394,-0.8468356275342065,2.1253758504732327,-0.5918743118215882,1.3049652276119998,-0.2032184219420262,-0.5960747280081027,0.010804319712539751,-0.05470557606583267,-0.6317031485150845,0.6378072853836195,0.3102939923971171,-0.3128428313865692
216.0,-0.3390096544646641,-0.8467860140407517,2.1248368207297217,-0.5901333668534161,1.30540349118078,-0.20334486762070195,-0.5961740871642969,0.010747348964527536,-0.054645850140853464,-0.6318795736293331,0.638026984719948,0.3098807530298692,-0.3124478998182328
217.0,-0.33878735171268876,-0.8467364005472969,2.124297790986211,-0.5883924218852441,1.3058417547495598,-0.20347131329937768,-0.5962733892881157,0.010690317946526444,-0.054585775248173,-0.632056012086248,0.6382462115162783,0.3094674445824584,-0.31205267474314347
218.0,-0.33856504896071343,-0.8466867870538421,2.1237587612427005,-0.5866514769170721,1.3062800183183396,-0.20359775897805343,-0.5963726345662949,0.010633226761494993,-0.05452535133408978,-0.6322324636525518,0.6384649655571212,0.30905406723383255,-0.3116571564815967
219.0,-0.3383427462087381,-0.8466371735603874,2.1232197314991894,-0.5849105319489001,1.3067182818871197,-0.20372420465672916,-0.5964718231858186,0.010576075512272161,-0.05446457834532484,-0.6324089280948128,0.638683246627371,0.3086406211629356,-0.31126134535410566
220.0,-0.3381204434567628,-0.8465875600669326,2.122680701755679,-0.5831695869807281,1.3071565454558995,-0.20385065033540492,-0.5965709553339191,0.01051886430157629,-0.05440345622902118,-0.6325854051794443,0.6389010545123052,0.30822710654870594,-0.3108652416814003
221.0,-0.33789814070478746,-0.8465379465734778,2.122141672012168,-0.5814286420125561,1.3075948090246794,-0.20397709601408068,-0.5966700311980762,0.010461593232006077,-0.054341984932743975,-0.6327618946727049,0.6391183889975841,0.30781352357007785,-0.3104688457844272
222.0,-0.3376758379528121,-0.846488333080023,2.121602642268657,-0.5796876970443839,1.3080330725934595,-0.2041035416927564,-0.5967690509660175,0.010404262406038905,-0.054280164404480954,-0.6329383963406994,0.6393352498692524,0.30739987240598055,-0.3100721579843494
223.0,-0.33745353520083676,-0.8464387195865682,2.1210636125251465,-0.5779467520762119,1.3084713361622393,-0.20422998737143216,-0.5968680148257157,0.010346871926030914,-0.05421799459264353,-0.6331149099493778,0.6395516369137383,0.30698615323533773,-0.30967517860254634
224.0,-0.33723123244886144,-0.8463891060931135,2.120524582781636,-0.5762058071080399,1.3089095997310194,-0.20435643305010792,-0.5969669229653918,0.010289421894216937,-0.05415547544606605,-0.6332914352645372,0.6397675499178539,0.30657236623706857,-0.30927790796061333
225.0,-0.3370089296968861,-0.8463394925996587,2.119985553038125,-0.5744648621398678,1.3093478632997992,-0.20448287872878365,-0.5970657755735108,0.010231912412709496,-0.05409260691400671,-0.6334679720518208,0.639982988668796,0.30615851159008667,-0.3088803463803614
226.0,-0.3367866269449108,-0.8462898791062039,2.1194465232946142,-0.5727239171716958,1.309786126868579,-0.2046093244074594,-0.5971645728387829,0.010174343583498516,-0.05402938894614792,-0.6336445200767192,0.6401979529541459,0.30574458947329997,-0.3084824941838171
227.0,-0.33656432419293547,-0.8462402656127491,2.118907493551103,-0.5709829722035238,1.3102243904373592,-0.20473577008613514,-0.5972633149501633,0.01011671550845148,-0.05396582149259684,-0.6338210791045693,0.6404124425618696,0.3053306000656113,-0.30808435169322224
228.0,-0.33634202144096015,-0.8461906521192943,2.1183684638075926,-0.5692420272353518,1.310662654006139,-0.2048622157648109,-0.59736200209685,0.010059028289312155,-0.05390190450388515,-0.6339976489005562,0.6406264572803183,0.3049165435459175,-0.3076859192310338
229.0,-0.3361197186889848,-0.8461410386258396,2.117829434064082,-0.5675010822671798,1.3111009175749189,-0.20498866144348665,-0.5974606344682855,0.010001282027700875,-0.053837637930969684,-0.6341742292297123,0.6408399968982282,0.3045024200931096,-0.30728719711992314
230.0,-0.3358974159370095,-0.8460914251323848,2.117290404320571,-0.5657601372990076,1.311539181143699,-0.20511510712216238,-0.5975592122541548,0.009943476825114143,-0.05377302172523316,-0.634350819856918,0.6410530612047213,0.3040882298860732,-0.30688818568277676
231.0,-0.3356751131850342,-0.84604181163893,2.1167513745770603,-0.5640191923308356,1.3119774447124788,-0.20524155280083814,-0.597657735644384,0.00988561278292336,-0.05370805583848398,-0.6345274205469024,0.6412656499893049,0.3036739731036871,-0.30648888524269496
232.0,-0.33545281043305886,-0.8459921981454752,2.1162123448335497,-0.5622782473626636,1.3124157082812586,-0.20536799847951387,-0.5977562048291429,0.009827690002375647,-0.05364274022295673,-0.6347040310642424,0.6414777630418727,0.30325964992482446,-0.3060892961229924
233.0,-0.33523050768108353,-0.8459425846520204,2.1156733150900386,-0.5605373023944915,1.3128539718500387,-0.20549444415818963,-0.5978546199988412,0.009769708584592684,-0.05357707483131295,-0.6348806511733645,0.6416894001527044,0.3028452605283525,-0.3056894186471976
234.0,-0.3350082049291082,-0.8458929711585657,2.115134285346528,-0.5587963574263195,1.3132922354188186,-0.20562088983686538,-0.5979529813441287,0.009711668630570141,-0.05351105961664056,-0.6350572806385434,0.6419005611124661,0.3024308050931307,-0.30528925313905236
235.0,-0.3347859021771329,-0.8458433576651109,2.1145952556030174,-0.5570554124581475,1.3137304989875984,-0.2057473355155411,-0.5980512890558963,0.009653570241178001,-0.053444694532455206,-0.6352339192239042,0.6421112457122105,0.30201628379801326,-0.304888799922512
236.0,-0.33456359942515757,-0.8457937441716561,2.1140562258595064,-0.5553144674899755,1.3141687625563785,-0.20587378119421687,-0.5981495433252744,0.009595413517159857,-0.05337797953269994,-0.6354105666934209,0.6423214537433771,0.30160169682184773,-0.30448805932174516
237.0,-0.33434129667318224,-0.8457441306782013,2.1135171961159958,-0.5535735225218035,1.3146070261251583,-0.20600022687289263,-0.5982477443436311,0.009537198559131946,-0.05331091457174596,-0.6355872228109177,0.6425311849977932,0.3011870443434737,-0.3040870316611329
238.0,-0.3341189939212069,-0.8456945171847465,2.112978166372485,-0.5518325775536315,1.3150452896939384,-0.20612667255156836,-0.5983458923025742,0.009478925467583551,-0.053243499604392557,-0.6357638873400695,0.6427404392676723,0.300772326541725,-0.3036857172652693
239.0,-0.3338966911692316,-0.8456449036912917,2.112439136628974,-0.5500916325854593,1.3154835532627183,-0.20625311823024411,-0.5984439873939482,0.009420594342876383,-0.0531757345858678,-0.6359405600444007,0.6429492163456161,0.3003575435954282,-0.30328411645896064
240.0,-0.3336743884172563,-0.845595290197837,2.1119001068854635,-0.5483506876172873,1.3159218168314981,-0.20637956390891987,-0.5985420298098356,0.00936220528524376,-0.05310761947182906,-0.6361172406872878,0.6431575160246141,0.2999426956834023,-0.30288222956722544
241.0,-0.33345208566528095,-0.8455456767043822,2.111361077141953,-0.5466097426491153,1.3163600804002782,-0.2065060095875956,-0.5986400197425553,0.009303758394790761,-0.05303915421836237,-0.6362939290319569,0.6433653380980437,0.2995277829844594,-0.3024800569152939
242.0,-0.3332297829133056,-0.8454960632109274,2.110822047398442,-0.5448687976809432,1.316798343969058,-0.20663245526627136,-0.5987379573846628,0.009245253771493534,-0.05297033878198378,-0.6364706248414866,0.6435726823596705,0.2991128056774041,-0.30207759882860824
243.0,-0.3330074801613303,-0.8454464497174726,2.110283017654931,-0.5431278527127712,1.317236607537838,-0.2067589009449471,-0.5988358429289479,0.009186691515198844,-0.05290117311963973,-0.6366473278788071,0.6437795486036484,0.2986977639410334,-0.30167485563282176
244.0,-0.332785177409355,-0.8453968362240178,2.10974398791142,-0.5413869077445992,1.317674871106618,-0.20688534662362285,-0.5989336765684368,0.009128071725624156,-0.05283165718870635,-0.6368240379066998,0.6439859366245206,0.2982826579541372,-0.3012718276537991
245.0,-0.33256287465737966,-0.8453472227305631,2.1092049581679095,-0.5396459627764272,1.3181131346753978,-0.2070117923022986,-0.599031458496389,0.009069394502356323,-0.052761790946991086,-0.6370007546877989,0.6441918462172184,0.2978674878954964,-0.3008685152176158
246.0,-0.33234057190540434,-0.8452976092371083,2.108665928424399,-0.5379050178082552,1.3185513982441777,-0.20713823798097433,-0.5991291889062983,0.009010659944852211,-0.052691574352731786,-0.6371774779845908,0.6443972771770627,0.2974522539438851,-0.3004649186505579
247.0,-0.332118269153429,-0.8452479957436535,2.108126898680888,-0.536164072840083,1.3189896618129577,-0.2072646836596501,-0.5992268679918924,0.008951868152437738,-0.0526210073645982,-0.6373542075594151,0.6446022292997639,0.2970369562780693,-0.3000610382791225
248.0,-0.3318959664014537,-0.8451983822501987,2.1075878689373773,-0.534423127871911,1.3194279253817376,-0.20739112933832582,-0.5993244959471307,0.008893019224307444,-0.05255008994169153,-0.6375309431744639,0.6448067023814215,0.29662159507680624,-0.29965687443001615
249.0,-0.33167366364947837,-0.8451487687567439,2.1070488391938667,-0.532682182903739,1.3198661889505174,-0.20751757501700158,-0.5994220729662052,0.00883411325952429,-0.052478822043545086,-0.6377076845917832,0.6450106962185252,0.2962061705188455,-0.2992524274301558
250.0,-0.33145136089750304,-0.8450991552632892,2.1065098094503556,-0.5309412379355669,1.3203044525192975,-0.20764402069567733,-0.59951959924354,0.008775150357019333,-0.052407203630123966,-0.6378844315732723,0.6452142106079546,0.29579068278292814,-0.29884769760666796
251.0,-0.3312290581455277,-0.8450495417698344,2.105970779706845,-0.5292002929673949,1.3207427160880774,-0.20777046637435306,-0.5996170749737886,0.00871613061559092,-0.05233523466182732,-0.6380611838806847,0.6454172453469795,0.2953751320477863,-0.29844268528688866
252.0,-0.3310067553935524,-0.8449999282763796,2.1054317499633344,-0.5274593479992229,1.3211809796568574,-0.20789691205302882,-0.5997145003518368,0.008657054133904973,-0.0522629150994859,-0.6382379412756274,0.6456198002332605,0.29495951849214413,-0.2980373907983632
253.0,-0.3307844526415771,-0.8449503147829249,2.1048927202198233,-0.5257184030310509,1.3216192432256373,-0.20802335773170458,-0.5998118755727999,0.008597921010493932,-0.0521902449043645,-0.638414703519563,0.6458218750648479,0.2945438422947167,-0.2976318144688461
254.0,-0.33056214988960175,-0.8449007012894701,2.1043536904763127,-0.5239774580628789,1.3220575067944171,-0.2081498034103803,-0.599909200832021,0.008538731343756616,-0.0521172240381615,-0.6385914703738079,0.6460234696401846,0.2941281036342099,-0.2972259566263001
255.0,-0.33033984713762643,-0.8448510877960154,2.103814660732802,-0.5222365130947068,1.3224957703631972,-0.20827624908905606,-0.6000064763250734,0.008479485231957974,-0.05204385246300952,-0.6387682415995342,0.6462245837581031,0.29371230268932125,-0.2968198175988965
256.0,-0.3301175443856511,-0.8448014743025606,2.103275630989291,-0.5204955681265347,1.322934033931977,-0.20840269476773182,-0.6001037022477588,0.008420182773228799,-0.05197013014147499,-0.638945016957769,0.6464252172178279,0.29329643963873875,-0.29641339771501557
257.0,-0.3298952416336758,-0.8447518608091058,2.1027366012457804,-0.5187546231583627,1.323372297500757,-0.20852914044640755,-0.6002008787961044,0.008360824065564453,-0.051896057036559515,-0.6391217962093951,0.6466253698189754,0.29288051466114134,-0.2960066973032448
258.0,-0.32967293888170046,-0.844702247315651,2.10219757150227,-0.5170136781901906,1.323810561069537,-0.2086555861250833,-0.6002980061663669,0.008301409206825911,-0.051821633111699336,-0.6392985791151514,0.646825041361553,0.29246452793519834,-0.2955997166923797
259.0,-0.32945063612972514,-0.8446526338221962,2.1016585417587588,-0.5152727332220186,1.3242488246383168,-0.20878203180375904,-0.6003950845550279,0.008241938294738165,-0.051746858330766046,-0.639475365435633,0.647024231645961,0.29204847963957,-0.2951924562114236
260.0,-0.3292283333777498,-0.8446030203287415,2.101119512015248,-0.5135317882538466,1.3246870882070967,-0.2089084774824348,-0.6004921141587949,0.008182411426890256,-0.051671732658067335,-0.6396521549312909,0.6472229404729912,0.2916323699529064,-0.29478491618958663
261.0,-0.3290060306257745,-0.8445534068352867,2.100580482271737,-0.5117908432856746,1.3251253517758768,-0.20903492316111055,-0.6005890951746017,0.008122828700735132,-0.05159625605834624,-0.639828947362434,0.6474211676438283,0.29121619905384866,-0.29437709695628633
262.0,-0.32878372787379917,-0.8445037933418319,2.1000414525282265,-0.5100498983175026,1.3255636153446566,-0.20916136883978628,-0.6006860277996048,0.008063190213588669,-0.05152042849678257,-0.6400057424892271,0.6476189129600498,0.2907999671210268,-0.2939689988411469
263.0,-0.32856142512182385,-0.8444541798483771,2.099502422784716,-0.5083089533493305,1.3260018789134365,-0.20928781451846204,-0.6007829122311867,0.008003496062630065,-0.0514442499389923,-0.6401825400716933,0.6478161762236254,0.2903836743330623,-0.293560622173999
264.0,-0.3283391223698485,-0.8444045663549223,2.098963393041205,-0.5065680083811585,1.3264401424822165,-0.20941426019713777,-0.6008797486669529,0.007943746344900934,-0.05136772035102864,-0.6403593398697126,0.6480129572369189,0.2899673208685659,-0.29315196728487963
265.0,-0.3281168196178732,-0.8443549528614676,2.098424363297694,-0.5048270634129864,1.3268784060509964,-0.20954070587581353,-0.6009765373047307,0.007883941157304637,-0.051290839699382085,-0.6405361416430235,0.6482092558026865,0.2895509069061376,-0.292743034504032
266.0,-0.3278945168658978,-0.8443053393680128,2.0978853335541836,-0.5030861184448143,1.3273166696197765,-0.20966715155448928,-0.6010732783425711,0.00782408059660679,-0.05121360795098044,-0.6407129451512226,0.6484050717240788,0.2891344326243679,-0.2923338241619049
267.0,-0.3276722141139225,-0.844255725874558,2.0973463038106726,-0.5013451734766423,1.3277549331885563,-0.209793597233165,-0.6011699719787463,0.007764164759434242,-0.0511360250731898,-0.6408897501537645,0.6486004048046393,0.2887178982018365,-0.2919243365891531
268.0,-0.3274499113619472,-0.8442061123811032,2.096807274067162,-0.4996042285084703,1.3281931967573362,-0.20992004291184077,-0.6012666184117497,0.0077041937422744405,-0.05105809103381408,-0.6410665564099632,0.6487952548483064,0.2883013038171123,-0.2915145721166361
269.0,-0.32722760860997185,-0.8441564988876484,2.0962682443236513,-0.4978632835402983,1.3286314603261162,-0.21004648859051653,-0.6013632178402947,0.007644167641475921,-0.05097980580109579,-0.6412433636789918,0.6489896216594122,0.2878846496487537,-0.29110453107541884
270.0,-0.32700530585799653,-0.8441068853941937,2.0957292145801403,-0.49612233857212623,1.329069723894896,-0.21017293426919226,-0.6014597704633158,0.007584086553247217,-0.0509011693437163,-0.6414201717198823,0.6491835050426832,0.28746793587530856,-0.2906942137967712
271.0,-0.3267830031060212,-0.8440572719007389,2.0951901848366297,-0.4943813936039542,1.329507987463676,-0.21029937994786801,-0.6015562764799657,0.007523950573656576,-0.050822181630796374,-0.6415969802915266,0.6493769048032405,0.2870511626753129,-0.2902836206121671
272.0,-0.3265607003540459,-0.8440076584072841,2.094651155093119,-0.49264044863578216,1.329946251032456,-0.21042582562654377,-0.6016527360896164,0.007463759798631932,-0.05074284263189601,-0.6417737891526768,0.6495698207466004,0.2866343302272927,-0.28987275185328526
273.0,-0.32633839760207056,-0.8439580449138293,2.094112125349608,-0.49089950366761015,1.3303845146012359,-0.2105522713052195,-0.601749149491859,0.007403514323960148,-0.05066315231701468,-0.6419505980619447,0.6497622526786739,0.2862174387097621,-0.2894616078520087
274.0,-0.32611609485009524,-0.8439084314203745,2.0935730956060974,-0.4891585586994381,1.3308227781700157,-0.21067871698389526,-0.6018455168865002,0.007343214245286625,-0.0505831106565927,-0.6421274067778033,0.6499542004057678,0.2858004883012239,-0.2890501889404238
275.0,-0.3258937920981199,-0.8438588179269197,2.093034065862587,-0.4874176137312661,1.3312610417387958,-0.210805162662571,-0.6019418384735652,0.007282859658115351,-0.05050271762151023,-0.6423042150585858,0.6501456637345835,0.2853834791801698,-0.2886384954508205
276.0,-0.3256714893461446,-0.843809204433465,2.0924950361190757,-0.48567666876309407,1.3316993053075756,-0.21093160834124675,-0.6020381144532956,0.007222450657808136,-0.0504219731830882,-0.6424810226624869,0.6503366424722191,0.28496641152508007,-0.2882265277156925
277.0,-0.32544918659416927,-0.8437595909400102,2.091956006375565,-0.483935723794922,1.3321375688763555,-0.2110580540199225,-0.6021343450261479,0.007161987339584242,-0.050340877313088665,-0.6426578293475627,0.650527136426168,0.2845492855144223,-0.2878142860677364
278.0,-0.32522688384219395,-0.8437099774465554,2.091416976632054,-0.48219477882674994,1.3325758324451356,-0.21118449969859823,-0.6022305303927945,0.007101469798520145,-0.05025942998371495,-0.6428346348717305,0.6507171454043199,0.2841321013266536,-0.28740177083985147
279.0,-0.3250045810902186,-0.8436603639531006,2.0908779468885434,-0.48045383385857793,1.3330140960139154,-0.211310945377274,-0.602326670754122,0.0070408981295490515,-0.05017763116761237,-0.6430114389927702,0.650906669214961,0.283714859140218,-0.28698898236514
280.0,-0.3247822783382433,-0.8436107504596458,2.090338917145033,-0.47871288889040586,1.3334523595826955,-0.21143739105594972,-0.6024227663112316,0.006980272427460677,-0.050095480837867565,-0.6431882414683238,0.6510957076667738,0.2832975591335481,-0.286575920976906
281.0,-0.324559975586268,-0.8435611369661911,2.089799887401522,-0.47697194392223385,1.3338906231514753,-0.21156383673462548,-0.6025188172654377,0.006919592786900779,-0.05001297896800961,-0.6433650420558956,0.6512842605688378,0.28288020148506443,-0.2861625870086566
282.0,-0.32433767283429266,-0.8435115234727363,2.089260857658011,-0.47523099895406185,1.3343288867202552,-0.21169028241330123,-0.6026148238182666,0.006858859302370557,-0.04993012553201057,-0.6435418405128531,0.6514723277306297,0.28246278637317473,-0.2857489807940998
283.0,-0.32411537008231733,-0.8434619099792815,2.0887218279145006,-0.4734900539858898,1.3347671502890353,-0.211816728091977,-0.6027107861714582,0.00679807206822671,-0.04984692050428491,-0.6437186365964266,0.6516599089620229,0.2820453139762745,-0.2853351026671455
284.0,-0.323893067330342,-0.8434122964858267,2.0881827981709895,-0.4717491090177177,1.335205413857815,-0.21194317377065272,-0.6028067045269635,0.006737231178680943,-0.049763363859690365,-0.6438954300637101,0.6518470040732882,0.28162778447274717,-0.2849209529619055
285.0,-0.3236707645783667,-0.8433626829923719,2.087643768427479,-0.4700081640495457,1.335643677426595,-0.21206961944932848,-0.6029025790869439,0.006676336727798946,-0.04967945557352839,-0.6440722206716614,0.6520336128750944,0.2812101980409626,-0.2845065320126918
286.0,-0.32344846182639136,-0.8433130694989172,2.0871047386839683,-0.4682672190813737,1.336081940995375,-0.2121960651280042,-0.6029984100537717,0.006615388809501184,-0.04959519562154367,-0.6442490081771018,0.6522197351785083,0.2807925548592786,-0.28409184015401806
287.0,-0.32322615907441604,-0.8432634560054624,2.0865657089404572,-0.46652627411320163,1.3365202045641549,-0.21232251080667996,-0.6030941976300295,0.006554387517561616,-0.04951058397992547,-0.6444257923367176,0.6524053707949939,0.28037485510604004,-0.28367687772059824
288.0,-0.3230038563224407,-0.8432138425120076,2.0860266791969466,-0.4647853291450296,1.3369584681329347,-0.21244895648535572,-0.6031899420185078,0.0064933329456074015,-0.049425620625307365,-0.6446025729070592,0.6525905195364147,0.27995709895957793,-0.2832616450473466
289.0,-0.3227815535704654,-0.8431642290185528,2.085487649453436,-0.46304438417685756,1.3373967317017148,-0.21257540216403145,-0.6032856434222066,0.006432225187119079,-0.04934030553476723,-0.6447793496445421,0.6527751812150312,0.2795392865982113,-0.2828461424693775
290.0,-0.3225592508184901,-0.843114615525098,2.084948619709925,-0.4613034392086855,1.3378349952704947,-0.2127018478427072,-0.6033813020443344,0.006371064335429806,-0.0492546386858283,-0.6449561223054472,0.6529593556435037,0.2791214182002452,-0.2824303703220057
291.0,-0.32233694806651475,-0.8430650020316433,2.0844095899664143,-0.4595624942405135,1.3382732588392745,-0.21282829352138294,-0.6034769180883053,0.00630985048372474,-0.04916862005645872,-0.6451328906459202,0.6531430426348913,0.2787034939439714,-0.28201432894074474
292.0,-0.3221146453145394,-0.8430153885381885,2.0838705602229037,-0.4578215492723415,1.3387115224080546,-0.2129547392000587,-0.6035724917577415,0.006248583725041213,-0.049082249625072585,-0.6453096544219731,0.6533262420026513,0.2782855140076683,-0.2815980186613081
293.0,-0.3218923425625641,-0.8429657750447337,2.0833315304793927,-0.4560806043041694,1.3391497859768344,-0.21308118487873445,-0.6036680232564715,0.006187264152268196,-0.04899552737052966,-0.6454864133894842,0.6535089535606413,0.2778674785696006,-0.28118143981960864
294.0,-0.3216700398105888,-0.8429161615512789,2.082792500735882,-0.45433965933599735,1.3395880495456143,-0.21320763055741018,-0.6037635127885279,0.00612589185814532,-0.04890845327213568,-0.6456631673041975,0.6536911771231178,0.2774493878080188,-0.28076459275175714
295.0,-0.32144773705861346,-0.8428665480578241,2.082253470992371,-0.45259871436782534,1.3400263131143944,-0.21333407623608594,-0.60385896055815,0.006064466935263616,-0.048821027309642856,-0.6458399159217241,0.6538729125047373,0.27703124190116046,-0.28034747779406394
296.0,-0.32122543430663814,-0.8428169345643693,2.0817144412488604,-0.45085776939965333,1.3404645766831742,-0.21346052191476167,-0.6039543667697798,0.0060029894760640886,-0.04873324946325068,-0.6460166589975419,0.6540541595205563,0.2766130410272481,-0.2799300952830373
297.0,-0.3210031315546628,-0.8427673210709146,2.08117541150535,-0.44911682443148127,1.340902840251954,-0.21358696759343743,-0.6040497316280637,0.005941459572838162,-0.048645119713605134,-0.6461933962869962,0.654234917986031,0.27619478536449066,-0.2795124455553836
298.0,-0.3207808288026875,-0.8427177075774598,2.0806363817618387,-0.44737587946330926,1.3413411038207341,-0.21371341327211318,-0.6041450553378519,0.005879877317726845,-0.048556638041799396,-0.6463701275452995,0.6544151877170182,0.27577647509108333,-0.27909452894800757
299.0,-0.32055852605071217,-0.842668094084005,2.080097352018328,-0.4456349344951372,1.341779367389514,-0.2138398589507889,-0.6042403381041951,0.005818242802720185,-0.048467804429374775,-0.6465468525275325,0.6545949685297753,0.2753581103852058,-0.2786763457980108
300.0,-0.3203362232987368,-0.8426184805905502,2.0795583222748175,-0.4438939895269651,1.342217630958294,-0.21396630462946467,-0.6043355801323477,0.005756556119657631,-0.04837861885832022,-0.6467235709886437,0.6547742602409605,0.27493969142502406,-0.2782578964426927
301.0,-0.32011392054676147,-0.8425688670970954,2.0790192925313065,-0.4421530445587931,1.342655894527074,-0.21409275030814043,-0.6044307816277643,0.005694817360227091,-0.04828908131107228,-0.6469002826834502,0.6549530626676324,0.27452121838868937,-0.2778391812195501
302.0,-0.31989161779478614,-0.8425192536036407,2.078480262787796,-0.4404120995906211,1.3430941580958538,-0.21421919598681616,-0.6045259427961007,0.0056330266159644185,-0.048199191770516986,-0.6470769873666381,0.6551313756272515,0.27410269145433797,-0.2774202004662761
303.0,-0.3196693150428108,-0.8424696401101859,2.0779412330442852,-0.43867115462244904,1.3435324216646338,-0.21434564166549191,-0.6046210638432117,0.005571183978253747,-0.04810895021998898,-0.6472536847927616,0.6553091989376792,0.2736841108000917,-0.27700095452076046
304.0,-0.3194470122908355,-0.8424200266167312,2.077402203300774,-0.43693020965427704,1.3439706852334137,-0.21447208734416767,-0.6047161449751527,0.005509289538326539,-0.04801835664327077,-0.6474303747162453,0.6554865324171789,0.27326547660405714,-0.2765814437210903
305.0,-0.3192247095388602,-0.8423704131232764,2.0768631735572636,-0.435189264686105,1.3444089488021935,-0.2145985330228434,-0.6048111863981767,0.005447343387261206,-0.04792741102459587,-0.6476070568913825,0.6556633758844148,0.27284678904432574,-0.2761616684055474
306.0,-0.31900240678688485,-0.8423207996298216,2.076324143813753,-0.43344831971793296,1.3448472123709736,-0.21472497870151916,-0.6049061883187351,0.005385345615983229,-0.04783611334864629,-0.647783731072337,0.6558397291584541,0.27242804829897377,-0.2757416289126102
307.0,-0.31878010403490953,-0.8422711861363669,2.075785114070242,-0.43170737474976095,1.3452854759397535,-0.2148514243801949,-0.6050011509434775,0.005323296315264442,-0.04774446360055412,-0.6479603970131423,0.6560155920587659,0.27200925454606256,-0.275321325580953
308.0,-0.3185578012829342,-0.8422215726429121,2.0752460843267313,-0.42996642978158883,1.3457237395085335,-0.21497787005887065,-0.6050960744792488,0.005261195575722498,-0.04765246176590204,-0.6481370544677031,0.6561909644052213,0.27159040796363715,-0.2749007587494448
309.0,-0.3183354985309589,-0.8421719591494573,2.0747070545832202,-0.4282254848134168,1.3461620030773134,-0.2151043157375464,-0.6051909591330922,0.005199043487821046,-0.047560107830722495,-0.648313703189794,0.656365846018094,0.27117150872972806,-0.2744799287571504
310.0,-0.31811319577898356,-0.8421223456560025,2.0741680248397096,-0.4264845398452448,1.3466002666460932,-0.21523076141622213,-0.6052858051122441,0.005136840141868678,-0.04746740178149925,-0.6484903429330613,0.656540236718061,0.2707525570223488,-0.27405883594332875
311.0,-0.31789089302700824,-0.8420727321625477,2.073628995096199,-0.42474359487707275,1.3470385302148733,-0.2153572070948979,-0.6053806126241378,0.005074585628019425,-0.04737434360516726,-0.6486669734510224,0.6567141363262023,0.2703335530194986,-0.2736374806474339
312.0,-0.3176685902750329,-0.842023118669093,2.073089965352688,-0.42300264990890074,1.3474767937836531,-0.21548365277357362,-0.6054753818764,0.005012280036271695,-0.04728093328911158,-0.6488435944970664,0.656887544664,0.2699144968991596,-0.2732158632091143
313.0,-0.3174462875230576,-0.8419735051756382,2.0725509356091774,-0.4212617049407287,1.347915057352433,-0.21561009845224938,-0.6055701130768514,0.0049499234564679,-0.04718717082117048,-0.6490202058244544,0.6570604615533407,0.2694953888392981,-0.27279398396821214
314.0,-0.31722398477108227,-0.8419238916821834,2.0720119058656667,-0.41952075997255667,1.348353320921213,-0.21573654413092513,-0.6056648064335052,0.004887515978294751,-0.04709305618963297,-0.6491968071863199,0.6572328868165143,0.2690762290178647,-0.2723718432647636
315.0,-0.31700168201910695,-0.8418742781887286,2.0714728761221557,-0.41777981500438466,1.348791584489993,-0.21586298980960086,-0.6057594621545684,0.004825057691282365,-0.046998589383240294,-0.6493733983356684,0.6574048202762138,0.26865701761279326,-0.2719494414389987
316.0,-0.3167793792671316,-0.8418246646952738,2.070933846378645,-0.4160388700362126,1.3492298480587728,-0.21598943548827662,-0.6058540804484377,0.004762548684803708,-0.04690377039118661,-0.6495499790253793,0.6575762617555376,0.2682377548020011,-0.2715267788313406
317.0,-0.3165570765151563,-0.8417750512018191,2.0703948166351345,-0.4142979250680406,1.3496681116275528,-0.21611588116695238,-0.6059486615237025,0.00469998904807508,-0.04680859920311817,-0.649726549008204,0.6577472110779866,0.26781844076338956,-0.27110385578240537
318.0,-0.316334773763181,-0.8417254377083643,2.0698557868916234,-0.4125569800998686,1.3501063751963327,-0.2162423268456281,-0.6060432055891432,0.004637378870154964,-0.04671307580913436,-0.649903108036768,0.6579176680674671,0.26739907567484306,-0.27068067263300244
319.0,-0.31611247101120565,-0.8416758242149095,2.069316757148113,-0.41081603513169646,1.3505446387651125,-0.21636877252430387,-0.606137712853728,0.004574718239943713,-0.04661720019978795,-0.6500796558635706,0.6580876325482902,0.26697965971422855,-0.2702572297241333
320.0,-0.31589016825923033,-0.8416262107214547,2.068777727404602,-0.40907509016352445,1.3509829023338926,-0.21649521820297962,-0.6062321835266158,0.004512007246183932,-0.046520972366085184,-0.6502561922409846,0.6582571043451709,0.2665601930593974,-0.26983352739699196
321.0,-0.315667865507255,-0.8415765972279999,2.068238697661091,-0.4073341451953524,1.3514211659026725,-0.21662166388165535,-0.6063266178171549,0.004449245977459304,-0.04642439229948578,-0.6504327169212578,0.6584260832832297,0.2661406758881828,-0.26940956599296473
322.0,-0.3154455627552797,-0.8415269837345452,2.0676996679175805,-0.4055932002271804,1.3518594294714523,-0.2167481095603311,-0.6064210159348792,0.00438643452219456,-0.04632745999190381,-0.6506092296565124,0.6585945691879921,0.2657211083784014,-0.2689853458536293
323.0,-0.31522326000330436,-0.8414773702410904,2.0671606381740695,-0.4038522552590083,1.3522976930402324,-0.21687455523900684,-0.6065153780895126,0.0043235729686553325,-0.04623017543570733,-0.6507857301987452,0.6587625618853888,0.26530149070785264,-0.26856086732075535
324.0,-0.31500095725132904,-0.8414277567476356,2.066621608430559,-0.4021113102908363,1.3527359566090122,-0.2170010009176826,-0.6066097044909632,0.00426066140494707,-0.04613253862371919,-0.6509622182998287,0.6589300612017569,0.26488182305431796,-0.2681361307363037
325.0,-0.3147786544993537,-0.8413781432541808,2.0660825786870483,-0.4003703653226643,1.353174220177792,-0.21712744659635835,-0.606703995349327,0.004197699919015793,-0.046034549549217,-0.6511386937115107,0.659097066963838,0.2644621055955619,-0.26771113644242617
326.0,-0.3145563517473784,-0.841328529760726,2.065543548943537,-0.3986294203544922,1.3536124837465722,-0.21725389227503408,-0.6067982508748848,0.004134688598647075,-0.04593620820593339,-0.651315156185415,0.6592635789987804,0.26404233850933145,-0.26728588478146553
327.0,-0.31433404899540307,-0.8412789162672712,2.0650045192000266,-0.3968884753863202,1.354050747315352,-0.21738033795370984,-0.606892471278102,0.004071627531465167,-0.045837514588056544,-0.6514916054730413,0.6594295971341388,0.2636225219733552,-0.266860376095955
328.0,-0.31411174624342775,-0.8412293027738165,2.064465489456516,-0.3951475304181482,1.3544890108841319,-0.21750678363238557,-0.606986656769628,0.004008516804934009,-0.04573846869023,-0.651668041325766,0.6595951211978733,0.26320265616534416,-0.2664346107286181
329.0,-0.3138894434914524,-0.8411796892803617,2.063926459713005,-0.39340658544997614,1.354927274452912,-0.21763322931106133,-0.6070808075602964,0.003945356506355814,-0.04563907050755313,-0.651844463494842,0.6597601510183513,0.26278274126299206,-0.26600858902236857
330.0,-0.3136671407394771,-0.8411300757869069,2.0633874299694943,-0.3916656404818041,1.3553655380216918,-0.21775967498973708,-0.6071749238611226,0.0038821467228707107,-0.04553932003558199,-0.6520208717313993,0.6599246864243468,0.2623627774439734,-0.26558231132030957
331.0,-0.3134448379875018,-0.8410804622934521,2.0628484002259837,-0.389924695513632,1.3558038015904719,-0.21788612066841284,-0.6072690058833056,0.003818887541457224,-0.04543921727032846,-0.6521972657864454,0.6600887272450404,0.2619427648859451,-0.2651557779657343
332.0,-0.31322253523552646,-0.8410308487999973,2.0623093704824726,-0.38818375054546,1.3562420651592517,-0.21801256634708857,-0.6073630538382245,0.003755579048931261,-0.04533876220826133,-0.6523736454108651,0.6602522733100202,0.26152270376654596,-0.2647289893021248
333.0,-0.31300023248355113,-0.8409812353065426,2.061770340738962,-0.38644280557728794,1.3566803287280316,-0.21813901202576433,-0.6074570679374395,0.0036922213319456436,-0.045237954846306105,-0.6525500103554216,0.6604153244492814,0.2611025942633954,-0.2643019456731523
334.0,-0.3127779297315758,-0.8409316218130878,2.0612313109954514,-0.38470186060911593,1.3571185922968116,-0.21826545770444006,-0.6075510483926921,0.0036288144769902695,-0.045136795181846004,-0.6527263603707559,0.660577880493227,0.26068243655409534,-0.26387464742267686
335.0,-0.3125556269796005,-0.840882008319633,2.0606922812519404,-0.3829609156409439,1.3575568558655915,-0.21839190338311582,-0.6076449954159029,0.0035653585703916226,-0.04503528321272089,-0.6529026952073878,0.6607399412726669,0.2602622308162283,-0.26344709489474716
336.0,-0.31233332422762516,-0.8408323948261782,2.0601532515084298,-0.38121997067277186,1.3579951194343713,-0.21851834906179157,-0.6077389092191704,0.003501853698311998,-0.0449334189372291,-0.6530790146157157,0.6609015066188199,0.25984197722735797,-0.2630192884335995
337.0,-0.31211102147564984,-0.8407827813327234,2.059614221764919,-0.37947902570459985,1.3584333830031514,-0.2186447947404673,-0.6078327900147728,0.003438299946749873,-0.044831202354126284,-0.6532553183460175,0.661062576363312,0.25942167596502963,-0.262591228383659
338.0,-0.3118887187236745,-0.8407331678392687,2.059075192021408,-0.37773808073642784,1.3588716465719313,-0.21877124041914306,-0.6079266380151653,0.00337469740153896,-0.04472863346262679,-0.65343160614845,0.6612231503381779,0.2590013272067692,-0.26216291508953826
339.0,-0.3116664159716992,-0.8406835543458139,2.0585361622778975,-0.3759971357682558,1.3593099101407111,-0.2188976860978188,-0.6080204534329801,0.003311046148348023,-0.04462571226240296,-0.6536078777730502,0.661383228375861,0.2585809311300828,-0.2617343488960371
340.0,-0.3114441132197239,-0.8406339408523591,2.0579971325343864,-0.37425619080008377,1.3597481737094912,-0.21902413177649455,-0.608114236481026,0.003247346272680976,-0.04452243875358641,-0.6537841329697349,0.661542810309213,0.2581604879124587,-0.2613055301481427
341.0,-0.31122181046774855,-0.8405843273589043,2.057458102790876,-0.3725152458319117,1.360186437278271,-0.2191505774551703,-0.6082079873722869,0.00318359785987551,-0.04441881293676707,-0.6539603714883017,0.6617018959714941,0.257739997731364,-0.2608764591910294
342.0,-0.3109995077157732,-0.8405347138654495,2.056919073047365,-0.37077430086373964,1.3606247008470511,-0.21927702313384603,-0.6083017063199222,0.003119800995104105,-0.04431483481299445,-0.6541365930784279,0.6618604851963745,0.2573194607642477,-0.2604471363700582
343.0,-0.3107772049637979,-0.8404851003719948,2.056380043303854,-0.36903335589556757,1.361062964415831,-0.2194034688125218,-0.6083953935372657,0.003055955763372564,-0.044210504383777466,-0.6543127974896729,0.6620185778179325,0.25689887718853854,-0.2600175620307764
344.0,-0.3105549022118225,-0.84043548687854,2.0558410135603435,-0.36729241092739556,1.3615012279846108,-0.21952991449119755,-0.6084890492378244,0.002992062249520108,-0.04410582165108491,-0.6544889844714763,0.6621761736706565,0.2564782471816453,-0.2595877365189177
345.0,-0.3103325994598472,-0.8403858733850852,2.055301983816833,-0.36555146595922355,1.361939491553391,-0.21965636016987328,-0.6085826736352788,0.0029281205382192805,-0.04400078661734526,-0.65466515377316,0.6623332725894445,0.2560575709209573,-0.2591576601804013
346.0,-0.3101102967078719,-0.8403362598916304,2.054762954073322,-0.3638105209910515,1.3623777551221707,-0.21978280584854903,-0.608676266943482,0.0028641307139752005,-0.04389539928544696,-0.6548413051439272,0.6624898744096038,0.25563684858384356,-0.2587273333613331
347.0,-0.30988799395589656,-0.8402866463981756,2.0542239243298113,-0.3620695760228795,1.3628160186909506,-0.21990925152722476,-0.608769829376458,0.0028000928611252936,-0.043789659658739585,-0.6550174383328639,0.6626459789668522,0.255216080347653,-0.2582967564080032
348.0,-0.30966569120392123,-0.8402370329047208,2.0536848945863007,-0.36032863105470747,1.3632542822597307,-0.22003569720590052,-0.6088633611484024,0.0027360070638390473,-0.043683567741032825,-0.6551935530889378,0.6628015860973174,0.2547952663897142,-0.25786592966688765
349.0,-0.3094433884519459,-0.8401874194112661,2.0531458648427896,-0.3585876860865354,1.3636925458285105,-0.22016214288457628,-0.6089568624736819,0.0026718734061179764,-0.04357712353659769,-0.6553696491609998,0.6629566956375372,0.25437440688733576,-0.2574348534846474
350.0,-0.3092210856999706,-0.8401378059178113,2.052606835099279,-0.3568467411183634,1.3641308093972904,-0.220288588563252,-0.6090503335668308,0.0026076919717945264,-0.04347032705016597,-0.655545726297784,0.6631113074244608,0.2539535020178052,-0.25700352820812766
351.0,-0.30899878294799527,-0.8400881924243565,2.0520678053557684,-0.3551057961501914,1.3645690729660704,-0.22041503424192777,-0.6091437746425545,0.002543462844532444,-0.043363178286931356,-0.6557217842479074,0.663265421295447,0.25353255195839,-0.25657195418435824
352.0,-0.30877648019601994,-0.8400385789309017,2.0515287756122573,-0.3533648511820193,1.3650073365348503,-0.22054147992060352,-0.6092371859157267,0.002479186107826306,-0.04325567725254861,-0.6558978227598713,0.6634190370882659,0.2531115568863365,-0.2561401317605534
353.0,-0.3085541774440446,-0.8399889654374469,2.0509897458687467,-0.35162390621384726,1.3654456001036301,-0.22066792559927925,-0.6093305676013875,0.0024148618450005595,-0.04314782395313471,-0.6560738415820601,0.6635721546410991,0.25269051697887024,-0.2557080612841108
354.0,-0.3083318746920693,-0.8399393519439922,2.050450716125236,-0.3498829612456752,1.3658838636724102,-0.220794371277955,-0.6094239199147446,0.0023504901392102586,-0.043039618395268986,-0.6562498404627432,0.6637247737925391,0.25226943241319594,-0.25527574310261186
355.0,-0.308109571940094,-0.8398897384505374,2.049911686381725,-0.3481420162775032,1.36632212724119,-0.22092081695663074,-0.6095172430711736,0.0022860710734399887,-0.04293106058599282,-0.6564258191500746,0.6638768943815901,0.2518483033664974,-0.2548431775638218
356.0,-0.30788726918811865,-0.8398401249570826,2.0493726566382144,-0.3464010713093311,1.36676039080997,-0.2210472626353065,-0.6096105372862137,0.002221604730503445,-0.042822150532810216,-0.6566017773920926,0.6640285162476671,0.2514271300159366,-0.2544103650156883
357.0,-0.30766496643614333,-0.8397905114636279,2.0488336268947034,-0.3446601263411591,1.36719865437875,-0.22117370831398225,-0.6097038027755702,0.0021570911930437558,-0.04271288824368798,-0.6567777149367211,0.6641796392305984,0.2510059125386551,-0.25397730580634237
358.0,-0.307442663684168,-0.8397408979701732,2.0482945971511928,-0.3429191813729871,1.3676369179475298,-0.22130015399265798,-0.6097970397551123,0.002092530543532347,-0.042603273727056426,-0.6569536315317696,0.664330263170623,0.25058465111177175,-0.2535440002840973
359.0,-0.3072203609321927,-0.8396912844767184,2.047755567407682,-0.34117823640481504,1.36807518151631,-0.22142659967133374,-0.6098902484408738,0.002027922864269474,-0.0424933069918087,-0.657129526924933,0.6644803879083928,0.2501633459123851,-0.25311044879744893
360.0,-0.30699805818021736,-0.8396416709832636,2.047216537664171,-0.33943729143664303,1.3685134450850898,-0.22155304535000947,-0.6099834290490511,0.001963268237383178,-0.0423829880473017,-0.6573054008637926,0.6646300132849716,0.2497419971175714,-0.2526766516950752
361.0,-0.30677575542824204,-0.8395920574898088,2.0466775079206605,-0.337696346468471,1.3689517086538696,-0.22167949102868523,-0.6100765817960024,0.001898566744829162,-0.04227231690335606,-0.6574812530958161,0.6647791391418363,0.249320604904385,-0.2522426093258356
362.0,-0.3065534526762667,-0.839542443996354,2.04613847817715,-0.33595540150029896,1.3693899722226497,-0.22180593670736098,-0.6101697068982487,0.001833818468390764,-0.04216129357025655,-0.6576570833683578,0.6649277653208759,0.2488991694498587,-0.2518083220387713
363.0,-0.3063311499242914,-0.8394928305028992,2.045599448433639,-0.33421445653212695,1.3698282357914295,-0.22193238238603671,-0.6102628045724713,0.0017690234896781554,-0.04204991805875179,-0.657832891428659,0.6650758916643928,0.24847769093100325,-0.25137379018310524
364.0,-0.30610884717231607,-0.8394432170094445,2.0450604186901282,-0.3324735115639548,1.3702664993602094,-0.22205882806471247,-0.6103558750355117,0.0017041818901283115,-0.041938190380055404,-0.6580086770238484,0.6652235180151026,0.2480561695248065,-0.2509390141082406
365.0,-0.30588654442034074,-0.8393936035159897,2.0445213889466176,-0.3307325665957828,1.3707047629289895,-0.22218527374338823,-0.610448918504372,0.0016392937510047393,-0.04182611054584527,-0.6581844399009422,0.6653706442161337,0.24763460540823512,-0.2505039941637617
366.0,-0.3056642416683654,-0.8393439900225349,2.0439823592031066,-0.32899162162761075,1.3711430264977693,-0.22231171942206396,-0.6105419351962124,0.0015743591533969542,-0.04171367856826452,-0.6583601798068448,0.665517270111028,0.24721299875823266,-0.2500687306994337
367.0,-0.3054419389163901,-0.8392943765290801,2.043443329459596,-0.32725067665943874,1.3715812900665492,-0.22243816510073972,-0.6106349253283515,0.0015093781782200817,-0.04160089445992121,-0.6585358964883486,0.6656633955437417,0.24679134975172037,-0.2496332240652014
368.0,-0.3052196361644148,-0.8392447630356253,2.0429042997160853,-0.32550973169126673,1.3720195536353292,-0.22256461077941547,-0.610727889118266,0.001444350906214913,-0.041487758233888894,-0.6587115896921347,0.6658090203586441,0.2463696585655969,-0.24919747461119
369.0,-0.30499733341243945,-0.8391951495421706,2.0423652699725743,-0.32376878672309467,1.372457817204109,-0.2226910564580912,-0.6108208267835904,0.0013792774179472648,-0.04137426990370663,-0.658887259164773,0.6659541444005185,0.24594792537673818,-0.24876148268770445
370.0,-0.30477503066046413,-0.8391455360487158,2.0418262402290637,-0.32202784175492266,1.3728960807728892,-0.22281750213676696,-0.6109137385421127,0.0013141577938076503,-0.04126042948337941,-0.6590629046527221,0.6660987675145632,0.24552615036199693,-0.24832524864522887
371.0,-0.3045527279084888,-0.839095922555261,2.041287210485553,-0.32028689678675065,1.373334344341669,-0.2229439478154427,-0.6110066246117796,0.0012489921140110998,-0.0411462369873781,-0.6592385259023311,0.6662428895463899,0.24510433369820325,-0.24788877283442712
372.0,-0.3043304251565135,-0.8390463090618062,2.040748180742042,-0.3185459518185786,1.3737726079104489,-0.22307039349411845,-0.611099485210691,0.0011837804585970288,-0.041031692430640185,-0.6594141226598379,0.6663865103420252,0.24468247556216433,-0.2474520556061415
373.0,-0.30410812240453816,-0.8389966955683514,2.0402091509985314,-0.3168050068504066,1.374210871479229,-0.2231968391727942,-0.6111923205571017,0.0011185229074282754,-0.04091679582856908,-0.659589694671371,0.6665296297479106,0.24426057613066346,-0.24701509731139318
374.0,-0.30388581965256284,-0.8389470820748967,2.0396701212550203,-0.3150640618822345,1.3746491350480088,-0.22332328485146993,-0.61128513086942,0.001053219540191488,-0.04080154719703545,-0.6597652416829489,0.6666722476109024,0.24383863558046137,-0.246577898301382
